(Exported by FreeCAD)
(Post Processor: grbl_post)
(Output Time:2019-10-31 19:14:24.380840)
(begin preamble)
G17 G90
G21
(begin operation: T2: Mill)
(Path: T2: Mill)
(T2: Mill)
(begin toolchange)
; M6 T2
M3 S5000.0000
(finish operation: T2: Mill)
(begin operation: MillFace)
(Path: MillFace)
(MillFace)
G0 Z6.0000
G0 X-1.0000 Y-1.0000
G0 Z4.0000
G1 X-1.0000 Y-1.0000 Z0.0000 F12000.00
G1 X-151.0000 Y-1.0000 Z0.0000 F48000.00
G1 X-151.0000 Y-97.0000 Z0.0000 F48000.00
G1 X-1.0000 Y-97.0000 Z0.0000 F48000.00
G1 X-1.0000 Y-1.0000 Z0.0000 F48000.00
G0 X-1.0000 Y-1.0000 Z6.0000
G0 X-2.5000 Y-2.5000 Z6.0000
G0 X-2.5000 Y-2.5000 Z4.0000
G1 X-2.5000 Y-2.5000 Z0.0000 F12000.00
G1 X-149.5000 Y-2.5000 Z0.0000 F48000.00
G1 X-149.5000 Y-95.5000 Z0.0000 F48000.00
G1 X-2.5000 Y-95.5000 Z0.0000 F48000.00
G1 X-2.5000 Y-2.5000 Z0.0000 F48000.00
G0 X-2.5000 Y-2.5000 Z6.0000
G0 X-4.0000 Y-4.0000 Z6.0000
G0 X-4.0000 Y-4.0000 Z4.0000
G1 X-4.0000 Y-4.0000 Z0.0000 F12000.00
G1 X-148.0000 Y-4.0000 Z0.0000 F48000.00
G1 X-148.0000 Y-94.0000 Z0.0000 F48000.00
G1 X-4.0000 Y-94.0000 Z0.0000 F48000.00
G1 X-4.0000 Y-4.0000 Z0.0000 F48000.00
G0 X-4.0000 Y-4.0000 Z6.0000
G0 X-5.5000 Y-5.5000 Z6.0000
G0 X-5.5000 Y-5.5000 Z4.0000
G1 X-5.5000 Y-5.5000 Z0.0000 F12000.00
G1 X-146.5000 Y-5.5000 Z0.0000 F48000.00
G1 X-146.5000 Y-92.5000 Z0.0000 F48000.00
G1 X-5.5000 Y-92.5000 Z0.0000 F48000.00
G1 X-5.5000 Y-5.5000 Z0.0000 F48000.00
G0 X-5.5000 Y-5.5000 Z6.0000
G0 X-7.0000 Y-7.0000 Z6.0000
G0 X-7.0000 Y-7.0000 Z4.0000
G1 X-7.0000 Y-7.0000 Z0.0000 F12000.00
G1 X-145.0000 Y-7.0000 Z0.0000 F48000.00
G1 X-145.0000 Y-91.0000 Z0.0000 F48000.00
G1 X-7.0000 Y-91.0000 Z0.0000 F48000.00
G1 X-7.0000 Y-7.0000 Z0.0000 F48000.00
G0 X-7.0000 Y-7.0000 Z6.0000
G0 X-8.5000 Y-8.5000 Z6.0000
G0 X-8.5000 Y-8.5000 Z4.0000
G1 X-8.5000 Y-8.5000 Z0.0000 F12000.00
G1 X-143.5000 Y-8.5000 Z0.0000 F48000.00
G1 X-143.5000 Y-89.5000 Z0.0000 F48000.00
G1 X-8.5000 Y-89.5000 Z0.0000 F48000.00
G1 X-8.5000 Y-8.5000 Z0.0000 F48000.00
G0 X-8.5000 Y-8.5000 Z6.0000
G0 X-10.0000 Y-10.0000 Z6.0000
G0 X-10.0000 Y-10.0000 Z4.0000
G1 X-10.0000 Y-10.0000 Z0.0000 F12000.00
G1 X-142.0000 Y-10.0000 Z0.0000 F48000.00
G1 X-142.0000 Y-88.0000 Z0.0000 F48000.00
G1 X-10.0000 Y-88.0000 Z0.0000 F48000.00
G1 X-10.0000 Y-10.0000 Z0.0000 F48000.00
G0 X-10.0000 Y-10.0000 Z6.0000
G0 X-11.5000 Y-11.5000 Z6.0000
G0 X-11.5000 Y-11.5000 Z4.0000
G1 X-11.5000 Y-11.5000 Z0.0000 F12000.00
G1 X-140.5000 Y-11.5000 Z0.0000 F48000.00
G1 X-140.5000 Y-86.5000 Z0.0000 F48000.00
G1 X-11.5000 Y-86.5000 Z0.0000 F48000.00
G1 X-11.5000 Y-11.5000 Z0.0000 F48000.00
G0 X-11.5000 Y-11.5000 Z6.0000
G0 X-13.0000 Y-13.0000 Z6.0000
G0 X-13.0000 Y-13.0000 Z4.0000
G1 X-13.0000 Y-13.0000 Z0.0000 F12000.00
G1 X-139.0000 Y-13.0000 Z0.0000 F48000.00
G1 X-139.0000 Y-85.0000 Z0.0000 F48000.00
G1 X-13.0000 Y-85.0000 Z0.0000 F48000.00
G1 X-13.0000 Y-13.0000 Z0.0000 F48000.00
G0 X-13.0000 Y-13.0000 Z6.0000
G0 X-14.5000 Y-14.5000 Z6.0000
G0 X-14.5000 Y-14.5000 Z4.0000
G1 X-14.5000 Y-14.5000 Z0.0000 F12000.00
G1 X-137.5000 Y-14.5000 Z0.0000 F48000.00
G1 X-137.5000 Y-83.5000 Z0.0000 F48000.00
G1 X-14.5000 Y-83.5000 Z0.0000 F48000.00
G1 X-14.5000 Y-14.5000 Z0.0000 F48000.00
G0 X-14.5000 Y-14.5000 Z6.0000
G0 X-16.0000 Y-16.0000 Z6.0000
G0 X-16.0000 Y-16.0000 Z4.0000
G1 X-16.0000 Y-16.0000 Z0.0000 F12000.00
G1 X-136.0000 Y-16.0000 Z0.0000 F48000.00
G1 X-136.0000 Y-82.0000 Z0.0000 F48000.00
G1 X-16.0000 Y-82.0000 Z0.0000 F48000.00
G1 X-16.0000 Y-16.0000 Z0.0000 F48000.00
G0 X-16.0000 Y-16.0000 Z6.0000
G0 X-17.5000 Y-17.5000 Z6.0000
G0 X-17.5000 Y-17.5000 Z4.0000
G1 X-17.5000 Y-17.5000 Z0.0000 F12000.00
G1 X-134.5000 Y-17.5000 Z0.0000 F48000.00
G1 X-134.5000 Y-80.5000 Z0.0000 F48000.00
G1 X-17.5000 Y-80.5000 Z0.0000 F48000.00
G1 X-17.5000 Y-17.5000 Z0.0000 F48000.00
G0 X-17.5000 Y-17.5000 Z6.0000
G0 X-19.0000 Y-19.0000 Z6.0000
G0 X-19.0000 Y-19.0000 Z4.0000
G1 X-19.0000 Y-19.0000 Z0.0000 F12000.00
G1 X-133.0000 Y-19.0000 Z0.0000 F48000.00
G1 X-133.0000 Y-79.0000 Z0.0000 F48000.00
G1 X-19.0000 Y-79.0000 Z0.0000 F48000.00
G1 X-19.0000 Y-19.0000 Z0.0000 F48000.00
G0 X-19.0000 Y-19.0000 Z6.0000
G0 X-20.5000 Y-20.5000 Z6.0000
G0 X-20.5000 Y-20.5000 Z4.0000
G1 X-20.5000 Y-20.5000 Z0.0000 F12000.00
G1 X-131.5000 Y-20.5000 Z0.0000 F48000.00
G1 X-131.5000 Y-77.5000 Z0.0000 F48000.00
G1 X-20.5000 Y-77.5000 Z0.0000 F48000.00
G1 X-20.5000 Y-20.5000 Z0.0000 F48000.00
G0 X-20.5000 Y-20.5000 Z6.0000
G0 X-22.0000 Y-22.0000 Z6.0000
G0 X-22.0000 Y-22.0000 Z4.0000
G1 X-22.0000 Y-22.0000 Z0.0000 F12000.00
G1 X-130.0000 Y-22.0000 Z0.0000 F48000.00
G1 X-130.0000 Y-76.0000 Z0.0000 F48000.00
G1 X-22.0000 Y-76.0000 Z0.0000 F48000.00
G1 X-22.0000 Y-22.0000 Z0.0000 F48000.00
G0 X-22.0000 Y-22.0000 Z6.0000
G0 X-23.5000 Y-23.5000 Z6.0000
G0 X-23.5000 Y-23.5000 Z4.0000
G1 X-23.5000 Y-23.5000 Z0.0000 F12000.00
G1 X-128.5000 Y-23.5000 Z0.0000 F48000.00
G1 X-128.5000 Y-74.5000 Z0.0000 F48000.00
G1 X-23.5000 Y-74.5000 Z0.0000 F48000.00
G1 X-23.5000 Y-23.5000 Z0.0000 F48000.00
G0 X-23.5000 Y-23.5000 Z6.0000
G0 X-25.0000 Y-25.0000 Z6.0000
G0 X-25.0000 Y-25.0000 Z4.0000
G1 X-25.0000 Y-25.0000 Z0.0000 F12000.00
G1 X-127.0000 Y-25.0000 Z0.0000 F48000.00
G1 X-127.0000 Y-73.0000 Z0.0000 F48000.00
G1 X-25.0000 Y-73.0000 Z0.0000 F48000.00
G1 X-25.0000 Y-25.0000 Z0.0000 F48000.00
G0 X-25.0000 Y-25.0000 Z6.0000
G0 X-26.5000 Y-26.5000 Z6.0000
G0 X-26.5000 Y-26.5000 Z4.0000
G1 X-26.5000 Y-26.5000 Z0.0000 F12000.00
G1 X-125.5000 Y-26.5000 Z0.0000 F48000.00
G1 X-125.5000 Y-71.5000 Z0.0000 F48000.00
G1 X-26.5000 Y-71.5000 Z0.0000 F48000.00
G1 X-26.5000 Y-26.5000 Z0.0000 F48000.00
G0 X-26.5000 Y-26.5000 Z6.0000
G0 X-28.0000 Y-28.0000 Z6.0000
G0 X-28.0000 Y-28.0000 Z4.0000
G1 X-28.0000 Y-28.0000 Z0.0000 F12000.00
G1 X-124.0000 Y-28.0000 Z0.0000 F48000.00
G1 X-124.0000 Y-70.0000 Z0.0000 F48000.00
G1 X-28.0000 Y-70.0000 Z0.0000 F48000.00
G1 X-28.0000 Y-28.0000 Z0.0000 F48000.00
G0 X-28.0000 Y-28.0000 Z6.0000
G0 X-29.5000 Y-29.5000 Z6.0000
G0 X-29.5000 Y-29.5000 Z4.0000
G1 X-29.5000 Y-29.5000 Z0.0000 F12000.00
G1 X-122.5000 Y-29.5000 Z0.0000 F48000.00
G1 X-122.5000 Y-68.5000 Z0.0000 F48000.00
G1 X-29.5000 Y-68.5000 Z0.0000 F48000.00
G1 X-29.5000 Y-29.5000 Z0.0000 F48000.00
G0 X-29.5000 Y-29.5000 Z6.0000
G0 X-31.0000 Y-31.0000 Z6.0000
G0 X-31.0000 Y-31.0000 Z4.0000
G1 X-31.0000 Y-31.0000 Z0.0000 F12000.00
G1 X-121.0000 Y-31.0000 Z0.0000 F48000.00
G1 X-121.0000 Y-67.0000 Z0.0000 F48000.00
G1 X-31.0000 Y-67.0000 Z0.0000 F48000.00
G1 X-31.0000 Y-31.0000 Z0.0000 F48000.00
G0 X-31.0000 Y-31.0000 Z6.0000
G0 X-32.5000 Y-32.5000 Z6.0000
G0 X-32.5000 Y-32.5000 Z4.0000
G1 X-32.5000 Y-32.5000 Z0.0000 F12000.00
G1 X-119.5000 Y-32.5000 Z0.0000 F48000.00
G1 X-119.5000 Y-65.5000 Z0.0000 F48000.00
G1 X-32.5000 Y-65.5000 Z0.0000 F48000.00
G1 X-32.5000 Y-32.5000 Z0.0000 F48000.00
G0 X-32.5000 Y-32.5000 Z6.0000
G0 X-34.0000 Y-34.0000 Z6.0000
G0 X-34.0000 Y-34.0000 Z4.0000
G1 X-34.0000 Y-34.0000 Z0.0000 F12000.00
G1 X-118.0000 Y-34.0000 Z0.0000 F48000.00
G1 X-118.0000 Y-64.0000 Z0.0000 F48000.00
G1 X-34.0000 Y-64.0000 Z0.0000 F48000.00
G1 X-34.0000 Y-34.0000 Z0.0000 F48000.00
G0 X-34.0000 Y-34.0000 Z6.0000
G0 X-35.5000 Y-35.5000 Z6.0000
G0 X-35.5000 Y-35.5000 Z4.0000
G1 X-35.5000 Y-35.5000 Z0.0000 F12000.00
G1 X-116.5000 Y-35.5000 Z0.0000 F48000.00
G1 X-116.5000 Y-62.5000 Z0.0000 F48000.00
G1 X-35.5000 Y-62.5000 Z0.0000 F48000.00
G1 X-35.5000 Y-35.5000 Z0.0000 F48000.00
G0 X-35.5000 Y-35.5000 Z6.0000
G0 X-37.0000 Y-37.0000 Z6.0000
G0 X-37.0000 Y-37.0000 Z4.0000
G1 X-37.0000 Y-37.0000 Z0.0000 F12000.00
G1 X-115.0000 Y-37.0000 Z0.0000 F48000.00
G1 X-115.0000 Y-61.0000 Z0.0000 F48000.00
G1 X-37.0000 Y-61.0000 Z0.0000 F48000.00
G1 X-37.0000 Y-37.0000 Z0.0000 F48000.00
G0 X-37.0000 Y-37.0000 Z6.0000
G0 X-38.5000 Y-38.5000 Z6.0000
G0 X-38.5000 Y-38.5000 Z4.0000
G1 X-38.5000 Y-38.5000 Z0.0000 F12000.00
G1 X-113.5000 Y-38.5000 Z0.0000 F48000.00
G1 X-113.5000 Y-59.5000 Z0.0000 F48000.00
G1 X-38.5000 Y-59.5000 Z0.0000 F48000.00
G1 X-38.5000 Y-38.5000 Z0.0000 F48000.00
G0 X-38.5000 Y-38.5000 Z6.0000
G0 X-40.0000 Y-40.0000 Z6.0000
G0 X-40.0000 Y-40.0000 Z4.0000
G1 X-40.0000 Y-40.0000 Z0.0000 F12000.00
G1 X-112.0000 Y-40.0000 Z0.0000 F48000.00
G1 X-112.0000 Y-58.0000 Z0.0000 F48000.00
G1 X-40.0000 Y-58.0000 Z0.0000 F48000.00
G1 X-40.0000 Y-40.0000 Z0.0000 F48000.00
G0 X-40.0000 Y-40.0000 Z6.0000
G0 X-41.5000 Y-41.5000 Z6.0000
G0 X-41.5000 Y-41.5000 Z4.0000
G1 X-41.5000 Y-41.5000 Z0.0000 F12000.00
G1 X-110.5000 Y-41.5000 Z0.0000 F48000.00
G1 X-110.5000 Y-56.5000 Z0.0000 F48000.00
G1 X-41.5000 Y-56.5000 Z0.0000 F48000.00
G1 X-41.5000 Y-41.5000 Z0.0000 F48000.00
G0 X-41.5000 Y-41.5000 Z6.0000
G0 X-43.0000 Y-43.0000 Z6.0000
G0 X-43.0000 Y-43.0000 Z4.0000
G1 X-43.0000 Y-43.0000 Z0.0000 F12000.00
G1 X-109.0000 Y-43.0000 Z0.0000 F48000.00
G1 X-109.0000 Y-55.0000 Z0.0000 F48000.00
G1 X-43.0000 Y-55.0000 Z0.0000 F48000.00
G1 X-43.0000 Y-43.0000 Z0.0000 F48000.00
G0 X-43.0000 Y-43.0000 Z6.0000
G0 X-44.5000 Y-44.5000 Z6.0000
G0 X-44.5000 Y-44.5000 Z4.0000
G1 X-44.5000 Y-44.5000 Z0.0000 F12000.00
G1 X-107.5000 Y-44.5000 Z0.0000 F48000.00
G1 X-107.5000 Y-53.5000 Z0.0000 F48000.00
G1 X-44.5000 Y-53.5000 Z0.0000 F48000.00
G1 X-44.5000 Y-44.5000 Z0.0000 F48000.00
G0 X-44.5000 Y-44.5000 Z6.0000
G0 X-46.0000 Y-46.0000 Z6.0000
G0 X-46.0000 Y-46.0000 Z4.0000
G1 X-46.0000 Y-46.0000 Z0.0000 F12000.00
G1 X-106.0000 Y-46.0000 Z0.0000 F48000.00
G1 X-106.0000 Y-52.0000 Z0.0000 F48000.00
G1 X-46.0000 Y-52.0000 Z0.0000 F48000.00
G1 X-46.0000 Y-46.0000 Z0.0000 F48000.00
G0 X-46.0000 Y-46.0000 Z6.0000
G0 X-47.5000 Y-47.5000 Z6.0000
G0 X-47.5000 Y-47.5000 Z4.0000
G1 X-47.5000 Y-47.5000 Z0.0000 F12000.00
G1 X-104.5000 Y-47.5000 Z0.0000 F48000.00
G1 X-104.5000 Y-50.5000 Z0.0000 F48000.00
G1 X-47.5000 Y-50.5000 Z0.0000 F48000.00
G1 X-47.5000 Y-47.5000 Z0.0000 F48000.00
G0 X-47.5000 Y-47.5000 Z6.0000
G0 X-48.0000 Y-48.0000 Z6.0000
G0 X-48.0000 Y-48.0000 Z4.0000
G1 X-48.0000 Y-48.0000 Z0.0000 F12000.00
G1 X-104.0000 Y-48.0000 Z0.0000 F48000.00
G1 X-104.0000 Y-50.0000 Z0.0000 F48000.00
G1 X-48.0000 Y-50.0000 Z0.0000 F48000.00
G1 X-48.0000 Y-48.0000 Z0.0000 F48000.00
G0 X-48.0000 Y-48.0000 Z6.0000
G0 X-48.5000 Y-48.5000 Z6.0000
G0 X-48.5000 Y-48.5000 Z4.0000
G1 X-48.5000 Y-48.5000 Z0.0000 F12000.00
G1 X-103.5000 Y-48.5000 Z0.0000 F48000.00
G1 X-103.5000 Y-49.5000 Z0.0000 F48000.00
G1 X-48.5000 Y-49.5000 Z0.0000 F48000.00
G1 X-48.5000 Y-48.5000 Z0.0000 F48000.00
G0 Z6.0000
(finish operation: MillFace)
(begin postamble)
M5
G17 G90
; M2
