%
(Header)
(Generated by gcodetools from Inkscape.)
(Using default header. To add your own header create file "header" in the output dir.)
M3
(Header end.)
G21 (All units in mm)

(Start cutting path id: path6194)
(Change tool to Cone cutter)

G00 Z5.000000
G00 X389.625000 Y846.910305

G01 Z-0.125000 F100.0(Penetrate)
G02 X389.232840 Y843.851336 Z-0.125000 I-35.309315 J2.972029 F400.000000
G02 X388.576170 Y840.838045 Z-0.125000 I-34.914659 J6.030567
G02 X479.467186 Y738.997418 Z-0.125000 I-138.771083 J-215.330468
G02 X505.626950 Y608.941565 Z-0.125000 I-230.903739 J-114.103410
G02 X552.733481 Y582.163183 Z-0.125000 I-256.300497 J-505.687049
G02 X597.068360 Y551.009915 Z-0.125000 I-303.406500 J-478.907833
G03 X601.017940 Y576.195997 Z-0.125000 I-242.738469 J50.967992
G03 X602.361330 Y601.654455 Z-0.125000 I-246.687581 J25.781862
G03 X541.696105 Y763.925373 Z-0.125000 I-248.031367 J-0.251545
G03 X389.625000 Y846.910305 Z-0.125000 I-187.366134 J-162.522456
G01 X389.625000 Y846.910305 Z-0.125000
G00 Z5.000000

(End cutting path id: path6194)


(Start cutting path id: path6194)
(Change tool to Cone cutter)

G00 Z5.000000
G00 X319.029300 Y846.828305

G01 Z-0.125000 F100.0(Penetrate)
G03 X185.708099 Y783.134324 Z-0.125000 I35.407549 J-245.491169 F400.000000
G03 X112.263670 Y654.925965 Z-0.125000 I168.728770 J-181.797210
G02 X160.300244 Y664.527064 Z-0.125000 I135.029414 J-550.614467
G02 X208.986330 Y669.945495 Z-0.125000 I86.992549 J-560.213689
G02 X245.734032 Y764.740760 Z-0.125000 I254.686692 J-44.209831
G02 X320.158200 Y840.414245 Z-0.125000 I215.331357 J-137.341904
G02 X319.446075 Y843.595284 Z-0.125000 I34.185541 J9.323196
G02 X319.029300 Y846.828305 Z-0.125000 I34.896409 J6.141936
G01 X319.029300 Y846.828305 Z-0.125000
G00 Z5.000000

(End cutting path id: path6194)


(Start cutting path id: path6194)
(Change tool to Cone cutter)

G00 Z5.000000
G00 X336.972660 Y663.879095

G01 Z-0.125000 F100.0(Penetrate)
G02 X414.284320 Y645.919140 Z-0.125000 I-89.314394 J-559.849419 F400.000000
G02 X488.330080 Y617.338075 Z-0.125000 I-166.626096 J-541.889600
G03 X462.326355 Y733.787191 Z-0.125000 I-239.288561 J7.693500
G03 X379.978520 Y825.306825 Z-0.125000 I-212.394574 J-108.301664
G02 X368.289441 Y817.145796 Z-0.125000 I-25.713855 J24.378396
G02 X354.330080 Y814.252135 Z-0.125000 I-14.024731 J32.539323
G02 X340.548894 Y817.050080 Z-0.125000 I0.018520 J35.429576
G02 X328.941410 Y824.988465 Z-0.125000 I13.801556 J32.636006
G03 X261.506539 Y756.659693 Z-0.125000 I132.180477 J-197.891964
G03 X227.175780 Y671.494325 Z-0.125000 I201.263311 J-130.632826
G02 X237.601094 Y671.852956 Z-0.125000 I24.703300 J-566.408521
G02 X248.031250 Y672.019715 Z-0.125000 I14.277927 J-566.764825
G02 X274.988159 Y671.187601 Z-0.125000 I-4.008398 J-566.915045
G02 X301.875000 Y669.074405 Z-0.125000 I-30.965203 J-566.081019
G02 X288.625724 Y626.424154 Z-0.125000 I-205.762897 J40.537059
G02 X274.716800 Y601.353695 Z-0.125000 I-133.626034 J57.741319
G02 X253.556988 Y578.741552 Z-0.125000 I-86.896895 J60.109236
G02 X246.449220 Y574.730655 Z-0.125000 I-16.162302 J20.338107
G02 X232.949842 Y570.509027 Z-0.125000 I-46.594298 J125.299150
G03 X208.173830 Y562.441595 Z-0.125000 I49.945055 J-195.465715
G03 X186.748573 Y550.878199 Z-0.125000 I39.124203 J-98.121949
G03 X167.400390 Y527.859555 Z-0.125000 I33.345640 J-47.669300
G03 X165.160204 Y489.126705 Z-0.125000 I47.396347 J-22.172463
G03 X185.761720 Y450.427915 Z-0.125000 I124.963480 J41.691943
G03 X217.920672 Y417.588622 Z-0.125000 I153.923535 J118.568658
G03 X262.357420 Y389.511905 Z-0.125000 I145.038485 J180.347840
G03 X290.516769 Y378.701075 Z-0.125000 I78.954270 J163.575716
G03 X331.251950 Y370.209165 Z-0.125000 I74.753453 J256.639767
G03 X350.904707 Y368.679460 Z-0.125000 I25.132190 J195.875314
G03 X369.386720 Y369.759945 Z-0.125000 I2.985223 J107.547271
G03 X386.857832 Y374.525099 Z-0.125000 I-10.740726 J73.791038
G03 X402.966800 Y386.455265 Z-0.125000 I-15.359728 J37.580637
G03 X418.211696 Y413.287684 Z-0.125000 I-71.861971 J58.575452
G03 X421.140620 Y439.070495 Z-0.125000 I-52.061365 J18.971933
G03 X413.969865 Y463.641098 Z-0.125000 I-79.360867 J-9.829234
G03 X398.615230 Y493.058775 Z-0.125000 I-411.926426 J-196.290062
G03 X387.905947 Y501.553043 Z-0.125000 I-15.513156 J-8.560374
G03 X374.337630 Y499.897195 Z-0.125000 I-4.803881 J-17.054671
G03 X365.985482 Y489.076721 Z-0.125000 I8.764438 J-15.398808
G03 X367.820310 Y475.531435 Z-0.125000 I17.116557 J-4.578326
G02 X382.774587 Y446.131470 Z-0.125000 I-305.850596 J-174.073972
G02 X385.976560 Y434.715025 Z-0.125000 I-36.112545 J-16.285746
G02 X384.879763 Y425.260336 Z-0.125000 I-19.973839 J-2.473885
G02 X375.500000 Y408.841985 Z-0.125000 I-54.038900 J19.983797
G02 X374.692295 Y408.184258 Z-0.125000 I-1.997486 J1.628156
G02 X364.283200 Y404.824405 Z-0.125000 I-15.128989 J29.066795
G02 X352.751278 Y404.102197 Z-0.125000 I-10.160007 J69.801258
G02 X335.761720 Y405.353695 Z-0.125000 I3.064932 J157.553219
G02 X298.778088 Y413.241485 Z-0.125000 I29.193069 J227.524932
G02 X277.759770 Y421.422055 Z-0.125000 I41.474486 J137.651733
G02 X239.677257 Y445.571834 Z-0.125000 I85.079876 J176.266636
G02 X213.832030 Y472.050965 Z-0.125000 I99.805650 J123.269141
G02 X198.603955 Y503.134467 Z-0.125000 I68.730168 J52.943435
G02 X199.494140 Y512.843935 Z-0.125000 I13.905855 J3.620622
G02 X206.296459 Y521.164972 Z-0.125000 I19.849626 J-9.285848
G02 X221.296880 Y529.527525 Z-0.125000 I39.691710 J-53.562580
G02 X239.053414 Y535.326175 Z-0.125000 I54.285723 J-136.146681
G03 X258.798830 Y541.519715 Z-0.125000 I-49.548006 J192.533924
G03 X279.934694 Y554.209102 Z-0.125000 I-23.396797 J62.917469
G03 X303.857420 Y581.195495 Z-0.125000 I-99.812286 J112.577593
G03 X321.667305 Y613.517265 Z-0.125000 I-149.721808 J103.567116
G03 X336.966800 Y663.838075 Z-0.125000 I-226.735888 J96.422811
G01 X336.972800 Y663.879075 Z-0.125000
G00 Z5.000000

(End cutting path id: path6194)


(Footer)
M5
G00 X0.0000 Y0.0000
M2
(Using default footer. To add your own footer create file "footer" in the output dir.)
(end)
%