%
(Header)
(Generated by gcodetools from Inkscape.)
(Using default header. To add your own header create file "header" in the output dir.)
M3
(Header end.)
G21 (All units in mm)

(Pass at depth -2.0)
(Start cutting path id: path6194)
(Change tool to Cone cutter)

G00 Z10.000000
G00 X82.993054 Y87.671947

G01 Z-0.125000 F50.0(Penetrate)
G02 X82.941239 Y87.267749 Z-0.125000 I-4.663417 J0.392391 F800.000000
G02 X82.854466 Y86.869591 Z-0.125000 I-4.613540 J0.796924
G02 X94.864406 Y73.412816 Z-0.125000 I-18.336612 J-28.452832
G02 X98.321044 Y56.227810 Z-0.125000 I-30.510604 J-15.077125
G02 X104.545489 Y52.689433 Z-0.125000 I-33.866387 J-66.819156
G02 X110.403706 Y48.572977 Z-0.125000 I-40.091184 J-63.281334
G03 X110.925585 Y51.900956 Z-0.125000 I-32.074993 J6.734768
G03 X111.103099 Y55.264921 Z-0.125000 I-32.596696 J3.406771
G03 X103.087070 Y76.706686 Z-0.125000 I-32.773703 J-0.033204
G03 X82.993054 Y87.671947 Z-0.125000 I-24.757745 J-21.475029
G01 X82.993054 Y87.671947 Z-0.125000
G00 Z10.000000

(Change tool to Cone cutter)

G00 Z10.000000
G00 X73.664848 Y87.661087

G01 Z-0.125000 F50.0(Penetrate)
G03 X56.048374 Y79.244845 Z-0.125000 I4.678600 J-32.438121 F800.000000
G03 X46.343752 Y62.303959 Z-0.125000 I22.295074 J-24.021879
G02 X52.691091 Y63.572606 Z-0.125000 I17.842144 J-72.755497
G02 X59.124256 Y64.288570 Z-0.125000 I11.494667 J-74.023256
G02 X63.979937 Y76.814402 Z-0.125000 I33.653188 J-5.841696
G02 X73.814020 Y86.813563 Z-0.125000 I28.452934 J-18.147753
G02 X73.719920 Y87.233893 Z-0.125000 I4.516982 J1.231917
G02 X73.664848 Y87.661087 Z-0.125000 I4.611191 J0.811607
G01 X73.664848 Y87.661087 Z-0.125000
G00 Z10.000000

(Change tool to Cone cutter)

G00 Z10.000000
G00 X76.035808 Y63.486988

G01 Z-0.125000 F50.0(Penetrate)
G02 X86.251427 Y61.113837 Z-0.125000 I-11.801629 J-73.976019 F800.000000
G02 X96.035509 Y57.337258 Z-0.125000 I-22.017295 J-71.603020
G03 X92.599492 Y72.724331 Z-0.125000 I-31.618554 J1.016584
G03 X81.718411 Y84.817336 Z-0.125000 I-28.064877 J-14.310494
G02 X80.173868 Y83.738975 Z-0.125000 I-3.397715 J3.221259
G02 X78.329338 Y83.356618 Z-0.125000 I-1.853174 J4.299624
G02 X76.508357 Y83.726422 Z-0.125000 I0.003336 J4.684746
G02 X74.974594 Y84.775267 Z-0.125000 I1.822857 J4.311489
G03 X66.064047 Y75.746607 Z-0.125000 I17.465730 J-26.148563
G03 X61.527730 Y64.493230 Z-0.125000 I26.594049 J-17.261251
G02 X62.905286 Y64.540618 Z-0.125000 I3.264126 J-74.841600
G02 X64.283482 Y64.562650 Z-0.125000 I1.886322 J-74.879128
G02 X67.845448 Y64.452700 Z-0.125000 I-0.529567 J-74.908139
G02 X71.398156 Y64.173469 Z-0.125000 I-4.091467 J-74.796987
G02 X69.647455 Y58.537853 Z-0.125000 I-27.188558 J5.356375
G02 X67.809592 Y55.225156 Z-0.125000 I-17.656741 J7.629682
G02 X65.013627 Y52.237288 Z-0.125000 I-11.482126 J7.942527
G02 X64.074439 Y51.707308 Z-0.125000 I-2.135592 J2.687362
G02 X62.290689 Y51.149479 Z-0.125000 I-6.156682 J16.556164
G03 X59.016898 Y50.083483 Z-0.125000 I6.599433 J-25.827674
G03 X56.185859 Y48.555546 Z-0.125000 I5.169710 J-12.965411
G03 X53.629273 Y45.513964 Z-0.125000 I4.406163 J-6.298832
G03 X53.333260 Y40.395981 Z-0.125000 I6.262762 J-2.929777
G03 X56.055460 Y35.282488 Z-0.125000 I16.511868 J5.508861
G03 X60.304799 Y30.943249 Z-0.125000 I20.338713 J15.667068
G03 X66.176479 Y27.233308 Z-0.125000 I19.164885 J23.830548
G03 X69.897328 Y25.804823 Z-0.125000 I10.432903 J21.614937
G03 X75.279898 Y24.682735 Z-0.125000 I9.877618 J33.911245
G03 X77.876726 Y24.480610 Z-0.125000 I3.321024 J25.884658
G03 X80.318857 Y24.623377 Z-0.125000 I0.394496 J14.210417
G03 X82.627407 Y25.253031 Z-0.125000 I-1.419462 J9.751127
G03 X84.755980 Y26.829439 Z-0.125000 I-2.029488 J4.965627
G03 X86.770374 Y30.374940 Z-0.125000 I-9.495406 J7.739856
G03 X87.157390 Y33.781768 Z-0.125000 I-6.879137 J2.506868
G03 X86.209878 Y37.028416 Z-0.125000 I-10.486405 J-1.298798
G03 X84.180982 Y40.915543 Z-0.125000 I-54.430020 J-25.936837
G03 X82.765907 Y42.037937 Z-0.125000 I-2.049833 J-1.131123
G03 X80.973049 Y41.819140 Z-0.125000 I-0.634763 J-2.253535
G03 X79.869433 Y40.389372 Z-0.125000 I1.158084 J-2.034724
G03 X80.111878 Y38.599558 Z-0.125000 I2.261715 J-0.604959
G02 X82.087871 Y34.714775 Z-0.125000 I-40.414557 J-23.001774
G02 X82.510966 Y33.206257 Z-0.125000 I-4.771744 J-2.151927
G02 X82.366040 Y31.956956 Z-0.125000 I-2.639268 J-0.326888
G02 X81.126640 Y29.787508 Z-0.125000 I-7.140391 J2.640533
G02 X81.019912 Y29.700597 Z-0.125000 I-0.263942 J0.215137
G02 X79.644502 Y29.256640 Z-0.125000 I-1.999067 J3.840714
G02 X78.120721 Y29.161212 Z-0.125000 I-1.342498 J9.223313
G02 X75.875800 Y29.326582 Z-0.125000 I0.404983 J20.817896
G02 X70.988944 Y30.368839 Z-0.125000 I3.857409 J30.064032
G02 X68.211676 Y31.449781 Z-0.125000 I5.480300 J18.188840
G02 X63.179622 Y34.640826 Z-0.125000 I11.242077 J23.291088
G02 X59.764546 Y38.139661 Z-0.125000 I13.187929 J16.288300
G02 X57.752374 Y42.246900 Z-0.125000 I9.081718 J6.995721
G02 X57.869998 Y43.529866 Z-0.125000 I1.837463 J0.478415
G02 X58.768828 Y44.629371 Z-0.125000 I2.622848 J-1.226999
G02 X60.750919 Y45.734362 Z-0.125000 I5.244698 J-7.077543
G02 X63.097190 Y46.500570 Z-0.125000 I7.173130 J-17.989986
G03 X65.706262 Y47.318956 Z-0.125000 I-6.547192 J25.441059
G03 X68.499061 Y48.995678 Z-0.125000 I-3.091568 J8.313660
G03 X71.660104 Y52.561537 Z-0.125000 I-13.188775 J14.875530
G03 X74.013425 Y56.832399 Z-0.125000 I-19.783707 J13.684967
G03 X76.035031 Y63.481564 Z-0.125000 I-29.959801 J12.740857
G01 X76.035931 Y63.486964 Z-0.125000
G00 Z10.000000

(End cutting path id: path6194)


(Footer)
M5
G00 X0.0000 Y0.0000
M2
(Using default footer. To add your own footer create file "footer" in the output dir.)
(end)
%