%
(Header)
(Generated by gcodetools from Inkscape.)
(Using default header. To add your own header create file "header" in the output dir.)
M3
(Header end.)
G21 (All units in mm)

(Pass at depth -2.0)
(Start cutting path id: path6194)
(Change tool to Cone cutter)

G00 Z10.000000
G00 X276.436820 Y361.503110

G01 Z-0.125000 F50.0(Penetrate)
G02 X276.264104 Y360.155783 Z-0.125000 I-15.544722 J1.307971 F800.000000
G02 X275.974860 Y358.828590 Z-0.125000 I-15.378468 J2.656414
G02 X316.007995 Y313.972674 Z-0.125000 I-61.122041 J-94.842774
G02 X327.530120 Y256.689320 Z-0.125000 I-101.702014 J-50.257083
G02 X348.278270 Y244.894729 Z-0.125000 I-112.887957 J-222.730520
G02 X367.805660 Y231.173210 Z-0.125000 I-133.637281 J-210.937781
G03 X369.545256 Y242.266472 Z-0.125000 I-106.916642 J22.449226
G03 X370.136970 Y253.479690 Z-0.125000 I-108.655653 J11.355903
G03 X343.416875 Y324.952238 Z-0.125000 I-109.245678 J-0.110680
G03 X276.436820 Y361.503110 Z-0.125000 I-82.525818 J-71.583432
G01 X276.436820 Y361.503110 Z-0.125000
G00 Z10.000000

(Change tool to Cone cutter)

G00 Z10.000000
G00 X245.342800 Y361.466910

G01 Z-0.125000 F50.0(Penetrate)
G03 X186.621221 Y333.412771 Z-0.125000 I15.595332 J-108.127069 F800.000000
G03 X154.272480 Y276.943150 Z-0.125000 I74.316912 J-80.072931
G02 X175.430278 Y281.171974 Z-0.125000 I59.473813 J-242.518323
G02 X196.874160 Y283.558520 Z-0.125000 I38.315556 J-246.744188
G02 X213.059763 Y325.311291 Z-0.125000 I112.177293 J-19.472319
G02 X245.840040 Y358.641830 Z-0.125000 I94.843115 J-60.492509
G02 X245.526375 Y360.042928 Z-0.125000 I15.056607 J4.106392
G02 X245.342800 Y361.466910 Z-0.125000 I15.370635 J2.705358
G01 X245.342800 Y361.466910 Z-0.125000
G00 Z10.000000

(Change tool to Cone cutter)

G00 Z10.000000
G00 X253.246000 Y280.886580

G01 Z-0.125000 F50.0(Penetrate)
G02 X287.298063 Y272.976075 Z-0.125000 I-39.338763 J-246.586729 F800.000000
G02 X319.911670 Y260.387480 Z-0.125000 I-73.390983 J-238.676733
G03 X308.458282 Y311.677724 Z-0.125000 I-105.395179 J3.388612
G03 X272.188010 Y351.987740 Z-0.125000 I-93.549592 J-47.701647
G02 X267.039532 Y348.393203 Z-0.125000 I-11.325718 J10.737529
G02 X260.891100 Y347.118680 Z-0.125000 I-6.177247 J14.332081
G02 X254.821165 Y348.351360 Z-0.125000 I0.011120 J15.615819
G02 X249.708620 Y351.847510 Z-0.125000 I6.076189 J14.371631
G03 X220.006796 Y321.751976 Z-0.125000 I58.219099 J-87.161876
G03 X204.885740 Y284.240720 Z-0.125000 I88.646830 J-57.537503
G02 X209.477595 Y284.398679 Z-0.125000 I10.880422 J-249.471999
G02 X214.071580 Y284.472120 Z-0.125000 I6.287739 J-249.597092
G02 X225.944799 Y284.105620 Z-0.125000 I-1.765224 J-249.693796
G02 X237.787160 Y283.174850 Z-0.125000 I-13.638224 J-249.323290
G02 X231.951489 Y264.389461 Z-0.125000 I-90.628526 J17.854583
G02 X225.825280 Y253.347140 Z-0.125000 I-58.855803 J25.432272
G02 X216.505399 Y243.387578 Z-0.125000 I-38.273753 J26.475091
G02 X213.374770 Y241.620980 Z-0.125000 I-7.118639 J8.957874
G02 X207.428936 Y239.761549 Z-0.125000 I-20.522272 J55.187212
G03 X196.516300 Y236.208230 Z-0.125000 I21.998110 J-86.092248
G03 X187.079505 Y231.115106 Z-0.125000 I17.232366 J-43.218035
G03 X178.557550 Y220.976500 Z-0.125000 I14.687210 J-20.996107
G03 X177.570840 Y203.916555 Z-0.125000 I20.875874 J-9.765922
G03 X186.644840 Y186.871580 Z-0.125000 I55.039559 J18.362869
G03 X200.809305 Y172.407449 Z-0.125000 I67.795710 J52.223561
G03 X220.381570 Y160.040980 Z-0.125000 I63.882950 J79.435158
G03 X232.784400 Y155.279363 Z-0.125000 I34.776345 J72.049791
G03 X250.726300 Y151.539070 Z-0.125000 I32.925393 J113.037485
G03 X259.382393 Y150.865319 Z-0.125000 I11.070081 J86.282193
G03 X267.522830 Y151.341210 Z-0.125000 I1.314987 J47.368058
G03 X275.217996 Y153.440055 Z-0.125000 I-4.731541 J32.503757
G03 X282.313240 Y158.694750 Z-0.125000 I-6.764959 J16.552091
G03 X289.027886 Y170.513085 Z-0.125000 I-31.651352 J25.799520
G03 X290.317940 Y181.869180 Z-0.125000 I-22.930458 J8.356227
G03 X287.159568 Y192.691340 Z-0.125000 I-34.954683 J-4.329327
G03 X280.396580 Y205.648430 Z-0.125000 I-181.433398 J-86.456124
G03 X275.679663 Y209.389742 Z-0.125000 I-6.832777 J-3.770410
G03 X269.703470 Y208.660420 Z-0.125000 I-2.115877 J-7.511783
G03 X266.024749 Y203.894526 Z-0.125000 I3.860281 J-6.782413
G03 X266.832900 Y197.928480 Z-0.125000 I7.539048 J-2.016531
G02 X273.419542 Y184.979201 Z-0.125000 I-134.715191 J-76.672580
G02 X274.829860 Y179.950810 Z-0.125000 I-15.905813 J-7.173091
G02 X274.346775 Y175.786472 Z-0.125000 I-8.797560 J-1.089627
G02 X270.215440 Y168.554980 Z-0.125000 I-23.801305 J8.801776
G02 X269.859680 Y168.265276 Z-0.125000 I-0.879808 J0.717124
G02 X265.274980 Y166.785420 Z-0.125000 I-6.663555 J12.802380
G02 X260.195709 Y166.467325 Z-0.125000 I-4.474994 J30.744375
G02 X252.712640 Y167.018560 Z-0.125000 I1.349944 J69.392987
G02 X236.423120 Y170.492748 Z-0.125000 I12.858031 J100.213441
G02 X227.165560 Y174.095890 Z-0.125000 I18.267667 J60.629466
G02 X210.392046 Y184.732707 Z-0.125000 I37.473591 J77.636958
G02 X199.008460 Y196.395490 Z-0.125000 I43.959764 J54.294332
G02 X192.301221 Y210.086286 Z-0.125000 I30.272395 J23.319071
G02 X192.693300 Y214.362840 Z-0.125000 I6.124876 J1.594715
G02 X195.689399 Y218.027855 Z-0.125000 I8.742825 J-4.089997
G02 X202.296370 Y221.711160 Z-0.125000 I17.482328 J-23.591809
G02 X210.117272 Y224.265187 Z-0.125000 I23.910432 J-59.966621
G03 X218.814180 Y226.993140 Z-0.125000 I-21.823973 J84.803530
G03 X228.123512 Y232.582212 Z-0.125000 I-10.305227 J27.712199
G03 X238.660320 Y244.468410 Z-0.125000 I-43.962583 J49.585099
G03 X246.504723 Y258.704616 Z-0.125000 I-65.945691 J45.616555
G03 X253.243410 Y280.868500 Z-0.125000 I-99.866004 J42.469522
G01 X253.246410 Y280.886500 Z-0.125000
G00 Z10.000000

(End cutting path id: path6194)


(Footer)
M5
G00 X0.0000 Y0.0000
M2
(Using default footer. To add your own footer create file "footer" in the output dir.)
(end)
%