%
(Header)
(Generated by gcodetools from Inkscape.)
(Using default header. To add your own header create file "header" in the output dir.)
M3
(Header end.)
G21 (All units in mm)

(Pass at depth -1.0)
(Start cutting path id: path6194)
(Change tool to Cone cutter)

G00 Z10.000000
G00 X5.681064 Y22.836052

G01 Z-0.500000 F400.0(Penetrate)
G02 X5.646521 Y22.566587 Z-0.500000 I-3.108944 J0.261594 F800.000000
G02 X5.588672 Y22.301148 Z-0.500000 I-3.075694 J0.531283
G02 X13.595299 Y13.329965 Z-0.500000 I-12.224408 J-18.968555
G02 X15.899724 Y1.873294 Z-0.500000 I-20.340403 J-10.051417
G02 X20.049354 Y-0.485624 Z-0.500000 I-22.577591 J-44.546104
G02 X23.954832 Y-3.229928 Z-0.500000 I-26.727456 J-42.187556
G03 X24.302751 Y-1.011276 Z-0.500000 I-21.383328 J4.489845
G03 X24.421094 Y1.231368 Z-0.500000 I-21.731131 J2.271181
G03 X19.077075 Y15.525878 Z-0.500000 I-21.849136 J-0.022136
G03 X5.681064 Y22.836052 Z-0.500000 I-16.505164 J-14.316686
G01 X5.681064 Y22.836052 Z-0.500000
G00 Z10.000000

(Change tool to Cone cutter)

G00 Z10.000000
G00 X-0.537740 Y22.828812

G01 Z-0.500000 F400.0(Penetrate)
G03 X-12.282056 Y17.217984 Z-0.500000 I3.119066 J-21.625414 F800.000000
G03 X-18.751804 Y5.924060 Z-0.500000 I14.863382 J-16.014586
G02 X-14.520244 Y6.769825 Z-0.500000 I11.894763 J-48.503665
G02 X-10.231468 Y7.247134 Z-0.500000 I7.663111 J-49.348838
G02 X-6.994347 Y15.597688 Z-0.500000 I22.435459 J-3.894464
G02 X-0.438292 Y22.263796 Z-0.500000 I18.968623 J-12.098502
G02 X-0.501025 Y22.544016 Z-0.500000 I3.011321 J0.821278
G02 X-0.537740 Y22.828812 Z-0.500000 I3.074127 J0.541072
G01 X-0.537740 Y22.828812 Z-0.500000
G00 Z10.000000

(Change tool to Cone cutter)

G00 Z10.000000
G00 X1.042900 Y6.712746

G01 Z-0.500000 F400.0(Penetrate)
G02 X7.853313 Y5.130645 Z-0.500000 I-7.867753 J-49.317346 F800.000000
G02 X14.376034 Y2.612926 Z-0.500000 I-14.678197 J-47.735347
G03 X12.085356 Y12.870975 Z-0.500000 I-21.079036 J0.677722
G03 X4.831302 Y20.932978 Z-0.500000 I-18.709918 J-9.540329
G02 X3.801606 Y20.214071 Z-0.500000 I-2.265144 J2.147506
G02 X2.571920 Y19.959166 Z-0.500000 I-1.235449 J2.866416
G02 X1.357933 Y20.205702 Z-0.500000 I0.002224 J3.123164
G02 X0.335424 Y20.904932 Z-0.500000 I1.215238 J2.874326
G03 X-5.604941 Y14.885825 Z-0.500000 I11.643820 J-17.432375
G03 X-8.629152 Y7.383574 Z-0.500000 I17.729366 J-11.507501
G02 X-7.710781 Y7.415166 Z-0.500000 I2.176084 J-49.894400
G02 X-6.791984 Y7.429854 Z-0.500000 I1.257548 J-49.919418
G02 X-4.417340 Y7.356554 Z-0.500000 I-0.353045 J-49.938759
G02 X-2.048868 Y7.170400 Z-0.500000 I-2.727645 J-49.864658
G02 X-3.216002 Y3.413322 Z-0.500000 I-18.125705 J3.570917
G02 X-4.441244 Y1.204858 Z-0.500000 I-11.771161 J5.086454
G02 X-6.305220 Y-0.787054 Z-0.500000 I-7.654751 J5.295018
G02 X-6.931346 Y-1.140374 Z-0.500000 I-1.423728 J1.791575
G02 X-8.120513 Y-1.512260 Z-0.500000 I-4.104454 J11.037442
G03 X-10.303040 Y-2.222924 Z-0.500000 I4.399622 J-17.218450
G03 X-12.190399 Y-3.241549 Z-0.500000 I3.446473 J-8.643607
G03 X-13.894790 Y-5.269270 Z-0.500000 I2.937442 J-4.199221
G03 X-14.092132 Y-8.681259 Z-0.500000 I4.175175 J-1.953184
G03 X-12.277332 Y-12.090254 Z-0.500000 I11.007912 J3.672574
G03 X-9.444439 Y-14.983080 Z-0.500000 I13.559142 J10.444712
G03 X-5.529986 Y-17.456374 Z-0.500000 I12.776590 J15.887032
G03 X-3.049420 Y-18.408697 Z-0.500000 I6.955269 J14.409958
G03 X0.538960 Y-19.156756 Z-0.500000 I6.585079 J22.607497
G03 X2.270179 Y-19.291506 Z-0.500000 I2.214016 J17.256439
G03 X3.898266 Y-19.196328 Z-0.500000 I0.262997 J9.473612
G03 X5.437299 Y-18.776559 Z-0.500000 I-0.946308 J6.500751
G03 X6.856348 Y-17.725620 Z-0.500000 I-1.352992 J3.310418
G03 X8.199277 Y-15.361953 Z-0.500000 I-6.330270 J5.159904
G03 X8.457288 Y-13.090734 Z-0.500000 I-4.586092 J1.671245
G03 X7.825614 Y-10.926302 Z-0.500000 I-6.990937 J-0.865865
G03 X6.473016 Y-8.334884 Z-0.500000 I-36.286680 J-17.291225
G03 X5.529633 Y-7.586622 Z-0.500000 I-1.366555 J-0.754082
G03 X4.334394 Y-7.732486 Z-0.500000 I-0.423175 J-1.502357
G03 X3.598650 Y-8.685665 Z-0.500000 I0.772056 J-1.356483
G03 X3.760280 Y-9.878874 Z-0.500000 I1.507810 J-0.403306
G02 X5.077608 Y-12.468730 Z-0.500000 I-26.943038 J-15.334516
G02 X5.359672 Y-13.474408 Z-0.500000 I-3.181163 J-1.434618
G02 X5.263055 Y-14.307276 Z-0.500000 I-1.759512 J-0.217925
G02 X4.436788 Y-15.753574 Z-0.500000 I-4.760261 J1.760355
G02 X4.365636 Y-15.811515 Z-0.500000 I-0.175962 J0.143425
G02 X3.448696 Y-16.107486 Z-0.500000 I-1.332711 J2.560476
G02 X2.432842 Y-16.171105 Z-0.500000 I-0.894999 J6.148875
G02 X0.936228 Y-16.060858 Z-0.500000 I0.269989 J13.878597
G02 X-2.321676 Y-15.366020 Z-0.500000 I2.571606 J20.042688
G02 X-4.173188 Y-14.645392 Z-0.500000 I3.653533 J12.125893
G02 X-7.527891 Y-12.518029 Z-0.500000 I7.494718 J15.527392
G02 X-9.804608 Y-10.185472 Z-0.500000 I8.791953 J10.858866
G02 X-11.146056 Y-7.447313 Z-0.500000 I6.054479 J4.663814
G02 X-11.067640 Y-6.592002 Z-0.500000 I1.224975 J0.318943
G02 X-10.468420 Y-5.858999 Z-0.500000 I1.748565 J-0.817999
G02 X-9.147026 Y-5.122338 Z-0.500000 I3.496466 J-4.718362
G02 X-7.582846 Y-4.611533 Z-0.500000 I4.782086 J-11.993324
G03 X-5.843464 Y-4.065942 Z-0.500000 I-4.364795 J16.960706
G03 X-3.981598 Y-2.948128 Z-0.500000 I-2.061045 J5.542440
G03 X-1.874236 Y-0.570888 Z-0.500000 I-8.792517 J9.917020
G03 X-0.305355 Y2.276353 Z-0.500000 I-13.189138 J9.123311
G03 X1.042382 Y6.709130 Z-0.500000 I-19.973201 J8.493904
G01 X1.042982 Y6.712730 Z-0.500000
G00 Z10.000000

(End cutting path id: path6194)


(Footer)
M5
G00 X0.0000 Y0.0000
M2
(Using default footer. To add your own footer create file "footer" in the output dir.)
(end)
%