%
(Header)
(Generated by gcodetools from Inkscape.)
(Using default header. To add your own header create file "header" in the output dir.)
M3
(Header end.)
G21 (All units in mm)

(Pass at depth -2.0)
(Start cutting path id: path6194)
(Change tool to Cone cutter)

G00 Z10.000000
G00 X8.521596 Y34.254078

G01 Z-0.125000 F50.0(Penetrate)
G02 X8.469781 Y33.849880 Z-0.125000 I-4.663417 J0.392391 F800.000000
G02 X8.383008 Y33.451722 Z-0.125000 I-4.613540 J0.796924
G02 X20.392949 Y19.994947 Z-0.125000 I-18.336612 J-28.452832
G02 X23.849586 Y2.809941 Z-0.125000 I-30.510604 J-15.077125
G02 X30.074031 Y-0.728436 Z-0.125000 I-33.866387 J-66.819156
G02 X35.932248 Y-4.844892 Z-0.125000 I-40.091184 J-63.281334
G03 X36.454127 Y-1.516914 Z-0.125000 I-32.074993 J6.734768
G03 X36.631641 Y1.847052 Z-0.125000 I-32.596696 J3.406771
G03 X28.615613 Y23.288816 Z-0.125000 I-32.773703 J-0.033204
G03 X8.521596 Y34.254078 Z-0.125000 I-24.757745 J-21.475029
G01 X8.521596 Y34.254078 Z-0.125000
G00 Z10.000000

(Change tool to Cone cutter)

G00 Z10.000000
G00 X-0.806610 Y34.243218

G01 Z-0.125000 F50.0(Penetrate)
G03 X-18.423084 Y25.826976 Z-0.125000 I4.678600 J-32.438121 F800.000000
G03 X-28.127706 Y8.886090 Z-0.125000 I22.295074 J-24.021879
G02 X-21.780367 Y10.154737 Z-0.125000 I17.842144 J-72.755497
G02 X-15.347202 Y10.870701 Z-0.125000 I11.494667 J-74.023256
G02 X-10.491521 Y23.396532 Z-0.125000 I33.653188 J-5.841696
G02 X-0.657438 Y33.395694 Z-0.125000 I28.452934 J-18.147753
G02 X-0.751537 Y33.816023 Z-0.125000 I4.516982 J1.231917
G02 X-0.806610 Y34.243218 Z-0.125000 I4.611191 J0.811607
G01 X-0.806610 Y34.243218 Z-0.125000
G00 Z10.000000

(Change tool to Cone cutter)

G00 Z10.000000
G00 X1.564350 Y10.069119

G01 Z-0.125000 F50.0(Penetrate)
G02 X11.779969 Y7.695967 Z-0.125000 I-11.801629 J-73.976019 F800.000000
G02 X21.564051 Y3.919389 Z-0.125000 I-22.017295 J-71.603020
G03 X18.128035 Y19.306462 Z-0.125000 I-31.618554 J1.016584
G03 X7.246953 Y31.399467 Z-0.125000 I-28.064877 J-14.310494
G02 X5.702410 Y30.321106 Z-0.125000 I-3.397715 J3.221259
G02 X3.857880 Y29.938749 Z-0.125000 I-1.853174 J4.299624
G02 X2.036900 Y30.308553 Z-0.125000 I0.003336 J4.684746
G02 X0.503136 Y31.357398 Z-0.125000 I1.822857 J4.311489
G03 X-8.407411 Y22.328738 Z-0.125000 I17.465730 J-26.148563
G03 X-12.943728 Y11.075361 Z-0.125000 I26.594049 J-17.261251
G02 X-11.566172 Y11.122749 Z-0.125000 I3.264126 J-74.841600
G02 X-10.187976 Y11.144781 Z-0.125000 I1.886322 J-74.879128
G02 X-6.626010 Y11.034831 Z-0.125000 I-0.529567 J-74.908139
G02 X-3.073302 Y10.755600 Z-0.125000 I-4.091467 J-74.796987
G02 X-4.824003 Y5.119983 Z-0.125000 I-27.188558 J5.356375
G02 X-6.661866 Y1.807287 Z-0.125000 I-17.656741 J7.629682
G02 X-9.457830 Y-1.180582 Z-0.125000 I-11.482126 J7.942527
G02 X-10.397019 Y-1.710561 Z-0.125000 I-2.135592 J2.687362
G02 X-12.180769 Y-2.268390 Z-0.125000 I-6.156682 J16.556164
G03 X-15.454560 Y-3.334386 Z-0.125000 I6.599433 J-25.827674
G03 X-18.285599 Y-4.862323 Z-0.125000 I5.169710 J-12.965411
G03 X-20.842185 Y-7.903905 Z-0.125000 I4.406163 J-6.298832
G03 X-21.138198 Y-13.021888 Z-0.125000 I6.262762 J-2.929777
G03 X-18.415998 Y-18.135381 Z-0.125000 I16.511868 J5.508861
G03 X-14.166658 Y-22.474620 Z-0.125000 I20.338713 J15.667068
G03 X-8.294979 Y-26.184561 Z-0.125000 I19.164885 J23.830548
G03 X-4.574130 Y-27.613046 Z-0.125000 I10.432903 J21.614937
G03 X0.808440 Y-28.735134 Z-0.125000 I9.877618 J33.911245
G03 X3.405268 Y-28.937259 Z-0.125000 I3.321024 J25.884658
G03 X5.847399 Y-28.794492 Z-0.125000 I0.394496 J14.210417
G03 X8.155949 Y-28.164838 Z-0.125000 I-1.419462 J9.751127
G03 X10.284522 Y-26.588430 Z-0.125000 I-2.029488 J4.965627
G03 X12.298916 Y-23.042930 Z-0.125000 I-9.495406 J7.739856
G03 X12.685932 Y-19.636101 Z-0.125000 I-6.879137 J2.506868
G03 X11.738420 Y-16.389453 Z-0.125000 I-10.486405 J-1.298798
G03 X9.709524 Y-12.502326 Z-0.125000 I-54.430020 J-25.936837
G03 X8.294449 Y-11.379932 Z-0.125000 I-2.049833 J-1.131123
G03 X6.501591 Y-11.598729 Z-0.125000 I-0.634763 J-2.253535
G03 X5.397975 Y-13.028497 Z-0.125000 I1.158084 J-2.034724
G03 X5.640420 Y-14.818311 Z-0.125000 I2.261715 J-0.604959
G02 X7.616413 Y-18.703095 Z-0.125000 I-40.414557 J-23.001774
G02 X8.039508 Y-20.211612 Z-0.125000 I-4.771744 J-2.151927
G02 X7.894583 Y-21.460913 Z-0.125000 I-2.639268 J-0.326888
G02 X6.655182 Y-23.630361 Z-0.125000 I-7.140391 J2.640533
G02 X6.548454 Y-23.717272 Z-0.125000 I-0.263942 J0.215137
G02 X5.173044 Y-24.161229 Z-0.125000 I-1.999067 J3.840714
G02 X3.649263 Y-24.256657 Z-0.125000 I-1.342498 J9.223313
G02 X1.404342 Y-24.091287 Z-0.125000 I0.404983 J20.817896
G02 X-3.482514 Y-23.049030 Z-0.125000 I3.857409 J30.064032
G02 X-6.259782 Y-21.968088 Z-0.125000 I5.480300 J18.188840
G02 X-11.291836 Y-18.777043 Z-0.125000 I11.242077 J23.291088
G02 X-14.706912 Y-15.278208 Z-0.125000 I13.187929 J16.288300
G02 X-16.719084 Y-11.170969 Z-0.125000 I9.081718 J6.995721
G02 X-16.601460 Y-9.888003 Z-0.125000 I1.837463 J0.478415
G02 X-15.702630 Y-8.788499 Z-0.125000 I2.622848 J-1.226999
G02 X-13.720539 Y-7.683507 Z-0.125000 I5.244698 J-7.077543
G02 X-11.374268 Y-6.917299 Z-0.125000 I7.173130 J-17.989986
G03 X-8.765196 Y-6.098913 Z-0.125000 I-6.547192 J25.441059
G03 X-5.972396 Y-4.422192 Z-0.125000 I-3.091568 J8.313660
G03 X-2.811354 Y-0.856332 Z-0.125000 I-13.188775 J14.875530
G03 X-0.458033 Y3.414530 Z-0.125000 I-19.783707 J13.684967
G03 X1.563573 Y10.063695 Z-0.125000 I-29.959801 J12.740857
G01 X1.564473 Y10.069095 Z-0.125000
G00 Z10.000000

(End cutting path id: path6194)


(Footer)
M5
G00 X0.0000 Y0.0000
M2
(Using default footer. To add your own footer create file "footer" in the output dir.)
(end)
%