%
(Header)
(Generated by gcodetools from Inkscape.)
(Using default header. To add your own header create file "header" in the output dir.)
M3
(Header end.)
G21 (All units in mm)

(Pass at depth -2.0)
(Start cutting path id: path6194)
(Change tool to Cone cutter)

G00 Z10.000000
G00 X276.643513 Y292.239824

G01 Z-0.125000 F50.0(Penetrate)
G02 X276.470797 Y290.892497 Z-0.125000 I-15.544722 J1.307971 F800.000000
G02 X276.181553 Y289.565304 Z-0.125000 I-15.378468 J2.656414
G02 X316.214688 Y244.709388 Z-0.125000 I-61.122041 J-94.842774
G02 X327.736813 Y187.426034 Z-0.125000 I-101.702014 J-50.257083
G02 X348.484963 Y175.631443 Z-0.125000 I-112.887957 J-222.730520
G02 X368.012353 Y161.909924 Z-0.125000 I-133.637281 J-210.937781
G03 X369.751949 Y173.003186 Z-0.125000 I-106.916642 J22.449226
G03 X370.343663 Y184.216404 Z-0.125000 I-108.655653 J11.355903
G03 X343.623568 Y255.688952 Z-0.125000 I-109.245678 J-0.110680
G03 X276.643513 Y292.239824 Z-0.125000 I-82.525818 J-71.583432
G01 X276.643513 Y292.239824 Z-0.125000
G00 Z10.000000

(Change tool to Cone cutter)

G00 Z10.000000
G00 X245.549493 Y292.203624

G01 Z-0.125000 F50.0(Penetrate)
G03 X186.827913 Y264.149485 Z-0.125000 I15.595332 J-108.127069 F800.000000
G03 X154.479173 Y207.679864 Z-0.125000 I74.316912 J-80.072931
G02 X175.636971 Y211.908688 Z-0.125000 I59.473813 J-242.518323
G02 X197.080853 Y214.295234 Z-0.125000 I38.315556 J-246.744188
G02 X213.266456 Y256.048005 Z-0.125000 I112.177293 J-19.472319
G02 X246.046733 Y289.378544 Z-0.125000 I94.843115 J-60.492509
G02 X245.733068 Y290.779642 Z-0.125000 I15.056607 J4.106392
G02 X245.549493 Y292.203624 Z-0.125000 I15.370635 J2.705358
G01 X245.549493 Y292.203624 Z-0.125000
G00 Z10.000000

(Change tool to Cone cutter)

G00 Z10.000000
G00 X253.452693 Y211.623294

G01 Z-0.125000 F50.0(Penetrate)
G02 X287.504756 Y203.712789 Z-0.125000 I-39.338763 J-246.586729 F800.000000
G02 X320.118363 Y191.124194 Z-0.125000 I-73.390983 J-238.676733
G03 X308.664975 Y242.414438 Z-0.125000 I-105.395179 J3.388612
G03 X272.394703 Y282.724454 Z-0.125000 I-93.549592 J-47.701647
G02 X267.246225 Y279.129917 Z-0.125000 I-11.325718 J10.737529
G02 X261.097793 Y277.855394 Z-0.125000 I-6.177247 J14.332081
G02 X255.027858 Y279.088074 Z-0.125000 I0.011120 J15.615819
G02 X249.915313 Y282.584224 Z-0.125000 I6.076189 J14.371631
G03 X220.213489 Y252.488690 Z-0.125000 I58.219099 J-87.161876
G03 X205.092433 Y214.977434 Z-0.125000 I88.646830 J-57.537503
G02 X209.684287 Y215.135393 Z-0.125000 I10.880422 J-249.471999
G02 X214.278273 Y215.208834 Z-0.125000 I6.287739 J-249.597092
G02 X226.151492 Y214.842334 Z-0.125000 I-1.765224 J-249.693796
G02 X237.993853 Y213.911564 Z-0.125000 I-13.638224 J-249.323290
G02 X232.158182 Y195.126175 Z-0.125000 I-90.628526 J17.854583
G02 X226.031973 Y184.083854 Z-0.125000 I-58.855803 J25.432272
G02 X216.712092 Y174.124292 Z-0.125000 I-38.273753 J26.475091
G02 X213.581463 Y172.357694 Z-0.125000 I-7.118639 J8.957874
G02 X207.635629 Y170.498263 Z-0.125000 I-20.522272 J55.187212
G03 X196.722993 Y166.944944 Z-0.125000 I21.998110 J-86.092248
G03 X187.286197 Y161.851820 Z-0.125000 I17.232366 J-43.218035
G03 X178.764243 Y151.713214 Z-0.125000 I14.687210 J-20.996107
G03 X177.777533 Y134.653269 Z-0.125000 I20.875874 J-9.765922
G03 X186.851533 Y117.608294 Z-0.125000 I55.039559 J18.362869
G03 X201.015998 Y103.144163 Z-0.125000 I67.795710 J52.223561
G03 X220.588263 Y90.777694 Z-0.125000 I63.882950 J79.435158
G03 X232.991093 Y86.016077 Z-0.125000 I34.776345 J72.049791
G03 X250.932993 Y82.275784 Z-0.125000 I32.925393 J113.037485
G03 X259.589086 Y81.602033 Z-0.125000 I11.070081 J86.282193
G03 X267.729523 Y82.077924 Z-0.125000 I1.314987 J47.368058
G03 X275.424689 Y84.176769 Z-0.125000 I-4.731541 J32.503757
G03 X282.519933 Y89.431464 Z-0.125000 I-6.764959 J16.552091
G03 X289.234578 Y101.249799 Z-0.125000 I-31.651352 J25.799520
G03 X290.524633 Y112.605894 Z-0.125000 I-22.930458 J8.356227
G03 X287.366261 Y123.428054 Z-0.125000 I-34.954683 J-4.329327
G03 X280.603273 Y136.385144 Z-0.125000 I-181.433398 J-86.456124
G03 X275.886356 Y140.126456 Z-0.125000 I-6.832777 J-3.770410
G03 X269.910163 Y139.397134 Z-0.125000 I-2.115877 J-7.511783
G03 X266.231442 Y134.631240 Z-0.125000 I3.860281 J-6.782413
G03 X267.039593 Y128.665194 Z-0.125000 I7.539048 J-2.016531
G02 X273.626235 Y115.715915 Z-0.125000 I-134.715191 J-76.672580
G02 X275.036553 Y110.687524 Z-0.125000 I-15.905813 J-7.173091
G02 X274.553468 Y106.523186 Z-0.125000 I-8.797560 J-1.089627
G02 X270.422133 Y99.291694 Z-0.125000 I-23.801305 J8.801776
G02 X270.066373 Y99.001990 Z-0.125000 I-0.879808 J0.717124
G02 X265.481673 Y97.522134 Z-0.125000 I-6.663555 J12.802380
G02 X260.402402 Y97.204039 Z-0.125000 I-4.474994 J30.744375
G02 X252.919333 Y97.755274 Z-0.125000 I1.349944 J69.392987
G02 X236.629813 Y101.229462 Z-0.125000 I12.858031 J100.213441
G02 X227.372253 Y104.832604 Z-0.125000 I18.267667 J60.629466
G02 X210.598738 Y115.469421 Z-0.125000 I37.473591 J77.636958
G02 X199.215153 Y127.132204 Z-0.125000 I43.959764 J54.294332
G02 X192.507914 Y140.823000 Z-0.125000 I30.272395 J23.319071
G02 X192.899993 Y145.099554 Z-0.125000 I6.124876 J1.594715
G02 X195.896092 Y148.764569 Z-0.125000 I8.742825 J-4.089997
G02 X202.503063 Y152.447874 Z-0.125000 I17.482328 J-23.591809
G02 X210.323965 Y155.001901 Z-0.125000 I23.910432 J-59.966621
G03 X219.020873 Y157.729854 Z-0.125000 I-21.823973 J84.803530
G03 X228.330205 Y163.318926 Z-0.125000 I-10.305227 J27.712199
G03 X238.867013 Y175.205124 Z-0.125000 I-43.962583 J49.585099
G03 X246.711416 Y189.441330 Z-0.125000 I-65.945691 J45.616555
G03 X253.450103 Y211.605214 Z-0.125000 I-99.866004 J42.469522
G01 X253.453103 Y211.623214 Z-0.125000
G00 Z10.000000

(End cutting path id: path6194)


(Footer)
M5
G00 X0.0000 Y0.0000
M2
(Using default footer. To add your own footer create file "footer" in the output dir.)
(end)
%