(Exported by FreeCAD)
(Post Processor: grbl_post)
(Output Time:2019-10-19 15:11:46.807818)
(begin preamble)
G17 G90
G21
(begin operation: T2: Mill)
(Path: T2: Mill)
(T2: Mill)
(begin toolchange)
; M6 T2
M3 S8000.0000
(finish operation: T2: Mill)
(begin operation: MillFace)
(Path: MillFace)
(MillFace)
G0 Z12.0000
G0 X38.8995 Y29.0000
G0 Z8.0000
G1 X38.8995 Y29.0000 Z-0.0000 F24000.00
G1 X-19.1005 Y-29.0000 Z-0.0000 F60000.00
G1 X-19.1005 Y-29.0000 Z-0.0000 F24000.00
G1 X38.8995 Y29.0000 Z-0.0000 F60000.00
G0 X38.8995 Y29.0000 Z12.0000
G0 X38.8823 Y29.0000 Z12.0000
G0 X38.8823 Y29.0000 Z8.0000
G1 X38.8823 Y29.0000 Z-0.0000 F24000.00
G1 X39.0000 Y28.8823 Z-0.0000 F60000.00
G1 X39.0000 Y28.8823 Z-0.0000 F24000.00
G1 X38.8823 Y29.0000 Z-0.0000 F60000.00
G1 X38.8823 Y29.0000 Z-0.2000 F24000.00
G1 X39.0000 Y28.8823 Z-0.2000 F60000.00
G1 X39.0000 Y28.8823 Z-0.2000 F24000.00
G1 X38.8823 Y29.0000 Z-0.2000 F60000.00
G0 X38.8823 Y29.0000 Z12.0000
G0 X38.8995 Y29.0000 Z12.0000
G0 X38.8995 Y29.0000 Z7.8000
G1 X38.8995 Y29.0000 Z-0.2000 F24000.00
G1 X-19.1005 Y-29.0000 Z-0.2000 F60000.00
G1 X-19.1005 Y-29.0000 Z-0.2000 F24000.00
G1 X38.8995 Y29.0000 Z-0.2000 F60000.00
G1 X38.8995 Y29.0000 Z-0.4000 F24000.00
G1 X-19.1005 Y-29.0000 Z-0.4000 F60000.00
G1 X-19.1005 Y-29.0000 Z-0.4000 F24000.00
G1 X38.8995 Y29.0000 Z-0.4000 F60000.00
G0 X38.8995 Y29.0000 Z12.0000
G0 X38.8823 Y29.0000 Z12.0000
G0 X38.8823 Y29.0000 Z7.6000
G1 X38.8823 Y29.0000 Z-0.4000 F24000.00
G1 X39.0000 Y28.8823 Z-0.4000 F60000.00
G1 X39.0000 Y28.8823 Z-0.4000 F24000.00
G1 X38.8823 Y29.0000 Z-0.4000 F60000.00
G1 X38.8823 Y29.0000 Z-0.5000 F24000.00
G1 X39.0000 Y28.8823 Z-0.5000 F60000.00
G1 X39.0000 Y28.8823 Z-0.5000 F24000.00
G1 X38.8823 Y29.0000 Z-0.5000 F60000.00
G0 X38.8823 Y29.0000 Z12.0000
G0 X38.8995 Y29.0000 Z12.0000
G0 X38.8995 Y29.0000 Z7.5000
G1 X38.8995 Y29.0000 Z-0.5000 F24000.00
G1 X-19.1005 Y-29.0000 Z-0.5000 F60000.00
G1 X-19.1005 Y-29.0000 Z-0.5000 F24000.00
G1 X38.8995 Y29.0000 Z-0.5000 F60000.00
G0 X38.8995 Y29.0000 Z12.0000
G0 X39.0000 Y27.6863 Z12.0000
G0 X39.0000 Y27.6863 Z7.5000
G1 X39.0000 Y27.6863 Z-0.5000 F24000.00
G1 X-17.6863 Y-29.0000 Z-0.5000 F60000.00
G1 X-17.6863 Y-29.0000 Z-0.5000 F24000.00
G1 X39.0000 Y27.6863 Z-0.5000 F60000.00
G1 X39.0000 Y27.6863 Z-0.4000 F24000.00
G1 X-17.6863 Y-29.0000 Z-0.4000 F60000.00
G1 X-17.6863 Y-29.0000 Z-0.4000 F24000.00
G1 X39.0000 Y27.6863 Z-0.4000 F60000.00
G1 X39.0000 Y27.6863 Z-0.2000 F24000.00
G1 X-17.6863 Y-29.0000 Z-0.2000 F60000.00
G1 X-17.6863 Y-29.0000 Z-0.2000 F24000.00
G1 X39.0000 Y27.6863 Z-0.2000 F60000.00
G1 X39.0000 Y27.6863 Z-0.0000 F24000.00
G1 X-17.6863 Y-29.0000 Z-0.0000 F60000.00
G1 X-17.6863 Y-29.0000 Z-0.0000 F24000.00
G1 X39.0000 Y27.6863 Z-0.0000 F60000.00
G0 X39.0000 Y27.6863 Z12.0000
G0 X39.0000 Y27.4680 Z12.0000
G0 X39.0000 Y27.4680 Z8.0000
G1 X39.0000 Y27.4680 Z-0.0000 F24000.00
G1 X37.4680 Y29.0000 Z-0.0000 F60000.00
G1 X37.4680 Y29.0000 Z-0.0000 F24000.00
G1 X39.0000 Y27.4680 Z-0.0000 F60000.00
G1 X39.0000 Y27.4680 Z-0.2000 F24000.00
G1 X37.4680 Y29.0000 Z-0.2000 F60000.00
G1 X37.4680 Y29.0000 Z-0.2000 F24000.00
G1 X39.0000 Y27.4680 Z-0.2000 F60000.00
G1 X39.0000 Y27.4680 Z-0.4000 F24000.00
G1 X37.4680 Y29.0000 Z-0.4000 F60000.00
G1 X37.4680 Y29.0000 Z-0.4000 F24000.00
G1 X39.0000 Y27.4680 Z-0.4000 F60000.00
G1 X39.0000 Y27.4680 Z-0.5000 F24000.00
G1 X37.4680 Y29.0000 Z-0.5000 F60000.00
G1 X37.4680 Y29.0000 Z-0.5000 F24000.00
G1 X39.0000 Y27.4680 Z-0.5000 F60000.00
G0 X39.0000 Y27.4680 Z12.0000
G0 X39.0000 Y26.2721 Z12.0000
G0 X39.0000 Y26.2721 Z7.5000
G1 X39.0000 Y26.2721 Z-0.5000 F24000.00
G1 X-16.2721 Y-29.0000 Z-0.5000 F60000.00
G1 X-16.2721 Y-29.0000 Z-0.5000 F24000.00
G1 X39.0000 Y26.2721 Z-0.5000 F60000.00
G1 X39.0000 Y26.2721 Z-0.4000 F24000.00
G1 X-16.2721 Y-29.0000 Z-0.4000 F60000.00
G1 X-16.2721 Y-29.0000 Z-0.4000 F24000.00
G1 X39.0000 Y26.2721 Z-0.4000 F60000.00
G1 X39.0000 Y26.2721 Z-0.2000 F24000.00
G1 X-16.2721 Y-29.0000 Z-0.2000 F60000.00
G1 X-16.2721 Y-29.0000 Z-0.2000 F24000.00
G1 X39.0000 Y26.2721 Z-0.2000 F60000.00
G1 X39.0000 Y26.2721 Z-0.0000 F24000.00
G1 X-16.2721 Y-29.0000 Z-0.0000 F60000.00
G1 X-16.2721 Y-29.0000 Z-0.0000 F24000.00
G1 X39.0000 Y26.2721 Z-0.0000 F60000.00
G0 X39.0000 Y26.2721 Z12.0000
G0 X39.0000 Y26.0538 Z12.0000
G0 X39.0000 Y26.0538 Z8.0000
G1 X39.0000 Y26.0538 Z-0.0000 F24000.00
G1 X36.0538 Y29.0000 Z-0.0000 F60000.00
G1 X36.0538 Y29.0000 Z-0.0000 F24000.00
G1 X39.0000 Y26.0538 Z-0.0000 F60000.00
G1 X39.0000 Y26.0538 Z-0.2000 F24000.00
G1 X36.0538 Y29.0000 Z-0.2000 F60000.00
G1 X36.0538 Y29.0000 Z-0.2000 F24000.00
G1 X39.0000 Y26.0538 Z-0.2000 F60000.00
G1 X39.0000 Y26.0538 Z-0.4000 F24000.00
G1 X36.0538 Y29.0000 Z-0.4000 F60000.00
G1 X36.0538 Y29.0000 Z-0.4000 F24000.00
G1 X39.0000 Y26.0538 Z-0.4000 F60000.00
G1 X39.0000 Y26.0538 Z-0.5000 F24000.00
G1 X36.0538 Y29.0000 Z-0.5000 F60000.00
G1 X36.0538 Y29.0000 Z-0.5000 F24000.00
G1 X39.0000 Y26.0538 Z-0.5000 F60000.00
G0 X39.0000 Y26.0538 Z12.0000
G0 X39.0000 Y24.8579 Z12.0000
G0 X39.0000 Y24.8579 Z7.5000
G1 X39.0000 Y24.8579 Z-0.5000 F24000.00
G1 X-14.8579 Y-29.0000 Z-0.5000 F60000.00
G1 X-14.8579 Y-29.0000 Z-0.5000 F24000.00
G1 X39.0000 Y24.8579 Z-0.5000 F60000.00
G1 X39.0000 Y24.8579 Z-0.4000 F24000.00
G1 X-14.8579 Y-29.0000 Z-0.4000 F60000.00
G1 X-14.8579 Y-29.0000 Z-0.4000 F24000.00
G1 X39.0000 Y24.8579 Z-0.4000 F60000.00
G1 X39.0000 Y24.8579 Z-0.2000 F24000.00
G1 X-14.8579 Y-29.0000 Z-0.2000 F60000.00
G1 X-14.8579 Y-29.0000 Z-0.2000 F24000.00
G1 X39.0000 Y24.8579 Z-0.2000 F60000.00
G1 X39.0000 Y24.8579 Z-0.0000 F24000.00
G1 X-14.8579 Y-29.0000 Z-0.0000 F60000.00
G1 X-14.8579 Y-29.0000 Z-0.0000 F24000.00
G1 X39.0000 Y24.8579 Z-0.0000 F60000.00
G0 X39.0000 Y24.8579 Z12.0000
G0 X39.0000 Y24.6396 Z12.0000
G0 X39.0000 Y24.6396 Z8.0000
G1 X39.0000 Y24.6396 Z-0.0000 F24000.00
G1 X34.6396 Y29.0000 Z-0.0000 F60000.00
G1 X34.6396 Y29.0000 Z-0.0000 F24000.00
G1 X39.0000 Y24.6396 Z-0.0000 F60000.00
G1 X39.0000 Y24.6396 Z-0.2000 F24000.00
G1 X34.6396 Y29.0000 Z-0.2000 F60000.00
G1 X34.6396 Y29.0000 Z-0.2000 F24000.00
G1 X39.0000 Y24.6396 Z-0.2000 F60000.00
G1 X39.0000 Y24.6396 Z-0.4000 F24000.00
G1 X34.6396 Y29.0000 Z-0.4000 F60000.00
G1 X34.6396 Y29.0000 Z-0.4000 F24000.00
G1 X39.0000 Y24.6396 Z-0.4000 F60000.00
G1 X39.0000 Y24.6396 Z-0.5000 F24000.00
G1 X34.6396 Y29.0000 Z-0.5000 F60000.00
G1 X34.6396 Y29.0000 Z-0.5000 F24000.00
G1 X39.0000 Y24.6396 Z-0.5000 F60000.00
G0 X39.0000 Y24.6396 Z12.0000
G0 X39.0000 Y23.4437 Z12.0000
G0 X39.0000 Y23.4437 Z7.5000
G1 X39.0000 Y23.4437 Z-0.5000 F24000.00
G1 X-13.4437 Y-29.0000 Z-0.5000 F60000.00
G1 X-13.4437 Y-29.0000 Z-0.5000 F24000.00
G1 X39.0000 Y23.4437 Z-0.5000 F60000.00
G1 X39.0000 Y23.4437 Z-0.4000 F24000.00
G1 X-13.4437 Y-29.0000 Z-0.4000 F60000.00
G1 X-13.4437 Y-29.0000 Z-0.4000 F24000.00
G1 X39.0000 Y23.4437 Z-0.4000 F60000.00
G1 X39.0000 Y23.4437 Z-0.2000 F24000.00
G1 X-13.4437 Y-29.0000 Z-0.2000 F60000.00
G1 X-13.4437 Y-29.0000 Z-0.2000 F24000.00
G1 X39.0000 Y23.4437 Z-0.2000 F60000.00
G1 X39.0000 Y23.4437 Z-0.0000 F24000.00
G1 X-13.4437 Y-29.0000 Z-0.0000 F60000.00
G1 X-13.4437 Y-29.0000 Z-0.0000 F24000.00
G1 X39.0000 Y23.4437 Z-0.0000 F60000.00
G0 X39.0000 Y23.4437 Z12.0000
G0 X39.0000 Y23.2254 Z12.0000
G0 X39.0000 Y23.2254 Z8.0000
G1 X39.0000 Y23.2254 Z-0.0000 F24000.00
G1 X33.2254 Y29.0000 Z-0.0000 F60000.00
G1 X33.2254 Y29.0000 Z-0.0000 F24000.00
G1 X39.0000 Y23.2254 Z-0.0000 F60000.00
G1 X39.0000 Y23.2254 Z-0.2000 F24000.00
G1 X33.2254 Y29.0000 Z-0.2000 F60000.00
G1 X33.2254 Y29.0000 Z-0.2000 F24000.00
G1 X39.0000 Y23.2254 Z-0.2000 F60000.00
G1 X39.0000 Y23.2254 Z-0.4000 F24000.00
G1 X33.2254 Y29.0000 Z-0.4000 F60000.00
G1 X33.2254 Y29.0000 Z-0.4000 F24000.00
G1 X39.0000 Y23.2254 Z-0.4000 F60000.00
G1 X39.0000 Y23.2254 Z-0.5000 F24000.00
G1 X33.2254 Y29.0000 Z-0.5000 F60000.00
G1 X33.2254 Y29.0000 Z-0.5000 F24000.00
G1 X39.0000 Y23.2254 Z-0.5000 F60000.00
G0 X39.0000 Y23.2254 Z12.0000
G0 X39.0000 Y22.0294 Z12.0000
G0 X39.0000 Y22.0294 Z7.5000
G1 X39.0000 Y22.0294 Z-0.5000 F24000.00
G1 X-12.0294 Y-29.0000 Z-0.5000 F60000.00
G1 X-12.0294 Y-29.0000 Z-0.5000 F24000.00
G1 X39.0000 Y22.0294 Z-0.5000 F60000.00
G1 X39.0000 Y22.0294 Z-0.4000 F24000.00
G1 X-12.0294 Y-29.0000 Z-0.4000 F60000.00
G1 X-12.0294 Y-29.0000 Z-0.4000 F24000.00
G1 X39.0000 Y22.0294 Z-0.4000 F60000.00
G1 X39.0000 Y22.0294 Z-0.2000 F24000.00
G1 X-12.0294 Y-29.0000 Z-0.2000 F60000.00
G1 X-12.0294 Y-29.0000 Z-0.2000 F24000.00
G1 X39.0000 Y22.0294 Z-0.2000 F60000.00
G1 X39.0000 Y22.0294 Z-0.0000 F24000.00
G1 X-12.0294 Y-29.0000 Z-0.0000 F60000.00
G1 X-12.0294 Y-29.0000 Z-0.0000 F24000.00
G1 X39.0000 Y22.0294 Z-0.0000 F60000.00
G0 X39.0000 Y22.0294 Z12.0000
G0 X39.0000 Y21.8112 Z12.0000
G0 X39.0000 Y21.8112 Z8.0000
G1 X39.0000 Y21.8112 Z-0.0000 F24000.00
G1 X31.8112 Y29.0000 Z-0.0000 F60000.00
G1 X31.8112 Y29.0000 Z-0.0000 F24000.00
G1 X39.0000 Y21.8112 Z-0.0000 F60000.00
G1 X39.0000 Y21.8112 Z-0.2000 F24000.00
G1 X31.8112 Y29.0000 Z-0.2000 F60000.00
G1 X31.8112 Y29.0000 Z-0.2000 F24000.00
G1 X39.0000 Y21.8112 Z-0.2000 F60000.00
G1 X39.0000 Y21.8112 Z-0.4000 F24000.00
G1 X31.8112 Y29.0000 Z-0.4000 F60000.00
G1 X31.8112 Y29.0000 Z-0.4000 F24000.00
G1 X39.0000 Y21.8112 Z-0.4000 F60000.00
G1 X39.0000 Y21.8112 Z-0.5000 F24000.00
G1 X31.8112 Y29.0000 Z-0.5000 F60000.00
G1 X31.8112 Y29.0000 Z-0.5000 F24000.00
G1 X39.0000 Y21.8112 Z-0.5000 F60000.00
G0 X39.0000 Y21.8112 Z12.0000
G0 X39.0000 Y20.6152 Z12.0000
G0 X39.0000 Y20.6152 Z7.5000
G1 X39.0000 Y20.6152 Z-0.5000 F24000.00
G1 X-10.6152 Y-29.0000 Z-0.5000 F60000.00
G1 X-10.6152 Y-29.0000 Z-0.5000 F24000.00
G1 X39.0000 Y20.6152 Z-0.5000 F60000.00
G1 X39.0000 Y20.6152 Z-0.4000 F24000.00
G1 X-10.6152 Y-29.0000 Z-0.4000 F60000.00
G1 X-10.6152 Y-29.0000 Z-0.4000 F24000.00
G1 X39.0000 Y20.6152 Z-0.4000 F60000.00
G1 X39.0000 Y20.6152 Z-0.2000 F24000.00
G1 X-10.6152 Y-29.0000 Z-0.2000 F60000.00
G1 X-10.6152 Y-29.0000 Z-0.2000 F24000.00
G1 X39.0000 Y20.6152 Z-0.2000 F60000.00
G1 X39.0000 Y20.6152 Z-0.0000 F24000.00
G1 X-10.6152 Y-29.0000 Z-0.0000 F60000.00
G1 X-10.6152 Y-29.0000 Z-0.0000 F24000.00
G1 X39.0000 Y20.6152 Z-0.0000 F60000.00
G0 X39.0000 Y20.6152 Z12.0000
G0 X39.0000 Y20.3970 Z12.0000
G0 X39.0000 Y20.3970 Z8.0000
G1 X39.0000 Y20.3970 Z-0.0000 F24000.00
G1 X30.3970 Y29.0000 Z-0.0000 F60000.00
G1 X30.3970 Y29.0000 Z-0.0000 F24000.00
G1 X39.0000 Y20.3970 Z-0.0000 F60000.00
G1 X39.0000 Y20.3970 Z-0.2000 F24000.00
G1 X30.3970 Y29.0000 Z-0.2000 F60000.00
G1 X30.3970 Y29.0000 Z-0.2000 F24000.00
G1 X39.0000 Y20.3970 Z-0.2000 F60000.00
G1 X39.0000 Y20.3970 Z-0.4000 F24000.00
G1 X30.3970 Y29.0000 Z-0.4000 F60000.00
G1 X30.3970 Y29.0000 Z-0.4000 F24000.00
G1 X39.0000 Y20.3970 Z-0.4000 F60000.00
G1 X39.0000 Y20.3970 Z-0.5000 F24000.00
G1 X30.3970 Y29.0000 Z-0.5000 F60000.00
G1 X30.3970 Y29.0000 Z-0.5000 F24000.00
G1 X39.0000 Y20.3970 Z-0.5000 F60000.00
G0 X39.0000 Y20.3970 Z12.0000
G0 X39.0000 Y19.2010 Z12.0000
G0 X39.0000 Y19.2010 Z7.5000
G1 X39.0000 Y19.2010 Z-0.5000 F24000.00
G1 X-9.2010 Y-29.0000 Z-0.5000 F60000.00
G1 X-9.2010 Y-29.0000 Z-0.5000 F24000.00
G1 X39.0000 Y19.2010 Z-0.5000 F60000.00
G1 X39.0000 Y19.2010 Z-0.4000 F24000.00
G1 X-9.2010 Y-29.0000 Z-0.4000 F60000.00
G1 X-9.2010 Y-29.0000 Z-0.4000 F24000.00
G1 X39.0000 Y19.2010 Z-0.4000 F60000.00
G1 X39.0000 Y19.2010 Z-0.2000 F24000.00
G1 X-9.2010 Y-29.0000 Z-0.2000 F60000.00
G1 X-9.2010 Y-29.0000 Z-0.2000 F24000.00
G1 X39.0000 Y19.2010 Z-0.2000 F60000.00
G1 X39.0000 Y19.2010 Z-0.0000 F24000.00
G1 X-9.2010 Y-29.0000 Z-0.0000 F60000.00
G1 X-9.2010 Y-29.0000 Z-0.0000 F24000.00
G1 X39.0000 Y19.2010 Z-0.0000 F60000.00
G0 X39.0000 Y19.2010 Z12.0000
G0 X39.0000 Y18.9828 Z12.0000
G0 X39.0000 Y18.9828 Z8.0000
G1 X39.0000 Y18.9828 Z-0.0000 F24000.00
G1 X28.9828 Y29.0000 Z-0.0000 F60000.00
G1 X28.9828 Y29.0000 Z-0.0000 F24000.00
G1 X39.0000 Y18.9828 Z-0.0000 F60000.00
G1 X39.0000 Y18.9828 Z-0.2000 F24000.00
G1 X28.9828 Y29.0000 Z-0.2000 F60000.00
G1 X28.9828 Y29.0000 Z-0.2000 F24000.00
G1 X39.0000 Y18.9828 Z-0.2000 F60000.00
G1 X39.0000 Y18.9828 Z-0.4000 F24000.00
G1 X28.9828 Y29.0000 Z-0.4000 F60000.00
G1 X28.9828 Y29.0000 Z-0.4000 F24000.00
G1 X39.0000 Y18.9828 Z-0.4000 F60000.00
G1 X39.0000 Y18.9828 Z-0.5000 F24000.00
G1 X28.9828 Y29.0000 Z-0.5000 F60000.00
G1 X28.9828 Y29.0000 Z-0.5000 F24000.00
G1 X39.0000 Y18.9828 Z-0.5000 F60000.00
G0 X39.0000 Y18.9828 Z12.0000
G0 X39.0000 Y17.7868 Z12.0000
G0 X39.0000 Y17.7868 Z7.5000
G1 X39.0000 Y17.7868 Z-0.5000 F24000.00
G1 X-7.7868 Y-29.0000 Z-0.5000 F60000.00
G1 X-7.7868 Y-29.0000 Z-0.5000 F24000.00
G1 X39.0000 Y17.7868 Z-0.5000 F60000.00
G1 X39.0000 Y17.7868 Z-0.4000 F24000.00
G1 X-7.7868 Y-29.0000 Z-0.4000 F60000.00
G1 X-7.7868 Y-29.0000 Z-0.4000 F24000.00
G1 X39.0000 Y17.7868 Z-0.4000 F60000.00
G1 X39.0000 Y17.7868 Z-0.2000 F24000.00
G1 X-7.7868 Y-29.0000 Z-0.2000 F60000.00
G1 X-7.7868 Y-29.0000 Z-0.2000 F24000.00
G1 X39.0000 Y17.7868 Z-0.2000 F60000.00
G1 X39.0000 Y17.7868 Z-0.0000 F24000.00
G1 X-7.7868 Y-29.0000 Z-0.0000 F60000.00
G1 X-7.7868 Y-29.0000 Z-0.0000 F24000.00
G1 X39.0000 Y17.7868 Z-0.0000 F60000.00
G0 X39.0000 Y17.7868 Z12.0000
G0 X39.0000 Y17.5685 Z12.0000
G0 X39.0000 Y17.5685 Z8.0000
G1 X39.0000 Y17.5685 Z-0.0000 F24000.00
G1 X27.5685 Y29.0000 Z-0.0000 F60000.00
G1 X27.5685 Y29.0000 Z-0.0000 F24000.00
G1 X39.0000 Y17.5685 Z-0.0000 F60000.00
G1 X39.0000 Y17.5685 Z-0.2000 F24000.00
G1 X27.5685 Y29.0000 Z-0.2000 F60000.00
G1 X27.5685 Y29.0000 Z-0.2000 F24000.00
G1 X39.0000 Y17.5685 Z-0.2000 F60000.00
G1 X39.0000 Y17.5685 Z-0.4000 F24000.00
G1 X27.5685 Y29.0000 Z-0.4000 F60000.00
G1 X27.5685 Y29.0000 Z-0.4000 F24000.00
G1 X39.0000 Y17.5685 Z-0.4000 F60000.00
G1 X39.0000 Y17.5685 Z-0.5000 F24000.00
G1 X27.5685 Y29.0000 Z-0.5000 F60000.00
G1 X27.5685 Y29.0000 Z-0.5000 F24000.00
G1 X39.0000 Y17.5685 Z-0.5000 F60000.00
G0 X39.0000 Y17.5685 Z12.0000
G0 X39.0000 Y16.3726 Z12.0000
G0 X39.0000 Y16.3726 Z7.5000
G1 X39.0000 Y16.3726 Z-0.5000 F24000.00
G1 X-6.3726 Y-29.0000 Z-0.5000 F60000.00
G1 X-6.3726 Y-29.0000 Z-0.5000 F24000.00
G1 X39.0000 Y16.3726 Z-0.5000 F60000.00
G1 X39.0000 Y16.3726 Z-0.4000 F24000.00
G1 X-6.3726 Y-29.0000 Z-0.4000 F60000.00
G1 X-6.3726 Y-29.0000 Z-0.4000 F24000.00
G1 X39.0000 Y16.3726 Z-0.4000 F60000.00
G1 X39.0000 Y16.3726 Z-0.2000 F24000.00
G1 X-6.3726 Y-29.0000 Z-0.2000 F60000.00
G1 X-6.3726 Y-29.0000 Z-0.2000 F24000.00
G1 X39.0000 Y16.3726 Z-0.2000 F60000.00
G1 X39.0000 Y16.3726 Z-0.0000 F24000.00
G1 X-6.3726 Y-29.0000 Z-0.0000 F60000.00
G1 X-6.3726 Y-29.0000 Z-0.0000 F24000.00
G1 X39.0000 Y16.3726 Z-0.0000 F60000.00
G0 X39.0000 Y16.3726 Z12.0000
G0 X39.0000 Y16.1543 Z12.0000
G0 X39.0000 Y16.1543 Z8.0000
G1 X39.0000 Y16.1543 Z-0.0000 F24000.00
G1 X26.1543 Y29.0000 Z-0.0000 F60000.00
G1 X26.1543 Y29.0000 Z-0.0000 F24000.00
G1 X39.0000 Y16.1543 Z-0.0000 F60000.00
G1 X39.0000 Y16.1543 Z-0.2000 F24000.00
G1 X26.1543 Y29.0000 Z-0.2000 F60000.00
G1 X26.1543 Y29.0000 Z-0.2000 F24000.00
G1 X39.0000 Y16.1543 Z-0.2000 F60000.00
G1 X39.0000 Y16.1543 Z-0.4000 F24000.00
G1 X26.1543 Y29.0000 Z-0.4000 F60000.00
G1 X26.1543 Y29.0000 Z-0.4000 F24000.00
G1 X39.0000 Y16.1543 Z-0.4000 F60000.00
G1 X39.0000 Y16.1543 Z-0.5000 F24000.00
G1 X26.1543 Y29.0000 Z-0.5000 F60000.00
G1 X26.1543 Y29.0000 Z-0.5000 F24000.00
G1 X39.0000 Y16.1543 Z-0.5000 F60000.00
G0 X39.0000 Y16.1543 Z12.0000
G0 X39.0000 Y14.9584 Z12.0000
G0 X39.0000 Y14.9584 Z7.5000
G1 X39.0000 Y14.9584 Z-0.5000 F24000.00
G1 X-4.9584 Y-29.0000 Z-0.5000 F60000.00
G1 X-4.9584 Y-29.0000 Z-0.5000 F24000.00
G1 X39.0000 Y14.9584 Z-0.5000 F60000.00
G1 X39.0000 Y14.9584 Z-0.4000 F24000.00
G1 X-4.9584 Y-29.0000 Z-0.4000 F60000.00
G1 X-4.9584 Y-29.0000 Z-0.4000 F24000.00
G1 X39.0000 Y14.9584 Z-0.4000 F60000.00
G1 X39.0000 Y14.9584 Z-0.2000 F24000.00
G1 X-4.9584 Y-29.0000 Z-0.2000 F60000.00
G1 X-4.9584 Y-29.0000 Z-0.2000 F24000.00
G1 X39.0000 Y14.9584 Z-0.2000 F60000.00
G1 X39.0000 Y14.9584 Z-0.0000 F24000.00
G1 X-4.9584 Y-29.0000 Z-0.0000 F60000.00
G1 X-4.9584 Y-29.0000 Z-0.0000 F24000.00
G1 X39.0000 Y14.9584 Z-0.0000 F60000.00
G0 X39.0000 Y14.9584 Z12.0000
G0 X39.0000 Y14.7401 Z12.0000
G0 X39.0000 Y14.7401 Z8.0000
G1 X39.0000 Y14.7401 Z-0.0000 F24000.00
G1 X24.7401 Y29.0000 Z-0.0000 F60000.00
G1 X24.7401 Y29.0000 Z-0.0000 F24000.00
G1 X39.0000 Y14.7401 Z-0.0000 F60000.00
G1 X39.0000 Y14.7401 Z-0.2000 F24000.00
G1 X24.7401 Y29.0000 Z-0.2000 F60000.00
G1 X24.7401 Y29.0000 Z-0.2000 F24000.00
G1 X39.0000 Y14.7401 Z-0.2000 F60000.00
G1 X39.0000 Y14.7401 Z-0.4000 F24000.00
G1 X24.7401 Y29.0000 Z-0.4000 F60000.00
G1 X24.7401 Y29.0000 Z-0.4000 F24000.00
G1 X39.0000 Y14.7401 Z-0.4000 F60000.00
G1 X39.0000 Y14.7401 Z-0.5000 F24000.00
G1 X24.7401 Y29.0000 Z-0.5000 F60000.00
G1 X24.7401 Y29.0000 Z-0.5000 F24000.00
G1 X39.0000 Y14.7401 Z-0.5000 F60000.00
G0 X39.0000 Y14.7401 Z12.0000
G0 X39.0000 Y13.5442 Z12.0000
G0 X39.0000 Y13.5442 Z7.5000
G1 X39.0000 Y13.5442 Z-0.5000 F24000.00
G1 X-3.5442 Y-29.0000 Z-0.5000 F60000.00
G1 X-3.5442 Y-29.0000 Z-0.5000 F24000.00
G1 X39.0000 Y13.5442 Z-0.5000 F60000.00
G1 X39.0000 Y13.5442 Z-0.4000 F24000.00
G1 X-3.5442 Y-29.0000 Z-0.4000 F60000.00
G1 X-3.5442 Y-29.0000 Z-0.4000 F24000.00
G1 X39.0000 Y13.5442 Z-0.4000 F60000.00
G1 X39.0000 Y13.5442 Z-0.2000 F24000.00
G1 X-3.5442 Y-29.0000 Z-0.2000 F60000.00
G1 X-3.5442 Y-29.0000 Z-0.2000 F24000.00
G1 X39.0000 Y13.5442 Z-0.2000 F60000.00
G1 X39.0000 Y13.5442 Z-0.0000 F24000.00
G1 X-3.5442 Y-29.0000 Z-0.0000 F60000.00
G1 X-3.5442 Y-29.0000 Z-0.0000 F24000.00
G1 X39.0000 Y13.5442 Z-0.0000 F60000.00
G0 X39.0000 Y13.5442 Z12.0000
G0 X39.0000 Y13.3259 Z12.0000
G0 X39.0000 Y13.3259 Z8.0000
G1 X39.0000 Y13.3259 Z-0.0000 F24000.00
G1 X23.3259 Y29.0000 Z-0.0000 F60000.00
G1 X23.3259 Y29.0000 Z-0.0000 F24000.00
G1 X39.0000 Y13.3259 Z-0.0000 F60000.00
G1 X39.0000 Y13.3259 Z-0.2000 F24000.00
G1 X23.3259 Y29.0000 Z-0.2000 F60000.00
G1 X23.3259 Y29.0000 Z-0.2000 F24000.00
G1 X39.0000 Y13.3259 Z-0.2000 F60000.00
G1 X39.0000 Y13.3259 Z-0.4000 F24000.00
G1 X23.3259 Y29.0000 Z-0.4000 F60000.00
G1 X23.3259 Y29.0000 Z-0.4000 F24000.00
G1 X39.0000 Y13.3259 Z-0.4000 F60000.00
G1 X39.0000 Y13.3259 Z-0.5000 F24000.00
G1 X23.3259 Y29.0000 Z-0.5000 F60000.00
G1 X23.3259 Y29.0000 Z-0.5000 F24000.00
G1 X39.0000 Y13.3259 Z-0.5000 F60000.00
G0 X39.0000 Y13.3259 Z12.0000
G0 X39.0000 Y12.1299 Z12.0000
G0 X39.0000 Y12.1299 Z7.5000
G1 X39.0000 Y12.1299 Z-0.5000 F24000.00
G1 X-2.1299 Y-29.0000 Z-0.5000 F60000.00
G1 X-2.1299 Y-29.0000 Z-0.5000 F24000.00
G1 X39.0000 Y12.1299 Z-0.5000 F60000.00
G1 X39.0000 Y12.1299 Z-0.4000 F24000.00
G1 X-2.1299 Y-29.0000 Z-0.4000 F60000.00
G1 X-2.1299 Y-29.0000 Z-0.4000 F24000.00
G1 X39.0000 Y12.1299 Z-0.4000 F60000.00
G1 X39.0000 Y12.1299 Z-0.2000 F24000.00
G1 X-2.1299 Y-29.0000 Z-0.2000 F60000.00
G1 X-2.1299 Y-29.0000 Z-0.2000 F24000.00
G1 X39.0000 Y12.1299 Z-0.2000 F60000.00
G1 X39.0000 Y12.1299 Z-0.0000 F24000.00
G1 X-2.1299 Y-29.0000 Z-0.0000 F60000.00
G1 X-2.1299 Y-29.0000 Z-0.0000 F24000.00
G1 X39.0000 Y12.1299 Z-0.0000 F60000.00
G0 X39.0000 Y12.1299 Z12.0000
G0 X39.0000 Y11.9117 Z12.0000
G0 X39.0000 Y11.9117 Z8.0000
G1 X39.0000 Y11.9117 Z-0.0000 F24000.00
G1 X21.9117 Y29.0000 Z-0.0000 F60000.00
G1 X21.9117 Y29.0000 Z-0.0000 F24000.00
G1 X39.0000 Y11.9117 Z-0.0000 F60000.00
G1 X39.0000 Y11.9117 Z-0.2000 F24000.00
G1 X21.9117 Y29.0000 Z-0.2000 F60000.00
G1 X21.9117 Y29.0000 Z-0.2000 F24000.00
G1 X39.0000 Y11.9117 Z-0.2000 F60000.00
G1 X39.0000 Y11.9117 Z-0.4000 F24000.00
G1 X21.9117 Y29.0000 Z-0.4000 F60000.00
G1 X21.9117 Y29.0000 Z-0.4000 F24000.00
G1 X39.0000 Y11.9117 Z-0.4000 F60000.00
G1 X39.0000 Y11.9117 Z-0.5000 F24000.00
G1 X21.9117 Y29.0000 Z-0.5000 F60000.00
G1 X21.9117 Y29.0000 Z-0.5000 F24000.00
G1 X39.0000 Y11.9117 Z-0.5000 F60000.00
G0 X39.0000 Y11.9117 Z12.0000
G0 X39.0000 Y10.7157 Z12.0000
G0 X39.0000 Y10.7157 Z7.5000
G1 X39.0000 Y10.7157 Z-0.5000 F24000.00
G1 X-0.7157 Y-29.0000 Z-0.5000 F60000.00
G1 X-0.7157 Y-29.0000 Z-0.5000 F24000.00
G1 X39.0000 Y10.7157 Z-0.5000 F60000.00
G1 X39.0000 Y10.7157 Z-0.4000 F24000.00
G1 X-0.7157 Y-29.0000 Z-0.4000 F60000.00
G1 X-0.7157 Y-29.0000 Z-0.4000 F24000.00
G1 X39.0000 Y10.7157 Z-0.4000 F60000.00
G1 X39.0000 Y10.7157 Z-0.2000 F24000.00
G1 X-0.7157 Y-29.0000 Z-0.2000 F60000.00
G1 X-0.7157 Y-29.0000 Z-0.2000 F24000.00
G1 X39.0000 Y10.7157 Z-0.2000 F60000.00
G1 X39.0000 Y10.7157 Z-0.0000 F24000.00
G1 X-0.7157 Y-29.0000 Z-0.0000 F60000.00
G1 X-0.7157 Y-29.0000 Z-0.0000 F24000.00
G1 X39.0000 Y10.7157 Z-0.0000 F60000.00
G0 X39.0000 Y10.7157 Z12.0000
G0 X39.0000 Y10.4975 Z12.0000
G0 X39.0000 Y10.4975 Z8.0000
G1 X39.0000 Y10.4975 Z-0.0000 F24000.00
G1 X20.4975 Y29.0000 Z-0.0000 F60000.00
G1 X20.4975 Y29.0000 Z-0.0000 F24000.00
G1 X39.0000 Y10.4975 Z-0.0000 F60000.00
G1 X39.0000 Y10.4975 Z-0.2000 F24000.00
G1 X20.4975 Y29.0000 Z-0.2000 F60000.00
G1 X20.4975 Y29.0000 Z-0.2000 F24000.00
G1 X39.0000 Y10.4975 Z-0.2000 F60000.00
G1 X39.0000 Y10.4975 Z-0.4000 F24000.00
G1 X20.4975 Y29.0000 Z-0.4000 F60000.00
G1 X20.4975 Y29.0000 Z-0.4000 F24000.00
G1 X39.0000 Y10.4975 Z-0.4000 F60000.00
G1 X39.0000 Y10.4975 Z-0.5000 F24000.00
G1 X20.4975 Y29.0000 Z-0.5000 F60000.00
G1 X20.4975 Y29.0000 Z-0.5000 F24000.00
G1 X39.0000 Y10.4975 Z-0.5000 F60000.00
G0 X39.0000 Y10.4975 Z12.0000
G0 X39.0000 Y9.3015 Z12.0000
G0 X39.0000 Y9.3015 Z7.5000
G1 X39.0000 Y9.3015 Z-0.5000 F24000.00
G1 X0.6985 Y-29.0000 Z-0.5000 F60000.00
G1 X0.6985 Y-29.0000 Z-0.5000 F24000.00
G1 X39.0000 Y9.3015 Z-0.5000 F60000.00
G1 X39.0000 Y9.3015 Z-0.4000 F24000.00
G1 X0.6985 Y-29.0000 Z-0.4000 F60000.00
G1 X0.6985 Y-29.0000 Z-0.4000 F24000.00
G1 X39.0000 Y9.3015 Z-0.4000 F60000.00
G1 X39.0000 Y9.3015 Z-0.2000 F24000.00
G1 X0.6985 Y-29.0000 Z-0.2000 F60000.00
G1 X0.6985 Y-29.0000 Z-0.2000 F24000.00
G1 X39.0000 Y9.3015 Z-0.2000 F60000.00
G1 X39.0000 Y9.3015 Z-0.0000 F24000.00
G1 X0.6985 Y-29.0000 Z-0.0000 F60000.00
G1 X0.6985 Y-29.0000 Z-0.0000 F24000.00
G1 X39.0000 Y9.3015 Z-0.0000 F60000.00
G0 X39.0000 Y9.3015 Z12.0000
G0 X39.0000 Y9.0833 Z12.0000
G0 X39.0000 Y9.0833 Z8.0000
G1 X39.0000 Y9.0833 Z-0.0000 F24000.00
G1 X19.0833 Y29.0000 Z-0.0000 F60000.00
G1 X19.0833 Y29.0000 Z-0.0000 F24000.00
G1 X39.0000 Y9.0833 Z-0.0000 F60000.00
G1 X39.0000 Y9.0833 Z-0.2000 F24000.00
G1 X19.0833 Y29.0000 Z-0.2000 F60000.00
G1 X19.0833 Y29.0000 Z-0.2000 F24000.00
G1 X39.0000 Y9.0833 Z-0.2000 F60000.00
G1 X39.0000 Y9.0833 Z-0.4000 F24000.00
G1 X19.0833 Y29.0000 Z-0.4000 F60000.00
G1 X19.0833 Y29.0000 Z-0.4000 F24000.00
G1 X39.0000 Y9.0833 Z-0.4000 F60000.00
G1 X39.0000 Y9.0833 Z-0.5000 F24000.00
G1 X19.0833 Y29.0000 Z-0.5000 F60000.00
G1 X19.0833 Y29.0000 Z-0.5000 F24000.00
G1 X39.0000 Y9.0833 Z-0.5000 F60000.00
G0 X39.0000 Y9.0833 Z12.0000
G0 X39.0000 Y7.8873 Z12.0000
G0 X39.0000 Y7.8873 Z7.5000
G1 X39.0000 Y7.8873 Z-0.5000 F24000.00
G1 X2.1127 Y-29.0000 Z-0.5000 F60000.00
G1 X2.1127 Y-29.0000 Z-0.5000 F24000.00
G1 X39.0000 Y7.8873 Z-0.5000 F60000.00
G1 X39.0000 Y7.8873 Z-0.4000 F24000.00
G1 X2.1127 Y-29.0000 Z-0.4000 F60000.00
G1 X2.1127 Y-29.0000 Z-0.4000 F24000.00
G1 X39.0000 Y7.8873 Z-0.4000 F60000.00
G1 X39.0000 Y7.8873 Z-0.2000 F24000.00
G1 X2.1127 Y-29.0000 Z-0.2000 F60000.00
G1 X2.1127 Y-29.0000 Z-0.2000 F24000.00
G1 X39.0000 Y7.8873 Z-0.2000 F60000.00
G1 X39.0000 Y7.8873 Z-0.0000 F24000.00
G1 X2.1127 Y-29.0000 Z-0.0000 F60000.00
G1 X2.1127 Y-29.0000 Z-0.0000 F24000.00
G1 X39.0000 Y7.8873 Z-0.0000 F60000.00
G0 X39.0000 Y7.8873 Z12.0000
G0 X39.0000 Y7.6690 Z12.0000
G0 X39.0000 Y7.6690 Z8.0000
G1 X39.0000 Y7.6690 Z-0.0000 F24000.00
G1 X17.6690 Y29.0000 Z-0.0000 F60000.00
G1 X17.6690 Y29.0000 Z-0.0000 F24000.00
G1 X39.0000 Y7.6690 Z-0.0000 F60000.00
G1 X39.0000 Y7.6690 Z-0.2000 F24000.00
G1 X17.6690 Y29.0000 Z-0.2000 F60000.00
G1 X17.6690 Y29.0000 Z-0.2000 F24000.00
G1 X39.0000 Y7.6690 Z-0.2000 F60000.00
G1 X39.0000 Y7.6690 Z-0.4000 F24000.00
G1 X17.6690 Y29.0000 Z-0.4000 F60000.00
G1 X17.6690 Y29.0000 Z-0.4000 F24000.00
G1 X39.0000 Y7.6690 Z-0.4000 F60000.00
G1 X39.0000 Y7.6690 Z-0.5000 F24000.00
G1 X17.6690 Y29.0000 Z-0.5000 F60000.00
G1 X17.6690 Y29.0000 Z-0.5000 F24000.00
G1 X39.0000 Y7.6690 Z-0.5000 F60000.00
G0 X39.0000 Y7.6690 Z12.0000
G0 X39.0000 Y6.4731 Z12.0000
G0 X39.0000 Y6.4731 Z7.5000
G1 X39.0000 Y6.4731 Z-0.5000 F24000.00
G1 X3.5269 Y-29.0000 Z-0.5000 F60000.00
G1 X3.5269 Y-29.0000 Z-0.5000 F24000.00
G1 X39.0000 Y6.4731 Z-0.5000 F60000.00
G1 X39.0000 Y6.4731 Z-0.4000 F24000.00
G1 X3.5269 Y-29.0000 Z-0.4000 F60000.00
G1 X3.5269 Y-29.0000 Z-0.4000 F24000.00
G1 X39.0000 Y6.4731 Z-0.4000 F60000.00
G1 X39.0000 Y6.4731 Z-0.2000 F24000.00
G1 X3.5269 Y-29.0000 Z-0.2000 F60000.00
G1 X3.5269 Y-29.0000 Z-0.2000 F24000.00
G1 X39.0000 Y6.4731 Z-0.2000 F60000.00
G1 X39.0000 Y6.4731 Z-0.0000 F24000.00
G1 X3.5269 Y-29.0000 Z-0.0000 F60000.00
G1 X3.5269 Y-29.0000 Z-0.0000 F24000.00
G1 X39.0000 Y6.4731 Z-0.0000 F60000.00
G0 X39.0000 Y6.4731 Z12.0000
G0 X39.0000 Y6.2548 Z12.0000
G0 X39.0000 Y6.2548 Z8.0000
G1 X39.0000 Y6.2548 Z-0.0000 F24000.00
G1 X16.2548 Y29.0000 Z-0.0000 F60000.00
G1 X16.2548 Y29.0000 Z-0.0000 F24000.00
G1 X39.0000 Y6.2548 Z-0.0000 F60000.00
G1 X39.0000 Y6.2548 Z-0.2000 F24000.00
G1 X16.2548 Y29.0000 Z-0.2000 F60000.00
G1 X16.2548 Y29.0000 Z-0.2000 F24000.00
G1 X39.0000 Y6.2548 Z-0.2000 F60000.00
G1 X39.0000 Y6.2548 Z-0.4000 F24000.00
G1 X16.2548 Y29.0000 Z-0.4000 F60000.00
G1 X16.2548 Y29.0000 Z-0.4000 F24000.00
G1 X39.0000 Y6.2548 Z-0.4000 F60000.00
G1 X39.0000 Y6.2548 Z-0.5000 F24000.00
G1 X16.2548 Y29.0000 Z-0.5000 F60000.00
G1 X16.2548 Y29.0000 Z-0.5000 F24000.00
G1 X39.0000 Y6.2548 Z-0.5000 F60000.00
G0 X39.0000 Y6.2548 Z12.0000
G0 X39.0000 Y5.0589 Z12.0000
G0 X39.0000 Y5.0589 Z7.5000
G1 X39.0000 Y5.0589 Z-0.5000 F24000.00
G1 X4.9411 Y-29.0000 Z-0.5000 F60000.00
G1 X4.9411 Y-29.0000 Z-0.5000 F24000.00
G1 X39.0000 Y5.0589 Z-0.5000 F60000.00
G1 X39.0000 Y5.0589 Z-0.4000 F24000.00
G1 X4.9411 Y-29.0000 Z-0.4000 F60000.00
G1 X4.9411 Y-29.0000 Z-0.4000 F24000.00
G1 X39.0000 Y5.0589 Z-0.4000 F60000.00
G1 X39.0000 Y5.0589 Z-0.2000 F24000.00
G1 X4.9411 Y-29.0000 Z-0.2000 F60000.00
G1 X4.9411 Y-29.0000 Z-0.2000 F24000.00
G1 X39.0000 Y5.0589 Z-0.2000 F60000.00
G1 X39.0000 Y5.0589 Z-0.0000 F24000.00
G1 X4.9411 Y-29.0000 Z-0.0000 F60000.00
G1 X4.9411 Y-29.0000 Z-0.0000 F24000.00
G1 X39.0000 Y5.0589 Z-0.0000 F60000.00
G0 X39.0000 Y5.0589 Z12.0000
G0 X39.0000 Y4.8406 Z12.0000
G0 X39.0000 Y4.8406 Z8.0000
G1 X39.0000 Y4.8406 Z-0.0000 F24000.00
G1 X14.8406 Y29.0000 Z-0.0000 F60000.00
G1 X14.8406 Y29.0000 Z-0.0000 F24000.00
G1 X39.0000 Y4.8406 Z-0.0000 F60000.00
G1 X39.0000 Y4.8406 Z-0.2000 F24000.00
G1 X14.8406 Y29.0000 Z-0.2000 F60000.00
G1 X14.8406 Y29.0000 Z-0.2000 F24000.00
G1 X39.0000 Y4.8406 Z-0.2000 F60000.00
G1 X39.0000 Y4.8406 Z-0.4000 F24000.00
G1 X14.8406 Y29.0000 Z-0.4000 F60000.00
G1 X14.8406 Y29.0000 Z-0.4000 F24000.00
G1 X39.0000 Y4.8406 Z-0.4000 F60000.00
G1 X39.0000 Y4.8406 Z-0.5000 F24000.00
G1 X14.8406 Y29.0000 Z-0.5000 F60000.00
G1 X14.8406 Y29.0000 Z-0.5000 F24000.00
G1 X39.0000 Y4.8406 Z-0.5000 F60000.00
G0 X39.0000 Y4.8406 Z12.0000
G0 X39.0000 Y3.6447 Z12.0000
G0 X39.0000 Y3.6447 Z7.5000
G1 X39.0000 Y3.6447 Z-0.5000 F24000.00
G1 X6.3553 Y-29.0000 Z-0.5000 F60000.00
G1 X6.3553 Y-29.0000 Z-0.5000 F24000.00
G1 X39.0000 Y3.6447 Z-0.5000 F60000.00
G1 X39.0000 Y3.6447 Z-0.4000 F24000.00
G1 X6.3553 Y-29.0000 Z-0.4000 F60000.00
G1 X6.3553 Y-29.0000 Z-0.4000 F24000.00
G1 X39.0000 Y3.6447 Z-0.4000 F60000.00
G1 X39.0000 Y3.6447 Z-0.2000 F24000.00
G1 X6.3553 Y-29.0000 Z-0.2000 F60000.00
G1 X6.3553 Y-29.0000 Z-0.2000 F24000.00
G1 X39.0000 Y3.6447 Z-0.2000 F60000.00
G1 X39.0000 Y3.6447 Z-0.0000 F24000.00
G1 X6.3553 Y-29.0000 Z-0.0000 F60000.00
G1 X6.3553 Y-29.0000 Z-0.0000 F24000.00
G1 X39.0000 Y3.6447 Z-0.0000 F60000.00
G0 X39.0000 Y3.6447 Z12.0000
G0 X39.0000 Y3.4264 Z12.0000
G0 X39.0000 Y3.4264 Z8.0000
G1 X39.0000 Y3.4264 Z-0.0000 F24000.00
G1 X13.4264 Y29.0000 Z-0.0000 F60000.00
G1 X13.4264 Y29.0000 Z-0.0000 F24000.00
G1 X39.0000 Y3.4264 Z-0.0000 F60000.00
G1 X39.0000 Y3.4264 Z-0.2000 F24000.00
G1 X13.4264 Y29.0000 Z-0.2000 F60000.00
G1 X13.4264 Y29.0000 Z-0.2000 F24000.00
G1 X39.0000 Y3.4264 Z-0.2000 F60000.00
G1 X39.0000 Y3.4264 Z-0.4000 F24000.00
G1 X13.4264 Y29.0000 Z-0.4000 F60000.00
G1 X13.4264 Y29.0000 Z-0.4000 F24000.00
G1 X39.0000 Y3.4264 Z-0.4000 F60000.00
G1 X39.0000 Y3.4264 Z-0.5000 F24000.00
G1 X13.4264 Y29.0000 Z-0.5000 F60000.00
G1 X13.4264 Y29.0000 Z-0.5000 F24000.00
G1 X39.0000 Y3.4264 Z-0.5000 F60000.00
G0 X39.0000 Y3.4264 Z12.0000
G0 X39.0000 Y2.2304 Z12.0000
G0 X39.0000 Y2.2304 Z7.5000
G1 X39.0000 Y2.2304 Z-0.5000 F24000.00
G1 X7.7696 Y-29.0000 Z-0.5000 F60000.00
G1 X7.7696 Y-29.0000 Z-0.5000 F24000.00
G1 X39.0000 Y2.2304 Z-0.5000 F60000.00
G1 X39.0000 Y2.2304 Z-0.4000 F24000.00
G1 X7.7696 Y-29.0000 Z-0.4000 F60000.00
G1 X7.7696 Y-29.0000 Z-0.4000 F24000.00
G1 X39.0000 Y2.2304 Z-0.4000 F60000.00
G1 X39.0000 Y2.2304 Z-0.2000 F24000.00
G1 X7.7696 Y-29.0000 Z-0.2000 F60000.00
G1 X7.7696 Y-29.0000 Z-0.2000 F24000.00
G1 X39.0000 Y2.2304 Z-0.2000 F60000.00
G1 X39.0000 Y2.2304 Z-0.0000 F24000.00
G1 X7.7696 Y-29.0000 Z-0.0000 F60000.00
G1 X7.7696 Y-29.0000 Z-0.0000 F24000.00
G1 X39.0000 Y2.2304 Z-0.0000 F60000.00
G0 X39.0000 Y2.2304 Z12.0000
G0 X39.0000 Y2.0122 Z12.0000
G0 X39.0000 Y2.0122 Z8.0000
G1 X39.0000 Y2.0122 Z-0.0000 F24000.00
G1 X12.0122 Y29.0000 Z-0.0000 F60000.00
G1 X12.0122 Y29.0000 Z-0.0000 F24000.00
G1 X39.0000 Y2.0122 Z-0.0000 F60000.00
G1 X39.0000 Y2.0122 Z-0.2000 F24000.00
G1 X12.0122 Y29.0000 Z-0.2000 F60000.00
G1 X12.0122 Y29.0000 Z-0.2000 F24000.00
G1 X39.0000 Y2.0122 Z-0.2000 F60000.00
G1 X39.0000 Y2.0122 Z-0.4000 F24000.00
G1 X12.0122 Y29.0000 Z-0.4000 F60000.00
G1 X12.0122 Y29.0000 Z-0.4000 F24000.00
G1 X39.0000 Y2.0122 Z-0.4000 F60000.00
G1 X39.0000 Y2.0122 Z-0.5000 F24000.00
G1 X12.0122 Y29.0000 Z-0.5000 F60000.00
G1 X12.0122 Y29.0000 Z-0.5000 F24000.00
G1 X39.0000 Y2.0122 Z-0.5000 F60000.00
G0 X39.0000 Y2.0122 Z12.0000
G0 X39.0000 Y0.8162 Z12.0000
G0 X39.0000 Y0.8162 Z7.5000
G1 X39.0000 Y0.8162 Z-0.5000 F24000.00
G1 X9.1838 Y-29.0000 Z-0.5000 F60000.00
G1 X9.1838 Y-29.0000 Z-0.5000 F24000.00
G1 X39.0000 Y0.8162 Z-0.5000 F60000.00
G1 X39.0000 Y0.8162 Z-0.4000 F24000.00
G1 X9.1838 Y-29.0000 Z-0.4000 F60000.00
G1 X9.1838 Y-29.0000 Z-0.4000 F24000.00
G1 X39.0000 Y0.8162 Z-0.4000 F60000.00
G1 X39.0000 Y0.8162 Z-0.2000 F24000.00
G1 X9.1838 Y-29.0000 Z-0.2000 F60000.00
G1 X9.1838 Y-29.0000 Z-0.2000 F24000.00
G1 X39.0000 Y0.8162 Z-0.2000 F60000.00
G1 X39.0000 Y0.8162 Z-0.0000 F24000.00
G1 X9.1838 Y-29.0000 Z-0.0000 F60000.00
G1 X9.1838 Y-29.0000 Z-0.0000 F24000.00
G1 X39.0000 Y0.8162 Z-0.0000 F60000.00
G0 X39.0000 Y0.8162 Z12.0000
G0 X39.0000 Y0.5980 Z12.0000
G0 X39.0000 Y0.5980 Z8.0000
G1 X39.0000 Y0.5980 Z-0.0000 F24000.00
G1 X10.5980 Y29.0000 Z-0.0000 F60000.00
G1 X10.5980 Y29.0000 Z-0.0000 F24000.00
G1 X39.0000 Y0.5980 Z-0.0000 F60000.00
G1 X39.0000 Y0.5980 Z-0.2000 F24000.00
G1 X10.5980 Y29.0000 Z-0.2000 F60000.00
G1 X10.5980 Y29.0000 Z-0.2000 F24000.00
G1 X39.0000 Y0.5980 Z-0.2000 F60000.00
G1 X39.0000 Y0.5980 Z-0.4000 F24000.00
G1 X10.5980 Y29.0000 Z-0.4000 F60000.00
G1 X10.5980 Y29.0000 Z-0.4000 F24000.00
G1 X39.0000 Y0.5980 Z-0.4000 F60000.00
G1 X39.0000 Y0.5980 Z-0.5000 F24000.00
G1 X10.5980 Y29.0000 Z-0.5000 F60000.00
G1 X10.5980 Y29.0000 Z-0.5000 F24000.00
G1 X39.0000 Y0.5980 Z-0.5000 F60000.00
G0 X39.0000 Y0.5980 Z12.0000
G0 X39.0000 Y-0.5980 Z12.0000
G0 X39.0000 Y-0.5980 Z7.5000
G1 X39.0000 Y-0.5980 Z-0.5000 F24000.00
G1 X10.5980 Y-29.0000 Z-0.5000 F60000.00
G1 X10.5980 Y-29.0000 Z-0.5000 F24000.00
G1 X39.0000 Y-0.5980 Z-0.5000 F60000.00
G1 X39.0000 Y-0.5980 Z-0.4000 F24000.00
G1 X10.5980 Y-29.0000 Z-0.4000 F60000.00
G1 X10.5980 Y-29.0000 Z-0.4000 F24000.00
G1 X39.0000 Y-0.5980 Z-0.4000 F60000.00
G1 X39.0000 Y-0.5980 Z-0.2000 F24000.00
G1 X10.5980 Y-29.0000 Z-0.2000 F60000.00
G1 X10.5980 Y-29.0000 Z-0.2000 F24000.00
G1 X39.0000 Y-0.5980 Z-0.2000 F60000.00
G1 X39.0000 Y-0.5980 Z-0.0000 F24000.00
G1 X10.5980 Y-29.0000 Z-0.0000 F60000.00
G1 X10.5980 Y-29.0000 Z-0.0000 F24000.00
G1 X39.0000 Y-0.5980 Z-0.0000 F60000.00
G0 X39.0000 Y-0.5980 Z12.0000
G0 X39.0000 Y-0.8162 Z12.0000
G0 X39.0000 Y-0.8162 Z8.0000
G1 X39.0000 Y-0.8162 Z-0.0000 F24000.00
G1 X9.1838 Y29.0000 Z-0.0000 F60000.00
G1 X9.1838 Y29.0000 Z-0.0000 F24000.00
G1 X39.0000 Y-0.8162 Z-0.0000 F60000.00
G1 X39.0000 Y-0.8162 Z-0.2000 F24000.00
G1 X9.1838 Y29.0000 Z-0.2000 F60000.00
G1 X9.1838 Y29.0000 Z-0.2000 F24000.00
G1 X39.0000 Y-0.8162 Z-0.2000 F60000.00
G1 X39.0000 Y-0.8162 Z-0.4000 F24000.00
G1 X9.1838 Y29.0000 Z-0.4000 F60000.00
G1 X9.1838 Y29.0000 Z-0.4000 F24000.00
G1 X39.0000 Y-0.8162 Z-0.4000 F60000.00
G1 X39.0000 Y-0.8162 Z-0.5000 F24000.00
G1 X9.1838 Y29.0000 Z-0.5000 F60000.00
G1 X9.1838 Y29.0000 Z-0.5000 F24000.00
G1 X39.0000 Y-0.8162 Z-0.5000 F60000.00
G0 X39.0000 Y-0.8162 Z12.0000
G0 X39.0000 Y-2.0122 Z12.0000
G0 X39.0000 Y-2.0122 Z7.5000
G1 X39.0000 Y-2.0122 Z-0.5000 F24000.00
G1 X12.0122 Y-29.0000 Z-0.5000 F60000.00
G1 X12.0122 Y-29.0000 Z-0.5000 F24000.00
G1 X39.0000 Y-2.0122 Z-0.5000 F60000.00
G1 X39.0000 Y-2.0122 Z-0.4000 F24000.00
G1 X12.0122 Y-29.0000 Z-0.4000 F60000.00
G1 X12.0122 Y-29.0000 Z-0.4000 F24000.00
G1 X39.0000 Y-2.0122 Z-0.4000 F60000.00
G1 X39.0000 Y-2.0122 Z-0.2000 F24000.00
G1 X12.0122 Y-29.0000 Z-0.2000 F60000.00
G1 X12.0122 Y-29.0000 Z-0.2000 F24000.00
G1 X39.0000 Y-2.0122 Z-0.2000 F60000.00
G1 X39.0000 Y-2.0122 Z-0.0000 F24000.00
G1 X12.0122 Y-29.0000 Z-0.0000 F60000.00
G1 X12.0122 Y-29.0000 Z-0.0000 F24000.00
G1 X39.0000 Y-2.0122 Z-0.0000 F60000.00
G0 X39.0000 Y-2.0122 Z12.0000
G0 X39.0000 Y-2.2304 Z12.0000
G0 X39.0000 Y-2.2304 Z8.0000
G1 X39.0000 Y-2.2304 Z-0.0000 F24000.00
G1 X7.7696 Y29.0000 Z-0.0000 F60000.00
G1 X7.7696 Y29.0000 Z-0.0000 F24000.00
G1 X39.0000 Y-2.2304 Z-0.0000 F60000.00
G1 X39.0000 Y-2.2304 Z-0.2000 F24000.00
G1 X7.7696 Y29.0000 Z-0.2000 F60000.00
G1 X7.7696 Y29.0000 Z-0.2000 F24000.00
G1 X39.0000 Y-2.2304 Z-0.2000 F60000.00
G1 X39.0000 Y-2.2304 Z-0.4000 F24000.00
G1 X7.7696 Y29.0000 Z-0.4000 F60000.00
G1 X7.7696 Y29.0000 Z-0.4000 F24000.00
G1 X39.0000 Y-2.2304 Z-0.4000 F60000.00
G1 X39.0000 Y-2.2304 Z-0.5000 F24000.00
G1 X7.7696 Y29.0000 Z-0.5000 F60000.00
G1 X7.7696 Y29.0000 Z-0.5000 F24000.00
G1 X39.0000 Y-2.2304 Z-0.5000 F60000.00
G0 X39.0000 Y-2.2304 Z12.0000
G0 X39.0000 Y-3.4264 Z12.0000
G0 X39.0000 Y-3.4264 Z7.5000
G1 X39.0000 Y-3.4264 Z-0.5000 F24000.00
G1 X13.4264 Y-29.0000 Z-0.5000 F60000.00
G1 X13.4264 Y-29.0000 Z-0.5000 F24000.00
G1 X39.0000 Y-3.4264 Z-0.5000 F60000.00
G1 X39.0000 Y-3.4264 Z-0.4000 F24000.00
G1 X13.4264 Y-29.0000 Z-0.4000 F60000.00
G1 X13.4264 Y-29.0000 Z-0.4000 F24000.00
G1 X39.0000 Y-3.4264 Z-0.4000 F60000.00
G1 X39.0000 Y-3.4264 Z-0.2000 F24000.00
G1 X13.4264 Y-29.0000 Z-0.2000 F60000.00
G1 X13.4264 Y-29.0000 Z-0.2000 F24000.00
G1 X39.0000 Y-3.4264 Z-0.2000 F60000.00
G1 X39.0000 Y-3.4264 Z-0.0000 F24000.00
G1 X13.4264 Y-29.0000 Z-0.0000 F60000.00
G1 X13.4264 Y-29.0000 Z-0.0000 F24000.00
G1 X39.0000 Y-3.4264 Z-0.0000 F60000.00
G0 X39.0000 Y-3.4264 Z12.0000
G0 X39.0000 Y-3.6447 Z12.0000
G0 X39.0000 Y-3.6447 Z8.0000
G1 X39.0000 Y-3.6447 Z-0.0000 F24000.00
G1 X6.3553 Y29.0000 Z-0.0000 F60000.00
G1 X6.3553 Y29.0000 Z-0.0000 F24000.00
G1 X39.0000 Y-3.6447 Z-0.0000 F60000.00
G1 X39.0000 Y-3.6447 Z-0.2000 F24000.00
G1 X6.3553 Y29.0000 Z-0.2000 F60000.00
G1 X6.3553 Y29.0000 Z-0.2000 F24000.00
G1 X39.0000 Y-3.6447 Z-0.2000 F60000.00
G1 X39.0000 Y-3.6447 Z-0.4000 F24000.00
G1 X6.3553 Y29.0000 Z-0.4000 F60000.00
G1 X6.3553 Y29.0000 Z-0.4000 F24000.00
G1 X39.0000 Y-3.6447 Z-0.4000 F60000.00
G1 X39.0000 Y-3.6447 Z-0.5000 F24000.00
G1 X6.3553 Y29.0000 Z-0.5000 F60000.00
G1 X6.3553 Y29.0000 Z-0.5000 F24000.00
G1 X39.0000 Y-3.6447 Z-0.5000 F60000.00
G0 X39.0000 Y-3.6447 Z12.0000
G0 X39.0000 Y-4.8406 Z12.0000
G0 X39.0000 Y-4.8406 Z7.5000
G1 X39.0000 Y-4.8406 Z-0.5000 F24000.00
G1 X14.8406 Y-29.0000 Z-0.5000 F60000.00
G1 X14.8406 Y-29.0000 Z-0.5000 F24000.00
G1 X39.0000 Y-4.8406 Z-0.5000 F60000.00
G1 X39.0000 Y-4.8406 Z-0.4000 F24000.00
G1 X14.8406 Y-29.0000 Z-0.4000 F60000.00
G1 X14.8406 Y-29.0000 Z-0.4000 F24000.00
G1 X39.0000 Y-4.8406 Z-0.4000 F60000.00
G1 X39.0000 Y-4.8406 Z-0.2000 F24000.00
G1 X14.8406 Y-29.0000 Z-0.2000 F60000.00
G1 X14.8406 Y-29.0000 Z-0.2000 F24000.00
G1 X39.0000 Y-4.8406 Z-0.2000 F60000.00
G1 X39.0000 Y-4.8406 Z-0.0000 F24000.00
G1 X14.8406 Y-29.0000 Z-0.0000 F60000.00
G1 X14.8406 Y-29.0000 Z-0.0000 F24000.00
G1 X39.0000 Y-4.8406 Z-0.0000 F60000.00
G0 X39.0000 Y-4.8406 Z12.0000
G0 X39.0000 Y-5.0589 Z12.0000
G0 X39.0000 Y-5.0589 Z8.0000
G1 X39.0000 Y-5.0589 Z-0.0000 F24000.00
G1 X4.9411 Y29.0000 Z-0.0000 F60000.00
G1 X4.9411 Y29.0000 Z-0.0000 F24000.00
G1 X39.0000 Y-5.0589 Z-0.0000 F60000.00
G1 X39.0000 Y-5.0589 Z-0.2000 F24000.00
G1 X4.9411 Y29.0000 Z-0.2000 F60000.00
G1 X4.9411 Y29.0000 Z-0.2000 F24000.00
G1 X39.0000 Y-5.0589 Z-0.2000 F60000.00
G1 X39.0000 Y-5.0589 Z-0.4000 F24000.00
G1 X4.9411 Y29.0000 Z-0.4000 F60000.00
G1 X4.9411 Y29.0000 Z-0.4000 F24000.00
G1 X39.0000 Y-5.0589 Z-0.4000 F60000.00
G1 X39.0000 Y-5.0589 Z-0.5000 F24000.00
G1 X4.9411 Y29.0000 Z-0.5000 F60000.00
G1 X4.9411 Y29.0000 Z-0.5000 F24000.00
G1 X39.0000 Y-5.0589 Z-0.5000 F60000.00
G0 X39.0000 Y-5.0589 Z12.0000
G0 X39.0000 Y-6.2548 Z12.0000
G0 X39.0000 Y-6.2548 Z7.5000
G1 X39.0000 Y-6.2548 Z-0.5000 F24000.00
G1 X16.2548 Y-29.0000 Z-0.5000 F60000.00
G1 X16.2548 Y-29.0000 Z-0.5000 F24000.00
G1 X39.0000 Y-6.2548 Z-0.5000 F60000.00
G1 X39.0000 Y-6.2548 Z-0.4000 F24000.00
G1 X16.2548 Y-29.0000 Z-0.4000 F60000.00
G1 X16.2548 Y-29.0000 Z-0.4000 F24000.00
G1 X39.0000 Y-6.2548 Z-0.4000 F60000.00
G1 X39.0000 Y-6.2548 Z-0.2000 F24000.00
G1 X16.2548 Y-29.0000 Z-0.2000 F60000.00
G1 X16.2548 Y-29.0000 Z-0.2000 F24000.00
G1 X39.0000 Y-6.2548 Z-0.2000 F60000.00
G1 X39.0000 Y-6.2548 Z-0.0000 F24000.00
G1 X16.2548 Y-29.0000 Z-0.0000 F60000.00
G1 X16.2548 Y-29.0000 Z-0.0000 F24000.00
G1 X39.0000 Y-6.2548 Z-0.0000 F60000.00
G0 X39.0000 Y-6.2548 Z12.0000
G0 X39.0000 Y-6.4731 Z12.0000
G0 X39.0000 Y-6.4731 Z8.0000
G1 X39.0000 Y-6.4731 Z-0.0000 F24000.00
G1 X3.5269 Y29.0000 Z-0.0000 F60000.00
G1 X3.5269 Y29.0000 Z-0.0000 F24000.00
G1 X39.0000 Y-6.4731 Z-0.0000 F60000.00
G1 X39.0000 Y-6.4731 Z-0.2000 F24000.00
G1 X3.5269 Y29.0000 Z-0.2000 F60000.00
G1 X3.5269 Y29.0000 Z-0.2000 F24000.00
G1 X39.0000 Y-6.4731 Z-0.2000 F60000.00
G1 X39.0000 Y-6.4731 Z-0.4000 F24000.00
G1 X3.5269 Y29.0000 Z-0.4000 F60000.00
G1 X3.5269 Y29.0000 Z-0.4000 F24000.00
G1 X39.0000 Y-6.4731 Z-0.4000 F60000.00
G1 X39.0000 Y-6.4731 Z-0.5000 F24000.00
G1 X3.5269 Y29.0000 Z-0.5000 F60000.00
G1 X3.5269 Y29.0000 Z-0.5000 F24000.00
G1 X39.0000 Y-6.4731 Z-0.5000 F60000.00
G0 X39.0000 Y-6.4731 Z12.0000
G0 X39.0000 Y-7.6690 Z12.0000
G0 X39.0000 Y-7.6690 Z7.5000
G1 X39.0000 Y-7.6690 Z-0.5000 F24000.00
G1 X17.6690 Y-29.0000 Z-0.5000 F60000.00
G1 X17.6690 Y-29.0000 Z-0.5000 F24000.00
G1 X39.0000 Y-7.6690 Z-0.5000 F60000.00
G1 X39.0000 Y-7.6690 Z-0.4000 F24000.00
G1 X17.6690 Y-29.0000 Z-0.4000 F60000.00
G1 X17.6690 Y-29.0000 Z-0.4000 F24000.00
G1 X39.0000 Y-7.6690 Z-0.4000 F60000.00
G1 X39.0000 Y-7.6690 Z-0.2000 F24000.00
G1 X17.6690 Y-29.0000 Z-0.2000 F60000.00
G1 X17.6690 Y-29.0000 Z-0.2000 F24000.00
G1 X39.0000 Y-7.6690 Z-0.2000 F60000.00
G1 X39.0000 Y-7.6690 Z-0.0000 F24000.00
G1 X17.6690 Y-29.0000 Z-0.0000 F60000.00
G1 X17.6690 Y-29.0000 Z-0.0000 F24000.00
G1 X39.0000 Y-7.6690 Z-0.0000 F60000.00
G0 X39.0000 Y-7.6690 Z12.0000
G0 X39.0000 Y-7.8873 Z12.0000
G0 X39.0000 Y-7.8873 Z8.0000
G1 X39.0000 Y-7.8873 Z-0.0000 F24000.00
G1 X2.1127 Y29.0000 Z-0.0000 F60000.00
G1 X2.1127 Y29.0000 Z-0.0000 F24000.00
G1 X39.0000 Y-7.8873 Z-0.0000 F60000.00
G1 X39.0000 Y-7.8873 Z-0.2000 F24000.00
G1 X2.1127 Y29.0000 Z-0.2000 F60000.00
G1 X2.1127 Y29.0000 Z-0.2000 F24000.00
G1 X39.0000 Y-7.8873 Z-0.2000 F60000.00
G1 X39.0000 Y-7.8873 Z-0.4000 F24000.00
G1 X2.1127 Y29.0000 Z-0.4000 F60000.00
G1 X2.1127 Y29.0000 Z-0.4000 F24000.00
G1 X39.0000 Y-7.8873 Z-0.4000 F60000.00
G1 X39.0000 Y-7.8873 Z-0.5000 F24000.00
G1 X2.1127 Y29.0000 Z-0.5000 F60000.00
G1 X2.1127 Y29.0000 Z-0.5000 F24000.00
G1 X39.0000 Y-7.8873 Z-0.5000 F60000.00
G0 X39.0000 Y-7.8873 Z12.0000
G0 X39.0000 Y-9.0833 Z12.0000
G0 X39.0000 Y-9.0833 Z7.5000
G1 X39.0000 Y-9.0833 Z-0.5000 F24000.00
G1 X19.0833 Y-29.0000 Z-0.5000 F60000.00
G1 X19.0833 Y-29.0000 Z-0.5000 F24000.00
G1 X39.0000 Y-9.0833 Z-0.5000 F60000.00
G1 X39.0000 Y-9.0833 Z-0.4000 F24000.00
G1 X19.0833 Y-29.0000 Z-0.4000 F60000.00
G1 X19.0833 Y-29.0000 Z-0.4000 F24000.00
G1 X39.0000 Y-9.0833 Z-0.4000 F60000.00
G1 X39.0000 Y-9.0833 Z-0.2000 F24000.00
G1 X19.0833 Y-29.0000 Z-0.2000 F60000.00
G1 X19.0833 Y-29.0000 Z-0.2000 F24000.00
G1 X39.0000 Y-9.0833 Z-0.2000 F60000.00
G1 X39.0000 Y-9.0833 Z-0.0000 F24000.00
G1 X19.0833 Y-29.0000 Z-0.0000 F60000.00
G1 X19.0833 Y-29.0000 Z-0.0000 F24000.00
G1 X39.0000 Y-9.0833 Z-0.0000 F60000.00
G0 X39.0000 Y-9.0833 Z12.0000
G0 X39.0000 Y-9.3015 Z12.0000
G0 X39.0000 Y-9.3015 Z8.0000
G1 X39.0000 Y-9.3015 Z-0.0000 F24000.00
G1 X0.6985 Y29.0000 Z-0.0000 F60000.00
G1 X0.6985 Y29.0000 Z-0.0000 F24000.00
G1 X39.0000 Y-9.3015 Z-0.0000 F60000.00
G1 X39.0000 Y-9.3015 Z-0.2000 F24000.00
G1 X0.6985 Y29.0000 Z-0.2000 F60000.00
G1 X0.6985 Y29.0000 Z-0.2000 F24000.00
G1 X39.0000 Y-9.3015 Z-0.2000 F60000.00
G1 X39.0000 Y-9.3015 Z-0.4000 F24000.00
G1 X0.6985 Y29.0000 Z-0.4000 F60000.00
G1 X0.6985 Y29.0000 Z-0.4000 F24000.00
G1 X39.0000 Y-9.3015 Z-0.4000 F60000.00
G1 X39.0000 Y-9.3015 Z-0.5000 F24000.00
G1 X0.6985 Y29.0000 Z-0.5000 F60000.00
G1 X0.6985 Y29.0000 Z-0.5000 F24000.00
G1 X39.0000 Y-9.3015 Z-0.5000 F60000.00
G0 X39.0000 Y-9.3015 Z12.0000
G0 X39.0000 Y-10.4975 Z12.0000
G0 X39.0000 Y-10.4975 Z7.5000
G1 X39.0000 Y-10.4975 Z-0.5000 F24000.00
G1 X20.4975 Y-29.0000 Z-0.5000 F60000.00
G1 X20.4975 Y-29.0000 Z-0.5000 F24000.00
G1 X39.0000 Y-10.4975 Z-0.5000 F60000.00
G1 X39.0000 Y-10.4975 Z-0.4000 F24000.00
G1 X20.4975 Y-29.0000 Z-0.4000 F60000.00
G1 X20.4975 Y-29.0000 Z-0.4000 F24000.00
G1 X39.0000 Y-10.4975 Z-0.4000 F60000.00
G1 X39.0000 Y-10.4975 Z-0.2000 F24000.00
G1 X20.4975 Y-29.0000 Z-0.2000 F60000.00
G1 X20.4975 Y-29.0000 Z-0.2000 F24000.00
G1 X39.0000 Y-10.4975 Z-0.2000 F60000.00
G1 X39.0000 Y-10.4975 Z-0.0000 F24000.00
G1 X20.4975 Y-29.0000 Z-0.0000 F60000.00
G1 X20.4975 Y-29.0000 Z-0.0000 F24000.00
G1 X39.0000 Y-10.4975 Z-0.0000 F60000.00
G0 X39.0000 Y-10.4975 Z12.0000
G0 X39.0000 Y-10.7157 Z12.0000
G0 X39.0000 Y-10.7157 Z8.0000
G1 X39.0000 Y-10.7157 Z-0.0000 F24000.00
G1 X-0.7157 Y29.0000 Z-0.0000 F60000.00
G1 X-0.7157 Y29.0000 Z-0.0000 F24000.00
G1 X39.0000 Y-10.7157 Z-0.0000 F60000.00
G1 X39.0000 Y-10.7157 Z-0.2000 F24000.00
G1 X-0.7157 Y29.0000 Z-0.2000 F60000.00
G1 X-0.7157 Y29.0000 Z-0.2000 F24000.00
G1 X39.0000 Y-10.7157 Z-0.2000 F60000.00
G1 X39.0000 Y-10.7157 Z-0.4000 F24000.00
G1 X-0.7157 Y29.0000 Z-0.4000 F60000.00
G1 X-0.7157 Y29.0000 Z-0.4000 F24000.00
G1 X39.0000 Y-10.7157 Z-0.4000 F60000.00
G1 X39.0000 Y-10.7157 Z-0.5000 F24000.00
G1 X-0.7157 Y29.0000 Z-0.5000 F60000.00
G1 X-0.7157 Y29.0000 Z-0.5000 F24000.00
G1 X39.0000 Y-10.7157 Z-0.5000 F60000.00
G0 X39.0000 Y-10.7157 Z12.0000
G0 X39.0000 Y-11.9117 Z12.0000
G0 X39.0000 Y-11.9117 Z7.5000
G1 X39.0000 Y-11.9117 Z-0.5000 F24000.00
G1 X21.9117 Y-29.0000 Z-0.5000 F60000.00
G1 X21.9117 Y-29.0000 Z-0.5000 F24000.00
G1 X39.0000 Y-11.9117 Z-0.5000 F60000.00
G1 X39.0000 Y-11.9117 Z-0.4000 F24000.00
G1 X21.9117 Y-29.0000 Z-0.4000 F60000.00
G1 X21.9117 Y-29.0000 Z-0.4000 F24000.00
G1 X39.0000 Y-11.9117 Z-0.4000 F60000.00
G1 X39.0000 Y-11.9117 Z-0.2000 F24000.00
G1 X21.9117 Y-29.0000 Z-0.2000 F60000.00
G1 X21.9117 Y-29.0000 Z-0.2000 F24000.00
G1 X39.0000 Y-11.9117 Z-0.2000 F60000.00
G1 X39.0000 Y-11.9117 Z-0.0000 F24000.00
G1 X21.9117 Y-29.0000 Z-0.0000 F60000.00
G1 X21.9117 Y-29.0000 Z-0.0000 F24000.00
G1 X39.0000 Y-11.9117 Z-0.0000 F60000.00
G0 X39.0000 Y-11.9117 Z12.0000
G0 X39.0000 Y-12.1299 Z12.0000
G0 X39.0000 Y-12.1299 Z8.0000
G1 X39.0000 Y-12.1299 Z-0.0000 F24000.00
G1 X-2.1299 Y29.0000 Z-0.0000 F60000.00
G1 X-2.1299 Y29.0000 Z-0.0000 F24000.00
G1 X39.0000 Y-12.1299 Z-0.0000 F60000.00
G1 X39.0000 Y-12.1299 Z-0.2000 F24000.00
G1 X-2.1299 Y29.0000 Z-0.2000 F60000.00
G1 X-2.1299 Y29.0000 Z-0.2000 F24000.00
G1 X39.0000 Y-12.1299 Z-0.2000 F60000.00
G1 X39.0000 Y-12.1299 Z-0.4000 F24000.00
G1 X-2.1299 Y29.0000 Z-0.4000 F60000.00
G1 X-2.1299 Y29.0000 Z-0.4000 F24000.00
G1 X39.0000 Y-12.1299 Z-0.4000 F60000.00
G1 X39.0000 Y-12.1299 Z-0.5000 F24000.00
G1 X-2.1299 Y29.0000 Z-0.5000 F60000.00
G1 X-2.1299 Y29.0000 Z-0.5000 F24000.00
G1 X39.0000 Y-12.1299 Z-0.5000 F60000.00
G0 X39.0000 Y-12.1299 Z12.0000
G0 X39.0000 Y-13.3259 Z12.0000
G0 X39.0000 Y-13.3259 Z7.5000
G1 X39.0000 Y-13.3259 Z-0.5000 F24000.00
G1 X23.3259 Y-29.0000 Z-0.5000 F60000.00
G1 X23.3259 Y-29.0000 Z-0.5000 F24000.00
G1 X39.0000 Y-13.3259 Z-0.5000 F60000.00
G1 X39.0000 Y-13.3259 Z-0.4000 F24000.00
G1 X23.3259 Y-29.0000 Z-0.4000 F60000.00
G1 X23.3259 Y-29.0000 Z-0.4000 F24000.00
G1 X39.0000 Y-13.3259 Z-0.4000 F60000.00
G1 X39.0000 Y-13.3259 Z-0.2000 F24000.00
G1 X23.3259 Y-29.0000 Z-0.2000 F60000.00
G1 X23.3259 Y-29.0000 Z-0.2000 F24000.00
G1 X39.0000 Y-13.3259 Z-0.2000 F60000.00
G1 X39.0000 Y-13.3259 Z-0.0000 F24000.00
G1 X23.3259 Y-29.0000 Z-0.0000 F60000.00
G1 X23.3259 Y-29.0000 Z-0.0000 F24000.00
G1 X39.0000 Y-13.3259 Z-0.0000 F60000.00
G0 X39.0000 Y-13.3259 Z12.0000
G0 X39.0000 Y-13.5442 Z12.0000
G0 X39.0000 Y-13.5442 Z8.0000
G1 X39.0000 Y-13.5442 Z-0.0000 F24000.00
G1 X-3.5442 Y29.0000 Z-0.0000 F60000.00
G1 X-3.5442 Y29.0000 Z-0.0000 F24000.00
G1 X39.0000 Y-13.5442 Z-0.0000 F60000.00
G1 X39.0000 Y-13.5442 Z-0.2000 F24000.00
G1 X-3.5442 Y29.0000 Z-0.2000 F60000.00
G1 X-3.5442 Y29.0000 Z-0.2000 F24000.00
G1 X39.0000 Y-13.5442 Z-0.2000 F60000.00
G1 X39.0000 Y-13.5442 Z-0.4000 F24000.00
G1 X-3.5442 Y29.0000 Z-0.4000 F60000.00
G1 X-3.5442 Y29.0000 Z-0.4000 F24000.00
G1 X39.0000 Y-13.5442 Z-0.4000 F60000.00
G1 X39.0000 Y-13.5442 Z-0.5000 F24000.00
G1 X-3.5442 Y29.0000 Z-0.5000 F60000.00
G1 X-3.5442 Y29.0000 Z-0.5000 F24000.00
G1 X39.0000 Y-13.5442 Z-0.5000 F60000.00
G0 X39.0000 Y-13.5442 Z12.0000
G0 X39.0000 Y-14.7401 Z12.0000
G0 X39.0000 Y-14.7401 Z7.5000
G1 X39.0000 Y-14.7401 Z-0.5000 F24000.00
G1 X24.7401 Y-29.0000 Z-0.5000 F60000.00
G1 X24.7401 Y-29.0000 Z-0.5000 F24000.00
G1 X39.0000 Y-14.7401 Z-0.5000 F60000.00
G1 X39.0000 Y-14.7401 Z-0.4000 F24000.00
G1 X24.7401 Y-29.0000 Z-0.4000 F60000.00
G1 X24.7401 Y-29.0000 Z-0.4000 F24000.00
G1 X39.0000 Y-14.7401 Z-0.4000 F60000.00
G1 X39.0000 Y-14.7401 Z-0.2000 F24000.00
G1 X24.7401 Y-29.0000 Z-0.2000 F60000.00
G1 X24.7401 Y-29.0000 Z-0.2000 F24000.00
G1 X39.0000 Y-14.7401 Z-0.2000 F60000.00
G1 X39.0000 Y-14.7401 Z-0.0000 F24000.00
G1 X24.7401 Y-29.0000 Z-0.0000 F60000.00
G1 X24.7401 Y-29.0000 Z-0.0000 F24000.00
G1 X39.0000 Y-14.7401 Z-0.0000 F60000.00
G0 X39.0000 Y-14.7401 Z12.0000
G0 X39.0000 Y-14.9584 Z12.0000
G0 X39.0000 Y-14.9584 Z8.0000
G1 X39.0000 Y-14.9584 Z-0.0000 F24000.00
G1 X-4.9584 Y29.0000 Z-0.0000 F60000.00
G1 X-4.9584 Y29.0000 Z-0.0000 F24000.00
G1 X39.0000 Y-14.9584 Z-0.0000 F60000.00
G1 X39.0000 Y-14.9584 Z-0.2000 F24000.00
G1 X-4.9584 Y29.0000 Z-0.2000 F60000.00
G1 X-4.9584 Y29.0000 Z-0.2000 F24000.00
G1 X39.0000 Y-14.9584 Z-0.2000 F60000.00
G1 X39.0000 Y-14.9584 Z-0.4000 F24000.00
G1 X-4.9584 Y29.0000 Z-0.4000 F60000.00
G1 X-4.9584 Y29.0000 Z-0.4000 F24000.00
G1 X39.0000 Y-14.9584 Z-0.4000 F60000.00
G1 X39.0000 Y-14.9584 Z-0.5000 F24000.00
G1 X-4.9584 Y29.0000 Z-0.5000 F60000.00
G1 X-4.9584 Y29.0000 Z-0.5000 F24000.00
G1 X39.0000 Y-14.9584 Z-0.5000 F60000.00
G0 X39.0000 Y-14.9584 Z12.0000
G0 X39.0000 Y-16.1543 Z12.0000
G0 X39.0000 Y-16.1543 Z7.5000
G1 X39.0000 Y-16.1543 Z-0.5000 F24000.00
G1 X26.1543 Y-29.0000 Z-0.5000 F60000.00
G1 X26.1543 Y-29.0000 Z-0.5000 F24000.00
G1 X39.0000 Y-16.1543 Z-0.5000 F60000.00
G1 X39.0000 Y-16.1543 Z-0.4000 F24000.00
G1 X26.1543 Y-29.0000 Z-0.4000 F60000.00
G1 X26.1543 Y-29.0000 Z-0.4000 F24000.00
G1 X39.0000 Y-16.1543 Z-0.4000 F60000.00
G1 X39.0000 Y-16.1543 Z-0.2000 F24000.00
G1 X26.1543 Y-29.0000 Z-0.2000 F60000.00
G1 X26.1543 Y-29.0000 Z-0.2000 F24000.00
G1 X39.0000 Y-16.1543 Z-0.2000 F60000.00
G1 X39.0000 Y-16.1543 Z-0.0000 F24000.00
G1 X26.1543 Y-29.0000 Z-0.0000 F60000.00
G1 X26.1543 Y-29.0000 Z-0.0000 F24000.00
G1 X39.0000 Y-16.1543 Z-0.0000 F60000.00
G0 X39.0000 Y-16.1543 Z12.0000
G0 X39.0000 Y-16.3726 Z12.0000
G0 X39.0000 Y-16.3726 Z8.0000
G1 X39.0000 Y-16.3726 Z-0.0000 F24000.00
G1 X-6.3726 Y29.0000 Z-0.0000 F60000.00
G1 X-6.3726 Y29.0000 Z-0.0000 F24000.00
G1 X39.0000 Y-16.3726 Z-0.0000 F60000.00
G1 X39.0000 Y-16.3726 Z-0.2000 F24000.00
G1 X-6.3726 Y29.0000 Z-0.2000 F60000.00
G1 X-6.3726 Y29.0000 Z-0.2000 F24000.00
G1 X39.0000 Y-16.3726 Z-0.2000 F60000.00
G1 X39.0000 Y-16.3726 Z-0.4000 F24000.00
G1 X-6.3726 Y29.0000 Z-0.4000 F60000.00
G1 X-6.3726 Y29.0000 Z-0.4000 F24000.00
G1 X39.0000 Y-16.3726 Z-0.4000 F60000.00
G1 X39.0000 Y-16.3726 Z-0.5000 F24000.00
G1 X-6.3726 Y29.0000 Z-0.5000 F60000.00
G1 X-6.3726 Y29.0000 Z-0.5000 F24000.00
G1 X39.0000 Y-16.3726 Z-0.5000 F60000.00
G0 X39.0000 Y-16.3726 Z12.0000
G0 X39.0000 Y-17.5685 Z12.0000
G0 X39.0000 Y-17.5685 Z7.5000
G1 X39.0000 Y-17.5685 Z-0.5000 F24000.00
G1 X27.5685 Y-29.0000 Z-0.5000 F60000.00
G1 X27.5685 Y-29.0000 Z-0.5000 F24000.00
G1 X39.0000 Y-17.5685 Z-0.5000 F60000.00
G1 X39.0000 Y-17.5685 Z-0.4000 F24000.00
G1 X27.5685 Y-29.0000 Z-0.4000 F60000.00
G1 X27.5685 Y-29.0000 Z-0.4000 F24000.00
G1 X39.0000 Y-17.5685 Z-0.4000 F60000.00
G1 X39.0000 Y-17.5685 Z-0.2000 F24000.00
G1 X27.5685 Y-29.0000 Z-0.2000 F60000.00
G1 X27.5685 Y-29.0000 Z-0.2000 F24000.00
G1 X39.0000 Y-17.5685 Z-0.2000 F60000.00
G1 X39.0000 Y-17.5685 Z-0.0000 F24000.00
G1 X27.5685 Y-29.0000 Z-0.0000 F60000.00
G1 X27.5685 Y-29.0000 Z-0.0000 F24000.00
G1 X39.0000 Y-17.5685 Z-0.0000 F60000.00
G0 X39.0000 Y-17.5685 Z12.0000
G0 X39.0000 Y-17.7868 Z12.0000
G0 X39.0000 Y-17.7868 Z8.0000
G1 X39.0000 Y-17.7868 Z-0.0000 F24000.00
G1 X-7.7868 Y29.0000 Z-0.0000 F60000.00
G1 X-7.7868 Y29.0000 Z-0.0000 F24000.00
G1 X39.0000 Y-17.7868 Z-0.0000 F60000.00
G1 X39.0000 Y-17.7868 Z-0.2000 F24000.00
G1 X-7.7868 Y29.0000 Z-0.2000 F60000.00
G1 X-7.7868 Y29.0000 Z-0.2000 F24000.00
G1 X39.0000 Y-17.7868 Z-0.2000 F60000.00
G1 X39.0000 Y-17.7868 Z-0.4000 F24000.00
G1 X-7.7868 Y29.0000 Z-0.4000 F60000.00
G1 X-7.7868 Y29.0000 Z-0.4000 F24000.00
G1 X39.0000 Y-17.7868 Z-0.4000 F60000.00
G1 X39.0000 Y-17.7868 Z-0.5000 F24000.00
G1 X-7.7868 Y29.0000 Z-0.5000 F60000.00
G1 X-7.7868 Y29.0000 Z-0.5000 F24000.00
G1 X39.0000 Y-17.7868 Z-0.5000 F60000.00
G0 X39.0000 Y-17.7868 Z12.0000
G0 X39.0000 Y-18.9828 Z12.0000
G0 X39.0000 Y-18.9828 Z7.5000
G1 X39.0000 Y-18.9828 Z-0.5000 F24000.00
G1 X28.9828 Y-29.0000 Z-0.5000 F60000.00
G1 X28.9828 Y-29.0000 Z-0.5000 F24000.00
G1 X39.0000 Y-18.9828 Z-0.5000 F60000.00
G1 X39.0000 Y-18.9828 Z-0.4000 F24000.00
G1 X28.9828 Y-29.0000 Z-0.4000 F60000.00
G1 X28.9828 Y-29.0000 Z-0.4000 F24000.00
G1 X39.0000 Y-18.9828 Z-0.4000 F60000.00
G1 X39.0000 Y-18.9828 Z-0.2000 F24000.00
G1 X28.9828 Y-29.0000 Z-0.2000 F60000.00
G1 X28.9828 Y-29.0000 Z-0.2000 F24000.00
G1 X39.0000 Y-18.9828 Z-0.2000 F60000.00
G1 X39.0000 Y-18.9828 Z-0.0000 F24000.00
G1 X28.9828 Y-29.0000 Z-0.0000 F60000.00
G1 X28.9828 Y-29.0000 Z-0.0000 F24000.00
G1 X39.0000 Y-18.9828 Z-0.0000 F60000.00
G0 X39.0000 Y-18.9828 Z12.0000
G0 X39.0000 Y-19.2010 Z12.0000
G0 X39.0000 Y-19.2010 Z8.0000
G1 X39.0000 Y-19.2010 Z-0.0000 F24000.00
G1 X-9.2010 Y29.0000 Z-0.0000 F60000.00
G1 X-9.2010 Y29.0000 Z-0.0000 F24000.00
G1 X39.0000 Y-19.2010 Z-0.0000 F60000.00
G1 X39.0000 Y-19.2010 Z-0.2000 F24000.00
G1 X-9.2010 Y29.0000 Z-0.2000 F60000.00
G1 X-9.2010 Y29.0000 Z-0.2000 F24000.00
G1 X39.0000 Y-19.2010 Z-0.2000 F60000.00
G1 X39.0000 Y-19.2010 Z-0.4000 F24000.00
G1 X-9.2010 Y29.0000 Z-0.4000 F60000.00
G1 X-9.2010 Y29.0000 Z-0.4000 F24000.00
G1 X39.0000 Y-19.2010 Z-0.4000 F60000.00
G1 X39.0000 Y-19.2010 Z-0.5000 F24000.00
G1 X-9.2010 Y29.0000 Z-0.5000 F60000.00
G1 X-9.2010 Y29.0000 Z-0.5000 F24000.00
G1 X39.0000 Y-19.2010 Z-0.5000 F60000.00
G0 X39.0000 Y-19.2010 Z12.0000
G0 X39.0000 Y-20.3970 Z12.0000
G0 X39.0000 Y-20.3970 Z7.5000
G1 X39.0000 Y-20.3970 Z-0.5000 F24000.00
G1 X30.3970 Y-29.0000 Z-0.5000 F60000.00
G1 X30.3970 Y-29.0000 Z-0.5000 F24000.00
G1 X39.0000 Y-20.3970 Z-0.5000 F60000.00
G1 X39.0000 Y-20.3970 Z-0.4000 F24000.00
G1 X30.3970 Y-29.0000 Z-0.4000 F60000.00
G1 X30.3970 Y-29.0000 Z-0.4000 F24000.00
G1 X39.0000 Y-20.3970 Z-0.4000 F60000.00
G1 X39.0000 Y-20.3970 Z-0.2000 F24000.00
G1 X30.3970 Y-29.0000 Z-0.2000 F60000.00
G1 X30.3970 Y-29.0000 Z-0.2000 F24000.00
G1 X39.0000 Y-20.3970 Z-0.2000 F60000.00
G1 X39.0000 Y-20.3970 Z-0.0000 F24000.00
G1 X30.3970 Y-29.0000 Z-0.0000 F60000.00
G1 X30.3970 Y-29.0000 Z-0.0000 F24000.00
G1 X39.0000 Y-20.3970 Z-0.0000 F60000.00
G0 X39.0000 Y-20.3970 Z12.0000
G0 X39.0000 Y-20.6152 Z12.0000
G0 X39.0000 Y-20.6152 Z8.0000
G1 X39.0000 Y-20.6152 Z-0.0000 F24000.00
G1 X-10.6152 Y29.0000 Z-0.0000 F60000.00
G1 X-10.6152 Y29.0000 Z-0.0000 F24000.00
G1 X39.0000 Y-20.6152 Z-0.0000 F60000.00
G1 X39.0000 Y-20.6152 Z-0.2000 F24000.00
G1 X-10.6152 Y29.0000 Z-0.2000 F60000.00
G1 X-10.6152 Y29.0000 Z-0.2000 F24000.00
G1 X39.0000 Y-20.6152 Z-0.2000 F60000.00
G1 X39.0000 Y-20.6152 Z-0.4000 F24000.00
G1 X-10.6152 Y29.0000 Z-0.4000 F60000.00
G1 X-10.6152 Y29.0000 Z-0.4000 F24000.00
G1 X39.0000 Y-20.6152 Z-0.4000 F60000.00
G1 X39.0000 Y-20.6152 Z-0.5000 F24000.00
G1 X-10.6152 Y29.0000 Z-0.5000 F60000.00
G1 X-10.6152 Y29.0000 Z-0.5000 F24000.00
G1 X39.0000 Y-20.6152 Z-0.5000 F60000.00
G0 X39.0000 Y-20.6152 Z12.0000
G0 X39.0000 Y-21.8112 Z12.0000
G0 X39.0000 Y-21.8112 Z7.5000
G1 X39.0000 Y-21.8112 Z-0.5000 F24000.00
G1 X31.8112 Y-29.0000 Z-0.5000 F60000.00
G1 X31.8112 Y-29.0000 Z-0.5000 F24000.00
G1 X39.0000 Y-21.8112 Z-0.5000 F60000.00
G1 X39.0000 Y-21.8112 Z-0.4000 F24000.00
G1 X31.8112 Y-29.0000 Z-0.4000 F60000.00
G1 X31.8112 Y-29.0000 Z-0.4000 F24000.00
G1 X39.0000 Y-21.8112 Z-0.4000 F60000.00
G1 X39.0000 Y-21.8112 Z-0.2000 F24000.00
G1 X31.8112 Y-29.0000 Z-0.2000 F60000.00
G1 X31.8112 Y-29.0000 Z-0.2000 F24000.00
G1 X39.0000 Y-21.8112 Z-0.2000 F60000.00
G1 X39.0000 Y-21.8112 Z-0.0000 F24000.00
G1 X31.8112 Y-29.0000 Z-0.0000 F60000.00
G1 X31.8112 Y-29.0000 Z-0.0000 F24000.00
G1 X39.0000 Y-21.8112 Z-0.0000 F60000.00
G0 X39.0000 Y-21.8112 Z12.0000
G0 X39.0000 Y-22.0294 Z12.0000
G0 X39.0000 Y-22.0294 Z8.0000
G1 X39.0000 Y-22.0294 Z-0.0000 F24000.00
G1 X-12.0294 Y29.0000 Z-0.0000 F60000.00
G1 X-12.0294 Y29.0000 Z-0.0000 F24000.00
G1 X39.0000 Y-22.0294 Z-0.0000 F60000.00
G1 X39.0000 Y-22.0294 Z-0.2000 F24000.00
G1 X-12.0294 Y29.0000 Z-0.2000 F60000.00
G1 X-12.0294 Y29.0000 Z-0.2000 F24000.00
G1 X39.0000 Y-22.0294 Z-0.2000 F60000.00
G1 X39.0000 Y-22.0294 Z-0.4000 F24000.00
G1 X-12.0294 Y29.0000 Z-0.4000 F60000.00
G1 X-12.0294 Y29.0000 Z-0.4000 F24000.00
G1 X39.0000 Y-22.0294 Z-0.4000 F60000.00
G1 X39.0000 Y-22.0294 Z-0.5000 F24000.00
G1 X-12.0294 Y29.0000 Z-0.5000 F60000.00
G1 X-12.0294 Y29.0000 Z-0.5000 F24000.00
G1 X39.0000 Y-22.0294 Z-0.5000 F60000.00
G0 X39.0000 Y-22.0294 Z12.0000
G0 X39.0000 Y-23.2254 Z12.0000
G0 X39.0000 Y-23.2254 Z7.5000
G1 X39.0000 Y-23.2254 Z-0.5000 F24000.00
G1 X33.2254 Y-29.0000 Z-0.5000 F60000.00
G1 X33.2254 Y-29.0000 Z-0.5000 F24000.00
G1 X39.0000 Y-23.2254 Z-0.5000 F60000.00
G1 X39.0000 Y-23.2254 Z-0.4000 F24000.00
G1 X33.2254 Y-29.0000 Z-0.4000 F60000.00
G1 X33.2254 Y-29.0000 Z-0.4000 F24000.00
G1 X39.0000 Y-23.2254 Z-0.4000 F60000.00
G1 X39.0000 Y-23.2254 Z-0.2000 F24000.00
G1 X33.2254 Y-29.0000 Z-0.2000 F60000.00
G1 X33.2254 Y-29.0000 Z-0.2000 F24000.00
G1 X39.0000 Y-23.2254 Z-0.2000 F60000.00
G1 X39.0000 Y-23.2254 Z-0.0000 F24000.00
G1 X33.2254 Y-29.0000 Z-0.0000 F60000.00
G1 X33.2254 Y-29.0000 Z-0.0000 F24000.00
G1 X39.0000 Y-23.2254 Z-0.0000 F60000.00
G0 X39.0000 Y-23.2254 Z12.0000
G0 X39.0000 Y-23.4437 Z12.0000
G0 X39.0000 Y-23.4437 Z8.0000
G1 X39.0000 Y-23.4437 Z-0.0000 F24000.00
G1 X-13.4437 Y29.0000 Z-0.0000 F60000.00
G1 X-13.4437 Y29.0000 Z-0.0000 F24000.00
G1 X39.0000 Y-23.4437 Z-0.0000 F60000.00
G1 X39.0000 Y-23.4437 Z-0.2000 F24000.00
G1 X-13.4437 Y29.0000 Z-0.2000 F60000.00
G1 X-13.4437 Y29.0000 Z-0.2000 F24000.00
G1 X39.0000 Y-23.4437 Z-0.2000 F60000.00
G1 X39.0000 Y-23.4437 Z-0.4000 F24000.00
G1 X-13.4437 Y29.0000 Z-0.4000 F60000.00
G1 X-13.4437 Y29.0000 Z-0.4000 F24000.00
G1 X39.0000 Y-23.4437 Z-0.4000 F60000.00
G1 X39.0000 Y-23.4437 Z-0.5000 F24000.00
G1 X-13.4437 Y29.0000 Z-0.5000 F60000.00
G1 X-13.4437 Y29.0000 Z-0.5000 F24000.00
G1 X39.0000 Y-23.4437 Z-0.5000 F60000.00
G0 X39.0000 Y-23.4437 Z12.0000
G0 X39.0000 Y-24.6396 Z12.0000
G0 X39.0000 Y-24.6396 Z7.5000
G1 X39.0000 Y-24.6396 Z-0.5000 F24000.00
G1 X34.6396 Y-29.0000 Z-0.5000 F60000.00
G1 X34.6396 Y-29.0000 Z-0.5000 F24000.00
G1 X39.0000 Y-24.6396 Z-0.5000 F60000.00
G1 X39.0000 Y-24.6396 Z-0.4000 F24000.00
G1 X34.6396 Y-29.0000 Z-0.4000 F60000.00
G1 X34.6396 Y-29.0000 Z-0.4000 F24000.00
G1 X39.0000 Y-24.6396 Z-0.4000 F60000.00
G1 X39.0000 Y-24.6396 Z-0.2000 F24000.00
G1 X34.6396 Y-29.0000 Z-0.2000 F60000.00
G1 X34.6396 Y-29.0000 Z-0.2000 F24000.00
G1 X39.0000 Y-24.6396 Z-0.2000 F60000.00
G1 X39.0000 Y-24.6396 Z-0.0000 F24000.00
G1 X34.6396 Y-29.0000 Z-0.0000 F60000.00
G1 X34.6396 Y-29.0000 Z-0.0000 F24000.00
G1 X39.0000 Y-24.6396 Z-0.0000 F60000.00
G0 X39.0000 Y-24.6396 Z12.0000
G0 X39.0000 Y-24.8579 Z12.0000
G0 X39.0000 Y-24.8579 Z8.0000
G1 X39.0000 Y-24.8579 Z-0.0000 F24000.00
G1 X-14.8579 Y29.0000 Z-0.0000 F60000.00
G1 X-14.8579 Y29.0000 Z-0.0000 F24000.00
G1 X39.0000 Y-24.8579 Z-0.0000 F60000.00
G1 X39.0000 Y-24.8579 Z-0.2000 F24000.00
G1 X-14.8579 Y29.0000 Z-0.2000 F60000.00
G1 X-14.8579 Y29.0000 Z-0.2000 F24000.00
G1 X39.0000 Y-24.8579 Z-0.2000 F60000.00
G1 X39.0000 Y-24.8579 Z-0.4000 F24000.00
G1 X-14.8579 Y29.0000 Z-0.4000 F60000.00
G1 X-14.8579 Y29.0000 Z-0.4000 F24000.00
G1 X39.0000 Y-24.8579 Z-0.4000 F60000.00
G1 X39.0000 Y-24.8579 Z-0.5000 F24000.00
G1 X-14.8579 Y29.0000 Z-0.5000 F60000.00
G1 X-14.8579 Y29.0000 Z-0.5000 F24000.00
G1 X39.0000 Y-24.8579 Z-0.5000 F60000.00
G0 X39.0000 Y-24.8579 Z12.0000
G0 X39.0000 Y-26.0538 Z12.0000
G0 X39.0000 Y-26.0538 Z7.5000
G1 X39.0000 Y-26.0538 Z-0.5000 F24000.00
G1 X36.0538 Y-29.0000 Z-0.5000 F60000.00
G1 X36.0538 Y-29.0000 Z-0.5000 F24000.00
G1 X39.0000 Y-26.0538 Z-0.5000 F60000.00
G1 X39.0000 Y-26.0538 Z-0.4000 F24000.00
G1 X36.0538 Y-29.0000 Z-0.4000 F60000.00
G1 X36.0538 Y-29.0000 Z-0.4000 F24000.00
G1 X39.0000 Y-26.0538 Z-0.4000 F60000.00
G1 X39.0000 Y-26.0538 Z-0.2000 F24000.00
G1 X36.0538 Y-29.0000 Z-0.2000 F60000.00
G1 X36.0538 Y-29.0000 Z-0.2000 F24000.00
G1 X39.0000 Y-26.0538 Z-0.2000 F60000.00
G1 X39.0000 Y-26.0538 Z-0.0000 F24000.00
G1 X36.0538 Y-29.0000 Z-0.0000 F60000.00
G1 X36.0538 Y-29.0000 Z-0.0000 F24000.00
G1 X39.0000 Y-26.0538 Z-0.0000 F60000.00
G0 X39.0000 Y-26.0538 Z12.0000
G0 X39.0000 Y-26.2721 Z12.0000
G0 X39.0000 Y-26.2721 Z8.0000
G1 X39.0000 Y-26.2721 Z-0.0000 F24000.00
G1 X-16.2721 Y29.0000 Z-0.0000 F60000.00
G1 X-16.2721 Y29.0000 Z-0.0000 F24000.00
G1 X39.0000 Y-26.2721 Z-0.0000 F60000.00
G1 X39.0000 Y-26.2721 Z-0.2000 F24000.00
G1 X-16.2721 Y29.0000 Z-0.2000 F60000.00
G1 X-16.2721 Y29.0000 Z-0.2000 F24000.00
G1 X39.0000 Y-26.2721 Z-0.2000 F60000.00
G1 X39.0000 Y-26.2721 Z-0.4000 F24000.00
G1 X-16.2721 Y29.0000 Z-0.4000 F60000.00
G1 X-16.2721 Y29.0000 Z-0.4000 F24000.00
G1 X39.0000 Y-26.2721 Z-0.4000 F60000.00
G1 X39.0000 Y-26.2721 Z-0.5000 F24000.00
G1 X-16.2721 Y29.0000 Z-0.5000 F60000.00
G1 X-16.2721 Y29.0000 Z-0.5000 F24000.00
G1 X39.0000 Y-26.2721 Z-0.5000 F60000.00
G0 X39.0000 Y-26.2721 Z12.0000
G0 X39.0000 Y-27.4680 Z12.0000
G0 X39.0000 Y-27.4680 Z7.5000
G1 X39.0000 Y-27.4680 Z-0.5000 F24000.00
G1 X37.4680 Y-29.0000 Z-0.5000 F60000.00
G1 X37.4680 Y-29.0000 Z-0.5000 F24000.00
G1 X39.0000 Y-27.4680 Z-0.5000 F60000.00
G1 X39.0000 Y-27.4680 Z-0.4000 F24000.00
G1 X37.4680 Y-29.0000 Z-0.4000 F60000.00
G1 X37.4680 Y-29.0000 Z-0.4000 F24000.00
G1 X39.0000 Y-27.4680 Z-0.4000 F60000.00
G1 X39.0000 Y-27.4680 Z-0.2000 F24000.00
G1 X37.4680 Y-29.0000 Z-0.2000 F60000.00
G1 X37.4680 Y-29.0000 Z-0.2000 F24000.00
G1 X39.0000 Y-27.4680 Z-0.2000 F60000.00
G1 X39.0000 Y-27.4680 Z-0.0000 F24000.00
G1 X37.4680 Y-29.0000 Z-0.0000 F60000.00
G1 X37.4680 Y-29.0000 Z-0.0000 F24000.00
G1 X39.0000 Y-27.4680 Z-0.0000 F60000.00
G0 X39.0000 Y-27.4680 Z12.0000
G0 X39.0000 Y-27.6863 Z12.0000
G0 X39.0000 Y-27.6863 Z8.0000
G1 X39.0000 Y-27.6863 Z-0.0000 F24000.00
G1 X-17.6863 Y29.0000 Z-0.0000 F60000.00
G1 X-17.6863 Y29.0000 Z-0.0000 F24000.00
G1 X39.0000 Y-27.6863 Z-0.0000 F60000.00
G1 X39.0000 Y-27.6863 Z-0.2000 F24000.00
G1 X-17.6863 Y29.0000 Z-0.2000 F60000.00
G1 X-17.6863 Y29.0000 Z-0.2000 F24000.00
G1 X39.0000 Y-27.6863 Z-0.2000 F60000.00
G1 X39.0000 Y-27.6863 Z-0.4000 F24000.00
G1 X-17.6863 Y29.0000 Z-0.4000 F60000.00
G1 X-17.6863 Y29.0000 Z-0.4000 F24000.00
G1 X39.0000 Y-27.6863 Z-0.4000 F60000.00
G1 X39.0000 Y-27.6863 Z-0.5000 F24000.00
G1 X-17.6863 Y29.0000 Z-0.5000 F60000.00
G1 X-17.6863 Y29.0000 Z-0.5000 F24000.00
G1 X39.0000 Y-27.6863 Z-0.5000 F60000.00
G0 X39.0000 Y-27.6863 Z12.0000
G0 X39.0000 Y-28.8823 Z12.0000
G0 X39.0000 Y-28.8823 Z7.5000
G1 X39.0000 Y-28.8823 Z-0.5000 F24000.00
G1 X38.8823 Y-29.0000 Z-0.5000 F60000.00
G1 X38.8823 Y-29.0000 Z-0.5000 F24000.00
G1 X39.0000 Y-28.8823 Z-0.5000 F60000.00
G1 X39.0000 Y-28.8823 Z-0.4000 F24000.00
G1 X38.8823 Y-29.0000 Z-0.4000 F60000.00
G1 X38.8823 Y-29.0000 Z-0.4000 F24000.00
G1 X39.0000 Y-28.8823 Z-0.4000 F60000.00
G0 X39.0000 Y-28.8823 Z12.0000
G0 X38.8995 Y-29.0000 Z12.0000
G0 X38.8995 Y-29.0000 Z7.6000
G1 X38.8995 Y-29.0000 Z-0.4000 F24000.00
G1 X-19.1005 Y29.0000 Z-0.4000 F60000.00
G1 X-19.1005 Y29.0000 Z-0.4000 F24000.00
G1 X38.8995 Y-29.0000 Z-0.4000 F60000.00
G1 X38.8995 Y-29.0000 Z-0.5000 F24000.00
G1 X-19.1005 Y29.0000 Z-0.5000 F60000.00
G1 X-19.1005 Y29.0000 Z-0.5000 F24000.00
G1 X38.8995 Y-29.0000 Z-0.5000 F60000.00
G1 X38.8995 Y-29.0000 Z-0.2000 F24000.00
G1 X-19.1005 Y29.0000 Z-0.2000 F60000.00
G1 X-19.1005 Y29.0000 Z-0.2000 F24000.00
G1 X38.8995 Y-29.0000 Z-0.2000 F60000.00
G0 X38.8995 Y-29.0000 Z12.0000
G0 X38.8823 Y-29.0000 Z12.0000
G0 X38.8823 Y-29.0000 Z7.8000
G1 X38.8823 Y-29.0000 Z-0.2000 F24000.00
G1 X39.0000 Y-28.8823 Z-0.2000 F60000.00
G1 X39.0000 Y-28.8823 Z-0.2000 F24000.00
G1 X38.8823 Y-29.0000 Z-0.2000 F60000.00
G1 X38.8823 Y-29.0000 Z-0.0000 F24000.00
G1 X39.0000 Y-28.8823 Z-0.0000 F60000.00
G1 X39.0000 Y-28.8823 Z-0.0000 F24000.00
G1 X38.8823 Y-29.0000 Z-0.0000 F60000.00
G0 X38.8823 Y-29.0000 Z12.0000
G0 X38.8995 Y-29.0000 Z12.0000
G0 X38.8995 Y-29.0000 Z8.0000
G1 X38.8995 Y-29.0000 Z-0.0000 F24000.00
G1 X-19.1005 Y29.0000 Z-0.0000 F60000.00
G1 X-19.1005 Y29.0000 Z-0.0000 F24000.00
G1 X38.8995 Y-29.0000 Z-0.0000 F60000.00
G0 X38.8995 Y-29.0000 Z12.0000
G0 X37.4853 Y-29.0000 Z12.0000
G0 X37.4853 Y-29.0000 Z8.0000
G1 X37.4853 Y-29.0000 Z-0.0000 F24000.00
G1 X-20.5147 Y29.0000 Z-0.0000 F60000.00
G1 X-20.5147 Y29.0000 Z-0.0000 F24000.00
G1 X37.4853 Y-29.0000 Z-0.0000 F60000.00
G1 X37.4853 Y-29.0000 Z-0.2000 F24000.00
G1 X-20.5147 Y29.0000 Z-0.2000 F60000.00
G1 X-20.5147 Y29.0000 Z-0.2000 F24000.00
G1 X37.4853 Y-29.0000 Z-0.2000 F60000.00
G1 X37.4853 Y-29.0000 Z-0.4000 F24000.00
G1 X-20.5147 Y29.0000 Z-0.4000 F60000.00
G1 X-20.5147 Y29.0000 Z-0.4000 F24000.00
G1 X37.4853 Y-29.0000 Z-0.4000 F60000.00
G1 X37.4853 Y-29.0000 Z-0.5000 F24000.00
G1 X-20.5147 Y29.0000 Z-0.5000 F60000.00
G1 X-20.5147 Y29.0000 Z-0.5000 F24000.00
G1 X37.4853 Y-29.0000 Z-0.5000 F60000.00
G0 X37.4853 Y-29.0000 Z12.0000
G0 X36.0711 Y-29.0000 Z12.0000
G0 X36.0711 Y-29.0000 Z7.5000
G1 X36.0711 Y-29.0000 Z-0.5000 F24000.00
G1 X-21.9289 Y29.0000 Z-0.5000 F60000.00
G1 X-21.9289 Y29.0000 Z-0.5000 F24000.00
G1 X36.0711 Y-29.0000 Z-0.5000 F60000.00
G1 X36.0711 Y-29.0000 Z-0.4000 F24000.00
G1 X-21.9289 Y29.0000 Z-0.4000 F60000.00
G1 X-21.9289 Y29.0000 Z-0.4000 F24000.00
G1 X36.0711 Y-29.0000 Z-0.4000 F60000.00
G1 X36.0711 Y-29.0000 Z-0.2000 F24000.00
G1 X-21.9289 Y29.0000 Z-0.2000 F60000.00
G1 X-21.9289 Y29.0000 Z-0.2000 F24000.00
G1 X36.0711 Y-29.0000 Z-0.2000 F60000.00
G1 X36.0711 Y-29.0000 Z-0.0000 F24000.00
G1 X-21.9289 Y29.0000 Z-0.0000 F60000.00
G1 X-21.9289 Y29.0000 Z-0.0000 F24000.00
G1 X36.0711 Y-29.0000 Z-0.0000 F60000.00
G0 X36.0711 Y-29.0000 Z12.0000
G0 X34.6569 Y-29.0000 Z12.0000
G0 X34.6569 Y-29.0000 Z8.0000
G1 X34.6569 Y-29.0000 Z-0.0000 F24000.00
G1 X-23.3431 Y29.0000 Z-0.0000 F60000.00
G1 X-23.3431 Y29.0000 Z-0.0000 F24000.00
G1 X34.6569 Y-29.0000 Z-0.0000 F60000.00
G1 X34.6569 Y-29.0000 Z-0.2000 F24000.00
G1 X-23.3431 Y29.0000 Z-0.2000 F60000.00
G1 X-23.3431 Y29.0000 Z-0.2000 F24000.00
G1 X34.6569 Y-29.0000 Z-0.2000 F60000.00
G1 X34.6569 Y-29.0000 Z-0.4000 F24000.00
G1 X-23.3431 Y29.0000 Z-0.4000 F60000.00
G1 X-23.3431 Y29.0000 Z-0.4000 F24000.00
G1 X34.6569 Y-29.0000 Z-0.4000 F60000.00
G1 X34.6569 Y-29.0000 Z-0.5000 F24000.00
G1 X-23.3431 Y29.0000 Z-0.5000 F60000.00
G1 X-23.3431 Y29.0000 Z-0.5000 F24000.00
G1 X34.6569 Y-29.0000 Z-0.5000 F60000.00
G0 X34.6569 Y-29.0000 Z12.0000
G0 X33.2426 Y-29.0000 Z12.0000
G0 X33.2426 Y-29.0000 Z7.5000
G1 X33.2426 Y-29.0000 Z-0.5000 F24000.00
G1 X-24.7574 Y29.0000 Z-0.5000 F60000.00
G1 X-24.7574 Y29.0000 Z-0.5000 F24000.00
G1 X33.2426 Y-29.0000 Z-0.5000 F60000.00
G1 X33.2426 Y-29.0000 Z-0.4000 F24000.00
G1 X-24.7574 Y29.0000 Z-0.4000 F60000.00
G1 X-24.7574 Y29.0000 Z-0.4000 F24000.00
G1 X33.2426 Y-29.0000 Z-0.4000 F60000.00
G1 X33.2426 Y-29.0000 Z-0.2000 F24000.00
G1 X-24.7574 Y29.0000 Z-0.2000 F60000.00
G1 X-24.7574 Y29.0000 Z-0.2000 F24000.00
G1 X33.2426 Y-29.0000 Z-0.2000 F60000.00
G1 X33.2426 Y-29.0000 Z-0.0000 F24000.00
G1 X-24.7574 Y29.0000 Z-0.0000 F60000.00
G1 X-24.7574 Y29.0000 Z-0.0000 F24000.00
G1 X33.2426 Y-29.0000 Z-0.0000 F60000.00
G0 X33.2426 Y-29.0000 Z12.0000
G0 X31.8284 Y-29.0000 Z12.0000
G0 X31.8284 Y-29.0000 Z8.0000
G1 X31.8284 Y-29.0000 Z-0.0000 F24000.00
G1 X-26.1716 Y29.0000 Z-0.0000 F60000.00
G1 X-26.1716 Y29.0000 Z-0.0000 F24000.00
G1 X31.8284 Y-29.0000 Z-0.0000 F60000.00
G1 X31.8284 Y-29.0000 Z-0.2000 F24000.00
G1 X-26.1716 Y29.0000 Z-0.2000 F60000.00
G1 X-26.1716 Y29.0000 Z-0.2000 F24000.00
G1 X31.8284 Y-29.0000 Z-0.2000 F60000.00
G1 X31.8284 Y-29.0000 Z-0.4000 F24000.00
G1 X-26.1716 Y29.0000 Z-0.4000 F60000.00
G1 X-26.1716 Y29.0000 Z-0.4000 F24000.00
G1 X31.8284 Y-29.0000 Z-0.4000 F60000.00
G1 X31.8284 Y-29.0000 Z-0.5000 F24000.00
G1 X-26.1716 Y29.0000 Z-0.5000 F60000.00
G1 X-26.1716 Y29.0000 Z-0.5000 F24000.00
G1 X31.8284 Y-29.0000 Z-0.5000 F60000.00
G0 X31.8284 Y-29.0000 Z12.0000
G0 X30.4142 Y-29.0000 Z12.0000
G0 X30.4142 Y-29.0000 Z7.5000
G1 X30.4142 Y-29.0000 Z-0.5000 F24000.00
G1 X-27.5858 Y29.0000 Z-0.5000 F60000.00
G1 X-27.5858 Y29.0000 Z-0.5000 F24000.00
G1 X30.4142 Y-29.0000 Z-0.5000 F60000.00
G1 X30.4142 Y-29.0000 Z-0.4000 F24000.00
G1 X-27.5858 Y29.0000 Z-0.4000 F60000.00
G1 X-27.5858 Y29.0000 Z-0.4000 F24000.00
G1 X30.4142 Y-29.0000 Z-0.4000 F60000.00
G1 X30.4142 Y-29.0000 Z-0.2000 F24000.00
G1 X-27.5858 Y29.0000 Z-0.2000 F60000.00
G1 X-27.5858 Y29.0000 Z-0.2000 F24000.00
G1 X30.4142 Y-29.0000 Z-0.2000 F60000.00
G1 X30.4142 Y-29.0000 Z-0.0000 F24000.00
G1 X-27.5858 Y29.0000 Z-0.0000 F60000.00
G1 X-27.5858 Y29.0000 Z-0.0000 F24000.00
G1 X30.4142 Y-29.0000 Z-0.0000 F60000.00
G0 X30.4142 Y-29.0000 Z12.0000
G0 X29.0000 Y-29.0000 Z12.0000
G0 X29.0000 Y-29.0000 Z8.0000
G1 X29.0000 Y-29.0000 Z-0.0000 F24000.00
G1 X-29.0000 Y29.0000 Z-0.0000 F60000.00
G1 X-29.0000 Y29.0000 Z-0.0000 F24000.00
G1 X29.0000 Y-29.0000 Z-0.0000 F60000.00
G1 X29.0000 Y-29.0000 Z-0.2000 F24000.00
G1 X-29.0000 Y29.0000 Z-0.2000 F60000.00
G1 X-29.0000 Y29.0000 Z-0.2000 F24000.00
G1 X29.0000 Y-29.0000 Z-0.2000 F60000.00
G1 X29.0000 Y-29.0000 Z-0.4000 F24000.00
G1 X-29.0000 Y29.0000 Z-0.4000 F60000.00
G1 X-29.0000 Y29.0000 Z-0.4000 F24000.00
G1 X29.0000 Y-29.0000 Z-0.4000 F60000.00
G1 X29.0000 Y-29.0000 Z-0.5000 F24000.00
G1 X-29.0000 Y29.0000 Z-0.5000 F60000.00
G1 X-29.0000 Y29.0000 Z-0.5000 F24000.00
G1 X29.0000 Y-29.0000 Z-0.5000 F60000.00
G0 X29.0000 Y-29.0000 Z12.0000
G0 X27.5858 Y-29.0000 Z12.0000
G0 X27.5858 Y-29.0000 Z7.5000
G1 X27.5858 Y-29.0000 Z-0.5000 F24000.00
G1 X-30.4142 Y29.0000 Z-0.5000 F60000.00
G1 X-30.4142 Y29.0000 Z-0.5000 F24000.00
G1 X27.5858 Y-29.0000 Z-0.5000 F60000.00
G1 X27.5858 Y-29.0000 Z-0.4000 F24000.00
G1 X-30.4142 Y29.0000 Z-0.4000 F60000.00
G1 X-30.4142 Y29.0000 Z-0.4000 F24000.00
G1 X27.5858 Y-29.0000 Z-0.4000 F60000.00
G1 X27.5858 Y-29.0000 Z-0.2000 F24000.00
G1 X-30.4142 Y29.0000 Z-0.2000 F60000.00
G1 X-30.4142 Y29.0000 Z-0.2000 F24000.00
G1 X27.5858 Y-29.0000 Z-0.2000 F60000.00
G1 X27.5858 Y-29.0000 Z-0.0000 F24000.00
G1 X-30.4142 Y29.0000 Z-0.0000 F60000.00
G1 X-30.4142 Y29.0000 Z-0.0000 F24000.00
G1 X27.5858 Y-29.0000 Z-0.0000 F60000.00
G0 X27.5858 Y-29.0000 Z12.0000
G0 X26.1716 Y-29.0000 Z12.0000
G0 X26.1716 Y-29.0000 Z8.0000
G1 X26.1716 Y-29.0000 Z-0.0000 F24000.00
G1 X-31.8284 Y29.0000 Z-0.0000 F60000.00
G1 X-31.8284 Y29.0000 Z-0.0000 F24000.00
G1 X26.1716 Y-29.0000 Z-0.0000 F60000.00
G1 X26.1716 Y-29.0000 Z-0.2000 F24000.00
G1 X-31.8284 Y29.0000 Z-0.2000 F60000.00
G1 X-31.8284 Y29.0000 Z-0.2000 F24000.00
G1 X26.1716 Y-29.0000 Z-0.2000 F60000.00
G1 X26.1716 Y-29.0000 Z-0.4000 F24000.00
G1 X-31.8284 Y29.0000 Z-0.4000 F60000.00
G1 X-31.8284 Y29.0000 Z-0.4000 F24000.00
G1 X26.1716 Y-29.0000 Z-0.4000 F60000.00
G1 X26.1716 Y-29.0000 Z-0.5000 F24000.00
G1 X-31.8284 Y29.0000 Z-0.5000 F60000.00
G1 X-31.8284 Y29.0000 Z-0.5000 F24000.00
G1 X26.1716 Y-29.0000 Z-0.5000 F60000.00
G0 X26.1716 Y-29.0000 Z12.0000
G0 X24.7574 Y-29.0000 Z12.0000
G0 X24.7574 Y-29.0000 Z7.5000
G1 X24.7574 Y-29.0000 Z-0.5000 F24000.00
G1 X-33.2426 Y29.0000 Z-0.5000 F60000.00
G1 X-33.2426 Y29.0000 Z-0.5000 F24000.00
G1 X24.7574 Y-29.0000 Z-0.5000 F60000.00
G1 X24.7574 Y-29.0000 Z-0.4000 F24000.00
G1 X-33.2426 Y29.0000 Z-0.4000 F60000.00
G1 X-33.2426 Y29.0000 Z-0.4000 F24000.00
G1 X24.7574 Y-29.0000 Z-0.4000 F60000.00
G1 X24.7574 Y-29.0000 Z-0.2000 F24000.00
G1 X-33.2426 Y29.0000 Z-0.2000 F60000.00
G1 X-33.2426 Y29.0000 Z-0.2000 F24000.00
G1 X24.7574 Y-29.0000 Z-0.2000 F60000.00
G1 X24.7574 Y-29.0000 Z-0.0000 F24000.00
G1 X-33.2426 Y29.0000 Z-0.0000 F60000.00
G1 X-33.2426 Y29.0000 Z-0.0000 F24000.00
G1 X24.7574 Y-29.0000 Z-0.0000 F60000.00
G0 X24.7574 Y-29.0000 Z12.0000
G0 X23.3431 Y-29.0000 Z12.0000
G0 X23.3431 Y-29.0000 Z8.0000
G1 X23.3431 Y-29.0000 Z-0.0000 F24000.00
G1 X-34.6569 Y29.0000 Z-0.0000 F60000.00
G1 X-34.6569 Y29.0000 Z-0.0000 F24000.00
G1 X23.3431 Y-29.0000 Z-0.0000 F60000.00
G1 X23.3431 Y-29.0000 Z-0.2000 F24000.00
G1 X-34.6569 Y29.0000 Z-0.2000 F60000.00
G1 X-34.6569 Y29.0000 Z-0.2000 F24000.00
G1 X23.3431 Y-29.0000 Z-0.2000 F60000.00
G1 X23.3431 Y-29.0000 Z-0.4000 F24000.00
G1 X-34.6569 Y29.0000 Z-0.4000 F60000.00
G1 X-34.6569 Y29.0000 Z-0.4000 F24000.00
G1 X23.3431 Y-29.0000 Z-0.4000 F60000.00
G1 X23.3431 Y-29.0000 Z-0.5000 F24000.00
G1 X-34.6569 Y29.0000 Z-0.5000 F60000.00
G1 X-34.6569 Y29.0000 Z-0.5000 F24000.00
G1 X23.3431 Y-29.0000 Z-0.5000 F60000.00
G0 X23.3431 Y-29.0000 Z12.0000
G0 X21.9289 Y-29.0000 Z12.0000
G0 X21.9289 Y-29.0000 Z7.5000
G1 X21.9289 Y-29.0000 Z-0.5000 F24000.00
G1 X-36.0711 Y29.0000 Z-0.5000 F60000.00
G1 X-36.0711 Y29.0000 Z-0.5000 F24000.00
G1 X21.9289 Y-29.0000 Z-0.5000 F60000.00
G1 X21.9289 Y-29.0000 Z-0.4000 F24000.00
G1 X-36.0711 Y29.0000 Z-0.4000 F60000.00
G1 X-36.0711 Y29.0000 Z-0.4000 F24000.00
G1 X21.9289 Y-29.0000 Z-0.4000 F60000.00
G1 X21.9289 Y-29.0000 Z-0.2000 F24000.00
G1 X-36.0711 Y29.0000 Z-0.2000 F60000.00
G1 X-36.0711 Y29.0000 Z-0.2000 F24000.00
G1 X21.9289 Y-29.0000 Z-0.2000 F60000.00
G1 X21.9289 Y-29.0000 Z-0.0000 F24000.00
G1 X-36.0711 Y29.0000 Z-0.0000 F60000.00
G1 X-36.0711 Y29.0000 Z-0.0000 F24000.00
G1 X21.9289 Y-29.0000 Z-0.0000 F60000.00
G0 X21.9289 Y-29.0000 Z12.0000
G0 X20.5147 Y-29.0000 Z12.0000
G0 X20.5147 Y-29.0000 Z8.0000
G1 X20.5147 Y-29.0000 Z-0.0000 F24000.00
G1 X-37.4853 Y29.0000 Z-0.0000 F60000.00
G1 X-37.4853 Y29.0000 Z-0.0000 F24000.00
G1 X20.5147 Y-29.0000 Z-0.0000 F60000.00
G1 X20.5147 Y-29.0000 Z-0.2000 F24000.00
G1 X-37.4853 Y29.0000 Z-0.2000 F60000.00
G1 X-37.4853 Y29.0000 Z-0.2000 F24000.00
G1 X20.5147 Y-29.0000 Z-0.2000 F60000.00
G1 X20.5147 Y-29.0000 Z-0.4000 F24000.00
G1 X-37.4853 Y29.0000 Z-0.4000 F60000.00
G1 X-37.4853 Y29.0000 Z-0.4000 F24000.00
G1 X20.5147 Y-29.0000 Z-0.4000 F60000.00
G1 X20.5147 Y-29.0000 Z-0.5000 F24000.00
G1 X-37.4853 Y29.0000 Z-0.5000 F60000.00
G1 X-37.4853 Y29.0000 Z-0.5000 F24000.00
G1 X20.5147 Y-29.0000 Z-0.5000 F60000.00
G0 X20.5147 Y-29.0000 Z12.0000
G0 X19.1005 Y-29.0000 Z12.0000
G0 X19.1005 Y-29.0000 Z7.5000
G1 X19.1005 Y-29.0000 Z-0.5000 F24000.00
G1 X-38.8995 Y29.0000 Z-0.5000 F60000.00
G1 X-38.8995 Y29.0000 Z-0.5000 F24000.00
G1 X19.1005 Y-29.0000 Z-0.5000 F60000.00
G1 X19.1005 Y-29.0000 Z-0.4000 F24000.00
G1 X-38.8995 Y29.0000 Z-0.4000 F60000.00
G1 X-38.8995 Y29.0000 Z-0.4000 F24000.00
G1 X19.1005 Y-29.0000 Z-0.4000 F60000.00
G1 X19.1005 Y-29.0000 Z-0.2000 F24000.00
G1 X-38.8995 Y29.0000 Z-0.2000 F60000.00
G1 X-38.8995 Y29.0000 Z-0.2000 F24000.00
G1 X19.1005 Y-29.0000 Z-0.2000 F60000.00
G1 X19.1005 Y-29.0000 Z-0.0000 F24000.00
G1 X-38.8995 Y29.0000 Z-0.0000 F60000.00
G1 X-38.8995 Y29.0000 Z-0.0000 F24000.00
G1 X19.1005 Y-29.0000 Z-0.0000 F60000.00
G0 X19.1005 Y-29.0000 Z12.0000
G0 X17.6863 Y-29.0000 Z12.0000
G0 X17.6863 Y-29.0000 Z8.0000
G1 X17.6863 Y-29.0000 Z-0.0000 F24000.00
G1 X-39.0000 Y27.6863 Z-0.0000 F60000.00
G1 X-39.0000 Y27.6863 Z-0.0000 F24000.00
G1 X17.6863 Y-29.0000 Z-0.0000 F60000.00
G1 X17.6863 Y-29.0000 Z-0.2000 F24000.00
G1 X-39.0000 Y27.6863 Z-0.2000 F60000.00
G1 X-39.0000 Y27.6863 Z-0.2000 F24000.00
G1 X17.6863 Y-29.0000 Z-0.2000 F60000.00
G1 X17.6863 Y-29.0000 Z-0.4000 F24000.00
G1 X-39.0000 Y27.6863 Z-0.4000 F60000.00
G1 X-39.0000 Y27.6863 Z-0.4000 F24000.00
G1 X17.6863 Y-29.0000 Z-0.4000 F60000.00
G1 X17.6863 Y-29.0000 Z-0.5000 F24000.00
G1 X-39.0000 Y27.6863 Z-0.5000 F60000.00
G1 X-39.0000 Y27.6863 Z-0.5000 F24000.00
G1 X17.6863 Y-29.0000 Z-0.5000 F60000.00
G0 X17.6863 Y-29.0000 Z12.0000
G0 X16.2721 Y-29.0000 Z12.0000
G0 X16.2721 Y-29.0000 Z7.5000
G1 X16.2721 Y-29.0000 Z-0.5000 F24000.00
G1 X-39.0000 Y26.2721 Z-0.5000 F60000.00
G1 X-39.0000 Y26.2721 Z-0.5000 F24000.00
G1 X16.2721 Y-29.0000 Z-0.5000 F60000.00
G1 X16.2721 Y-29.0000 Z-0.4000 F24000.00
G1 X-39.0000 Y26.2721 Z-0.4000 F60000.00
G1 X-39.0000 Y26.2721 Z-0.4000 F24000.00
G1 X16.2721 Y-29.0000 Z-0.4000 F60000.00
G1 X16.2721 Y-29.0000 Z-0.2000 F24000.00
G1 X-39.0000 Y26.2721 Z-0.2000 F60000.00
G1 X-39.0000 Y26.2721 Z-0.2000 F24000.00
G1 X16.2721 Y-29.0000 Z-0.2000 F60000.00
G1 X16.2721 Y-29.0000 Z-0.0000 F24000.00
G1 X-39.0000 Y26.2721 Z-0.0000 F60000.00
G1 X-39.0000 Y26.2721 Z-0.0000 F24000.00
G1 X16.2721 Y-29.0000 Z-0.0000 F60000.00
G0 X16.2721 Y-29.0000 Z12.0000
G0 X14.8579 Y-29.0000 Z12.0000
G0 X14.8579 Y-29.0000 Z8.0000
G1 X14.8579 Y-29.0000 Z-0.0000 F24000.00
G1 X-39.0000 Y24.8579 Z-0.0000 F60000.00
G1 X-39.0000 Y24.8579 Z-0.0000 F24000.00
G1 X14.8579 Y-29.0000 Z-0.0000 F60000.00
G1 X14.8579 Y-29.0000 Z-0.2000 F24000.00
G1 X-39.0000 Y24.8579 Z-0.2000 F60000.00
G1 X-39.0000 Y24.8579 Z-0.2000 F24000.00
G1 X14.8579 Y-29.0000 Z-0.2000 F60000.00
G1 X14.8579 Y-29.0000 Z-0.4000 F24000.00
G1 X-39.0000 Y24.8579 Z-0.4000 F60000.00
G1 X-39.0000 Y24.8579 Z-0.4000 F24000.00
G1 X14.8579 Y-29.0000 Z-0.4000 F60000.00
G1 X14.8579 Y-29.0000 Z-0.5000 F24000.00
G1 X-39.0000 Y24.8579 Z-0.5000 F60000.00
G1 X-39.0000 Y24.8579 Z-0.5000 F24000.00
G1 X14.8579 Y-29.0000 Z-0.5000 F60000.00
G0 X14.8579 Y-29.0000 Z12.0000
G0 X13.4437 Y-29.0000 Z12.0000
G0 X13.4437 Y-29.0000 Z7.5000
G1 X13.4437 Y-29.0000 Z-0.5000 F24000.00
G1 X-39.0000 Y23.4437 Z-0.5000 F60000.00
G1 X-39.0000 Y23.4437 Z-0.5000 F24000.00
G1 X13.4437 Y-29.0000 Z-0.5000 F60000.00
G1 X13.4437 Y-29.0000 Z-0.4000 F24000.00
G1 X-39.0000 Y23.4437 Z-0.4000 F60000.00
G1 X-39.0000 Y23.4437 Z-0.4000 F24000.00
G1 X13.4437 Y-29.0000 Z-0.4000 F60000.00
G1 X13.4437 Y-29.0000 Z-0.2000 F24000.00
G1 X-39.0000 Y23.4437 Z-0.2000 F60000.00
G1 X-39.0000 Y23.4437 Z-0.2000 F24000.00
G1 X13.4437 Y-29.0000 Z-0.2000 F60000.00
G1 X13.4437 Y-29.0000 Z-0.0000 F24000.00
G1 X-39.0000 Y23.4437 Z-0.0000 F60000.00
G1 X-39.0000 Y23.4437 Z-0.0000 F24000.00
G1 X13.4437 Y-29.0000 Z-0.0000 F60000.00
G0 X13.4437 Y-29.0000 Z12.0000
G0 X12.0294 Y-29.0000 Z12.0000
G0 X12.0294 Y-29.0000 Z8.0000
G1 X12.0294 Y-29.0000 Z-0.0000 F24000.00
G1 X-39.0000 Y22.0294 Z-0.0000 F60000.00
G1 X-39.0000 Y22.0294 Z-0.0000 F24000.00
G1 X12.0294 Y-29.0000 Z-0.0000 F60000.00
G1 X12.0294 Y-29.0000 Z-0.2000 F24000.00
G1 X-39.0000 Y22.0294 Z-0.2000 F60000.00
G1 X-39.0000 Y22.0294 Z-0.2000 F24000.00
G1 X12.0294 Y-29.0000 Z-0.2000 F60000.00
G1 X12.0294 Y-29.0000 Z-0.4000 F24000.00
G1 X-39.0000 Y22.0294 Z-0.4000 F60000.00
G1 X-39.0000 Y22.0294 Z-0.4000 F24000.00
G1 X12.0294 Y-29.0000 Z-0.4000 F60000.00
G1 X12.0294 Y-29.0000 Z-0.5000 F24000.00
G1 X-39.0000 Y22.0294 Z-0.5000 F60000.00
G1 X-39.0000 Y22.0294 Z-0.5000 F24000.00
G1 X12.0294 Y-29.0000 Z-0.5000 F60000.00
G0 X12.0294 Y-29.0000 Z12.0000
G0 X10.6152 Y-29.0000 Z12.0000
G0 X10.6152 Y-29.0000 Z7.5000
G1 X10.6152 Y-29.0000 Z-0.5000 F24000.00
G1 X-39.0000 Y20.6152 Z-0.5000 F60000.00
G1 X-39.0000 Y20.6152 Z-0.5000 F24000.00
G1 X10.6152 Y-29.0000 Z-0.5000 F60000.00
G1 X10.6152 Y-29.0000 Z-0.4000 F24000.00
G1 X-39.0000 Y20.6152 Z-0.4000 F60000.00
G1 X-39.0000 Y20.6152 Z-0.4000 F24000.00
G1 X10.6152 Y-29.0000 Z-0.4000 F60000.00
G1 X10.6152 Y-29.0000 Z-0.2000 F24000.00
G1 X-39.0000 Y20.6152 Z-0.2000 F60000.00
G1 X-39.0000 Y20.6152 Z-0.2000 F24000.00
G1 X10.6152 Y-29.0000 Z-0.2000 F60000.00
G1 X10.6152 Y-29.0000 Z-0.0000 F24000.00
G1 X-39.0000 Y20.6152 Z-0.0000 F60000.00
G1 X-39.0000 Y20.6152 Z-0.0000 F24000.00
G1 X10.6152 Y-29.0000 Z-0.0000 F60000.00
G0 X10.6152 Y-29.0000 Z12.0000
G0 X9.2010 Y-29.0000 Z12.0000
G0 X9.2010 Y-29.0000 Z8.0000
G1 X9.2010 Y-29.0000 Z-0.0000 F24000.00
G1 X-39.0000 Y19.2010 Z-0.0000 F60000.00
G1 X-39.0000 Y19.2010 Z-0.0000 F24000.00
G1 X9.2010 Y-29.0000 Z-0.0000 F60000.00
G1 X9.2010 Y-29.0000 Z-0.2000 F24000.00
G1 X-39.0000 Y19.2010 Z-0.2000 F60000.00
G1 X-39.0000 Y19.2010 Z-0.2000 F24000.00
G1 X9.2010 Y-29.0000 Z-0.2000 F60000.00
G1 X9.2010 Y-29.0000 Z-0.4000 F24000.00
G1 X-39.0000 Y19.2010 Z-0.4000 F60000.00
G1 X-39.0000 Y19.2010 Z-0.4000 F24000.00
G1 X9.2010 Y-29.0000 Z-0.4000 F60000.00
G1 X9.2010 Y-29.0000 Z-0.5000 F24000.00
G1 X-39.0000 Y19.2010 Z-0.5000 F60000.00
G1 X-39.0000 Y19.2010 Z-0.5000 F24000.00
G1 X9.2010 Y-29.0000 Z-0.5000 F60000.00
G0 X9.2010 Y-29.0000 Z12.0000
G0 X7.7868 Y-29.0000 Z12.0000
G0 X7.7868 Y-29.0000 Z7.5000
G1 X7.7868 Y-29.0000 Z-0.5000 F24000.00
G1 X-39.0000 Y17.7868 Z-0.5000 F60000.00
G1 X-39.0000 Y17.7868 Z-0.5000 F24000.00
G1 X7.7868 Y-29.0000 Z-0.5000 F60000.00
G1 X7.7868 Y-29.0000 Z-0.4000 F24000.00
G1 X-39.0000 Y17.7868 Z-0.4000 F60000.00
G1 X-39.0000 Y17.7868 Z-0.4000 F24000.00
G1 X7.7868 Y-29.0000 Z-0.4000 F60000.00
G1 X7.7868 Y-29.0000 Z-0.2000 F24000.00
G1 X-39.0000 Y17.7868 Z-0.2000 F60000.00
G1 X-39.0000 Y17.7868 Z-0.2000 F24000.00
G1 X7.7868 Y-29.0000 Z-0.2000 F60000.00
G1 X7.7868 Y-29.0000 Z-0.0000 F24000.00
G1 X-39.0000 Y17.7868 Z-0.0000 F60000.00
G1 X-39.0000 Y17.7868 Z-0.0000 F24000.00
G1 X7.7868 Y-29.0000 Z-0.0000 F60000.00
G0 X7.7868 Y-29.0000 Z12.0000
G0 X6.3726 Y-29.0000 Z12.0000
G0 X6.3726 Y-29.0000 Z8.0000
G1 X6.3726 Y-29.0000 Z-0.0000 F24000.00
G1 X-39.0000 Y16.3726 Z-0.0000 F60000.00
G1 X-39.0000 Y16.3726 Z-0.0000 F24000.00
G1 X6.3726 Y-29.0000 Z-0.0000 F60000.00
G1 X6.3726 Y-29.0000 Z-0.2000 F24000.00
G1 X-39.0000 Y16.3726 Z-0.2000 F60000.00
G1 X-39.0000 Y16.3726 Z-0.2000 F24000.00
G1 X6.3726 Y-29.0000 Z-0.2000 F60000.00
G1 X6.3726 Y-29.0000 Z-0.4000 F24000.00
G1 X-39.0000 Y16.3726 Z-0.4000 F60000.00
G1 X-39.0000 Y16.3726 Z-0.4000 F24000.00
G1 X6.3726 Y-29.0000 Z-0.4000 F60000.00
G1 X6.3726 Y-29.0000 Z-0.5000 F24000.00
G1 X-39.0000 Y16.3726 Z-0.5000 F60000.00
G1 X-39.0000 Y16.3726 Z-0.5000 F24000.00
G1 X6.3726 Y-29.0000 Z-0.5000 F60000.00
G0 X6.3726 Y-29.0000 Z12.0000
G0 X4.9584 Y-29.0000 Z12.0000
G0 X4.9584 Y-29.0000 Z7.5000
G1 X4.9584 Y-29.0000 Z-0.5000 F24000.00
G1 X-39.0000 Y14.9584 Z-0.5000 F60000.00
G1 X-39.0000 Y14.9584 Z-0.5000 F24000.00
G1 X4.9584 Y-29.0000 Z-0.5000 F60000.00
G1 X4.9584 Y-29.0000 Z-0.4000 F24000.00
G1 X-39.0000 Y14.9584 Z-0.4000 F60000.00
G1 X-39.0000 Y14.9584 Z-0.4000 F24000.00
G1 X4.9584 Y-29.0000 Z-0.4000 F60000.00
G1 X4.9584 Y-29.0000 Z-0.2000 F24000.00
G1 X-39.0000 Y14.9584 Z-0.2000 F60000.00
G1 X-39.0000 Y14.9584 Z-0.2000 F24000.00
G1 X4.9584 Y-29.0000 Z-0.2000 F60000.00
G1 X4.9584 Y-29.0000 Z-0.0000 F24000.00
G1 X-39.0000 Y14.9584 Z-0.0000 F60000.00
G1 X-39.0000 Y14.9584 Z-0.0000 F24000.00
G1 X4.9584 Y-29.0000 Z-0.0000 F60000.00
G0 X4.9584 Y-29.0000 Z12.0000
G0 X3.5442 Y-29.0000 Z12.0000
G0 X3.5442 Y-29.0000 Z8.0000
G1 X3.5442 Y-29.0000 Z-0.0000 F24000.00
G1 X-39.0000 Y13.5442 Z-0.0000 F60000.00
G1 X-39.0000 Y13.5442 Z-0.0000 F24000.00
G1 X3.5442 Y-29.0000 Z-0.0000 F60000.00
G1 X3.5442 Y-29.0000 Z-0.2000 F24000.00
G1 X-39.0000 Y13.5442 Z-0.2000 F60000.00
G1 X-39.0000 Y13.5442 Z-0.2000 F24000.00
G1 X3.5442 Y-29.0000 Z-0.2000 F60000.00
G1 X3.5442 Y-29.0000 Z-0.4000 F24000.00
G1 X-39.0000 Y13.5442 Z-0.4000 F60000.00
G1 X-39.0000 Y13.5442 Z-0.4000 F24000.00
G1 X3.5442 Y-29.0000 Z-0.4000 F60000.00
G1 X3.5442 Y-29.0000 Z-0.5000 F24000.00
G1 X-39.0000 Y13.5442 Z-0.5000 F60000.00
G1 X-39.0000 Y13.5442 Z-0.5000 F24000.00
G1 X3.5442 Y-29.0000 Z-0.5000 F60000.00
G0 X3.5442 Y-29.0000 Z12.0000
G0 X2.1299 Y-29.0000 Z12.0000
G0 X2.1299 Y-29.0000 Z7.5000
G1 X2.1299 Y-29.0000 Z-0.5000 F24000.00
G1 X-39.0000 Y12.1299 Z-0.5000 F60000.00
G1 X-39.0000 Y12.1299 Z-0.5000 F24000.00
G1 X2.1299 Y-29.0000 Z-0.5000 F60000.00
G1 X2.1299 Y-29.0000 Z-0.4000 F24000.00
G1 X-39.0000 Y12.1299 Z-0.4000 F60000.00
G1 X-39.0000 Y12.1299 Z-0.4000 F24000.00
G1 X2.1299 Y-29.0000 Z-0.4000 F60000.00
G1 X2.1299 Y-29.0000 Z-0.2000 F24000.00
G1 X-39.0000 Y12.1299 Z-0.2000 F60000.00
G1 X-39.0000 Y12.1299 Z-0.2000 F24000.00
G1 X2.1299 Y-29.0000 Z-0.2000 F60000.00
G1 X2.1299 Y-29.0000 Z-0.0000 F24000.00
G1 X-39.0000 Y12.1299 Z-0.0000 F60000.00
G1 X-39.0000 Y12.1299 Z-0.0000 F24000.00
G1 X2.1299 Y-29.0000 Z-0.0000 F60000.00
G0 X2.1299 Y-29.0000 Z12.0000
G0 X0.7157 Y-29.0000 Z12.0000
G0 X0.7157 Y-29.0000 Z8.0000
G1 X0.7157 Y-29.0000 Z-0.0000 F24000.00
G1 X-39.0000 Y10.7157 Z-0.0000 F60000.00
G1 X-39.0000 Y10.7157 Z-0.0000 F24000.00
G1 X0.7157 Y-29.0000 Z-0.0000 F60000.00
G1 X0.7157 Y-29.0000 Z-0.2000 F24000.00
G1 X-39.0000 Y10.7157 Z-0.2000 F60000.00
G1 X-39.0000 Y10.7157 Z-0.2000 F24000.00
G1 X0.7157 Y-29.0000 Z-0.2000 F60000.00
G1 X0.7157 Y-29.0000 Z-0.4000 F24000.00
G1 X-39.0000 Y10.7157 Z-0.4000 F60000.00
G1 X-39.0000 Y10.7157 Z-0.4000 F24000.00
G1 X0.7157 Y-29.0000 Z-0.4000 F60000.00
G1 X0.7157 Y-29.0000 Z-0.5000 F24000.00
G1 X-39.0000 Y10.7157 Z-0.5000 F60000.00
G1 X-39.0000 Y10.7157 Z-0.5000 F24000.00
G1 X0.7157 Y-29.0000 Z-0.5000 F60000.00
G0 X0.7157 Y-29.0000 Z12.0000
G0 X-0.6985 Y-29.0000 Z12.0000
G0 X-0.6985 Y-29.0000 Z7.5000
G1 X-0.6985 Y-29.0000 Z-0.5000 F24000.00
G1 X-39.0000 Y9.3015 Z-0.5000 F60000.00
G1 X-39.0000 Y9.3015 Z-0.5000 F24000.00
G1 X-0.6985 Y-29.0000 Z-0.5000 F60000.00
G1 X-0.6985 Y-29.0000 Z-0.4000 F24000.00
G1 X-39.0000 Y9.3015 Z-0.4000 F60000.00
G1 X-39.0000 Y9.3015 Z-0.4000 F24000.00
G1 X-0.6985 Y-29.0000 Z-0.4000 F60000.00
G1 X-0.6985 Y-29.0000 Z-0.2000 F24000.00
G1 X-39.0000 Y9.3015 Z-0.2000 F60000.00
G1 X-39.0000 Y9.3015 Z-0.2000 F24000.00
G1 X-0.6985 Y-29.0000 Z-0.2000 F60000.00
G1 X-0.6985 Y-29.0000 Z-0.0000 F24000.00
G1 X-39.0000 Y9.3015 Z-0.0000 F60000.00
G1 X-39.0000 Y9.3015 Z-0.0000 F24000.00
G1 X-0.6985 Y-29.0000 Z-0.0000 F60000.00
G0 X-0.6985 Y-29.0000 Z12.0000
G0 X-2.1127 Y-29.0000 Z12.0000
G0 X-2.1127 Y-29.0000 Z8.0000
G1 X-2.1127 Y-29.0000 Z-0.0000 F24000.00
G1 X-39.0000 Y7.8873 Z-0.0000 F60000.00
G1 X-39.0000 Y7.8873 Z-0.0000 F24000.00
G1 X-2.1127 Y-29.0000 Z-0.0000 F60000.00
G1 X-2.1127 Y-29.0000 Z-0.2000 F24000.00
G1 X-39.0000 Y7.8873 Z-0.2000 F60000.00
G1 X-39.0000 Y7.8873 Z-0.2000 F24000.00
G1 X-2.1127 Y-29.0000 Z-0.2000 F60000.00
G1 X-2.1127 Y-29.0000 Z-0.4000 F24000.00
G1 X-39.0000 Y7.8873 Z-0.4000 F60000.00
G1 X-39.0000 Y7.8873 Z-0.4000 F24000.00
G1 X-2.1127 Y-29.0000 Z-0.4000 F60000.00
G1 X-2.1127 Y-29.0000 Z-0.5000 F24000.00
G1 X-39.0000 Y7.8873 Z-0.5000 F60000.00
G1 X-39.0000 Y7.8873 Z-0.5000 F24000.00
G1 X-2.1127 Y-29.0000 Z-0.5000 F60000.00
G0 X-2.1127 Y-29.0000 Z12.0000
G0 X-3.5269 Y-29.0000 Z12.0000
G0 X-3.5269 Y-29.0000 Z7.5000
G1 X-3.5269 Y-29.0000 Z-0.5000 F24000.00
G1 X-39.0000 Y6.4731 Z-0.5000 F60000.00
G1 X-39.0000 Y6.4731 Z-0.5000 F24000.00
G1 X-3.5269 Y-29.0000 Z-0.5000 F60000.00
G1 X-3.5269 Y-29.0000 Z-0.4000 F24000.00
G1 X-39.0000 Y6.4731 Z-0.4000 F60000.00
G1 X-39.0000 Y6.4731 Z-0.4000 F24000.00
G1 X-3.5269 Y-29.0000 Z-0.4000 F60000.00
G1 X-3.5269 Y-29.0000 Z-0.2000 F24000.00
G1 X-39.0000 Y6.4731 Z-0.2000 F60000.00
G1 X-39.0000 Y6.4731 Z-0.2000 F24000.00
G1 X-3.5269 Y-29.0000 Z-0.2000 F60000.00
G1 X-3.5269 Y-29.0000 Z-0.0000 F24000.00
G1 X-39.0000 Y6.4731 Z-0.0000 F60000.00
G1 X-39.0000 Y6.4731 Z-0.0000 F24000.00
G1 X-3.5269 Y-29.0000 Z-0.0000 F60000.00
G0 X-3.5269 Y-29.0000 Z12.0000
G0 X-4.9411 Y-29.0000 Z12.0000
G0 X-4.9411 Y-29.0000 Z8.0000
G1 X-4.9411 Y-29.0000 Z-0.0000 F24000.00
G1 X-39.0000 Y5.0589 Z-0.0000 F60000.00
G1 X-39.0000 Y5.0589 Z-0.0000 F24000.00
G1 X-4.9411 Y-29.0000 Z-0.0000 F60000.00
G1 X-4.9411 Y-29.0000 Z-0.2000 F24000.00
G1 X-39.0000 Y5.0589 Z-0.2000 F60000.00
G1 X-39.0000 Y5.0589 Z-0.2000 F24000.00
G1 X-4.9411 Y-29.0000 Z-0.2000 F60000.00
G1 X-4.9411 Y-29.0000 Z-0.4000 F24000.00
G1 X-39.0000 Y5.0589 Z-0.4000 F60000.00
G1 X-39.0000 Y5.0589 Z-0.4000 F24000.00
G1 X-4.9411 Y-29.0000 Z-0.4000 F60000.00
G1 X-4.9411 Y-29.0000 Z-0.5000 F24000.00
G1 X-39.0000 Y5.0589 Z-0.5000 F60000.00
G1 X-39.0000 Y5.0589 Z-0.5000 F24000.00
G1 X-4.9411 Y-29.0000 Z-0.5000 F60000.00
G0 X-4.9411 Y-29.0000 Z12.0000
G0 X-6.3553 Y-29.0000 Z12.0000
G0 X-6.3553 Y-29.0000 Z7.5000
G1 X-6.3553 Y-29.0000 Z-0.5000 F24000.00
G1 X-39.0000 Y3.6447 Z-0.5000 F60000.00
G1 X-39.0000 Y3.6447 Z-0.5000 F24000.00
G1 X-6.3553 Y-29.0000 Z-0.5000 F60000.00
G1 X-6.3553 Y-29.0000 Z-0.4000 F24000.00
G1 X-39.0000 Y3.6447 Z-0.4000 F60000.00
G1 X-39.0000 Y3.6447 Z-0.4000 F24000.00
G1 X-6.3553 Y-29.0000 Z-0.4000 F60000.00
G1 X-6.3553 Y-29.0000 Z-0.2000 F24000.00
G1 X-39.0000 Y3.6447 Z-0.2000 F60000.00
G1 X-39.0000 Y3.6447 Z-0.2000 F24000.00
G1 X-6.3553 Y-29.0000 Z-0.2000 F60000.00
G1 X-6.3553 Y-29.0000 Z-0.0000 F24000.00
G1 X-39.0000 Y3.6447 Z-0.0000 F60000.00
G1 X-39.0000 Y3.6447 Z-0.0000 F24000.00
G1 X-6.3553 Y-29.0000 Z-0.0000 F60000.00
G0 X-6.3553 Y-29.0000 Z12.0000
G0 X-7.7696 Y-29.0000 Z12.0000
G0 X-7.7696 Y-29.0000 Z8.0000
G1 X-7.7696 Y-29.0000 Z-0.0000 F24000.00
G1 X-39.0000 Y2.2304 Z-0.0000 F60000.00
G1 X-39.0000 Y2.2304 Z-0.0000 F24000.00
G1 X-7.7696 Y-29.0000 Z-0.0000 F60000.00
G1 X-7.7696 Y-29.0000 Z-0.2000 F24000.00
G1 X-39.0000 Y2.2304 Z-0.2000 F60000.00
G1 X-39.0000 Y2.2304 Z-0.2000 F24000.00
G1 X-7.7696 Y-29.0000 Z-0.2000 F60000.00
G1 X-7.7696 Y-29.0000 Z-0.4000 F24000.00
G1 X-39.0000 Y2.2304 Z-0.4000 F60000.00
G1 X-39.0000 Y2.2304 Z-0.4000 F24000.00
G1 X-7.7696 Y-29.0000 Z-0.4000 F60000.00
G1 X-7.7696 Y-29.0000 Z-0.5000 F24000.00
G1 X-39.0000 Y2.2304 Z-0.5000 F60000.00
G1 X-39.0000 Y2.2304 Z-0.5000 F24000.00
G1 X-7.7696 Y-29.0000 Z-0.5000 F60000.00
G0 X-7.7696 Y-29.0000 Z12.0000
G0 X-9.1838 Y-29.0000 Z12.0000
G0 X-9.1838 Y-29.0000 Z7.5000
G1 X-9.1838 Y-29.0000 Z-0.5000 F24000.00
G1 X-39.0000 Y0.8162 Z-0.5000 F60000.00
G1 X-39.0000 Y0.8162 Z-0.5000 F24000.00
G1 X-9.1838 Y-29.0000 Z-0.5000 F60000.00
G1 X-9.1838 Y-29.0000 Z-0.4000 F24000.00
G1 X-39.0000 Y0.8162 Z-0.4000 F60000.00
G1 X-39.0000 Y0.8162 Z-0.4000 F24000.00
G1 X-9.1838 Y-29.0000 Z-0.4000 F60000.00
G1 X-9.1838 Y-29.0000 Z-0.2000 F24000.00
G1 X-39.0000 Y0.8162 Z-0.2000 F60000.00
G1 X-39.0000 Y0.8162 Z-0.2000 F24000.00
G1 X-9.1838 Y-29.0000 Z-0.2000 F60000.00
G1 X-9.1838 Y-29.0000 Z-0.0000 F24000.00
G1 X-39.0000 Y0.8162 Z-0.0000 F60000.00
G1 X-39.0000 Y0.8162 Z-0.0000 F24000.00
G1 X-9.1838 Y-29.0000 Z-0.0000 F60000.00
G0 X-9.1838 Y-29.0000 Z12.0000
G0 X-10.5980 Y-29.0000 Z12.0000
G0 X-10.5980 Y-29.0000 Z8.0000
G1 X-10.5980 Y-29.0000 Z-0.0000 F24000.00
G1 X-39.0000 Y-0.5980 Z-0.0000 F60000.00
G1 X-39.0000 Y-0.5980 Z-0.0000 F24000.00
G1 X-10.5980 Y-29.0000 Z-0.0000 F60000.00
G1 X-10.5980 Y-29.0000 Z-0.2000 F24000.00
G1 X-39.0000 Y-0.5980 Z-0.2000 F60000.00
G1 X-39.0000 Y-0.5980 Z-0.2000 F24000.00
G1 X-10.5980 Y-29.0000 Z-0.2000 F60000.00
G1 X-10.5980 Y-29.0000 Z-0.4000 F24000.00
G1 X-39.0000 Y-0.5980 Z-0.4000 F60000.00
G1 X-39.0000 Y-0.5980 Z-0.4000 F24000.00
G1 X-10.5980 Y-29.0000 Z-0.4000 F60000.00
G1 X-10.5980 Y-29.0000 Z-0.5000 F24000.00
G1 X-39.0000 Y-0.5980 Z-0.5000 F60000.00
G1 X-39.0000 Y-0.5980 Z-0.5000 F24000.00
G1 X-10.5980 Y-29.0000 Z-0.5000 F60000.00
G0 X-10.5980 Y-29.0000 Z12.0000
G0 X-12.0122 Y-29.0000 Z12.0000
G0 X-12.0122 Y-29.0000 Z7.5000
G1 X-12.0122 Y-29.0000 Z-0.5000 F24000.00
G1 X-39.0000 Y-2.0122 Z-0.5000 F60000.00
G1 X-39.0000 Y-2.0122 Z-0.5000 F24000.00
G1 X-12.0122 Y-29.0000 Z-0.5000 F60000.00
G1 X-12.0122 Y-29.0000 Z-0.4000 F24000.00
G1 X-39.0000 Y-2.0122 Z-0.4000 F60000.00
G1 X-39.0000 Y-2.0122 Z-0.4000 F24000.00
G1 X-12.0122 Y-29.0000 Z-0.4000 F60000.00
G1 X-12.0122 Y-29.0000 Z-0.2000 F24000.00
G1 X-39.0000 Y-2.0122 Z-0.2000 F60000.00
G1 X-39.0000 Y-2.0122 Z-0.2000 F24000.00
G1 X-12.0122 Y-29.0000 Z-0.2000 F60000.00
G1 X-12.0122 Y-29.0000 Z-0.0000 F24000.00
G1 X-39.0000 Y-2.0122 Z-0.0000 F60000.00
G1 X-39.0000 Y-2.0122 Z-0.0000 F24000.00
G1 X-12.0122 Y-29.0000 Z-0.0000 F60000.00
G0 X-12.0122 Y-29.0000 Z12.0000
G0 X-13.4264 Y-29.0000 Z12.0000
G0 X-13.4264 Y-29.0000 Z8.0000
G1 X-13.4264 Y-29.0000 Z-0.0000 F24000.00
G1 X-39.0000 Y-3.4264 Z-0.0000 F60000.00
G1 X-39.0000 Y-3.4264 Z-0.0000 F24000.00
G1 X-13.4264 Y-29.0000 Z-0.0000 F60000.00
G1 X-13.4264 Y-29.0000 Z-0.2000 F24000.00
G1 X-39.0000 Y-3.4264 Z-0.2000 F60000.00
G1 X-39.0000 Y-3.4264 Z-0.2000 F24000.00
G1 X-13.4264 Y-29.0000 Z-0.2000 F60000.00
G1 X-13.4264 Y-29.0000 Z-0.4000 F24000.00
G1 X-39.0000 Y-3.4264 Z-0.4000 F60000.00
G1 X-39.0000 Y-3.4264 Z-0.4000 F24000.00
G1 X-13.4264 Y-29.0000 Z-0.4000 F60000.00
G1 X-13.4264 Y-29.0000 Z-0.5000 F24000.00
G1 X-39.0000 Y-3.4264 Z-0.5000 F60000.00
G1 X-39.0000 Y-3.4264 Z-0.5000 F24000.00
G1 X-13.4264 Y-29.0000 Z-0.5000 F60000.00
G0 X-13.4264 Y-29.0000 Z12.0000
G0 X-14.8406 Y-29.0000 Z12.0000
G0 X-14.8406 Y-29.0000 Z7.5000
G1 X-14.8406 Y-29.0000 Z-0.5000 F24000.00
G1 X-39.0000 Y-4.8406 Z-0.5000 F60000.00
G1 X-39.0000 Y-4.8406 Z-0.5000 F24000.00
G1 X-14.8406 Y-29.0000 Z-0.5000 F60000.00
G1 X-14.8406 Y-29.0000 Z-0.4000 F24000.00
G1 X-39.0000 Y-4.8406 Z-0.4000 F60000.00
G1 X-39.0000 Y-4.8406 Z-0.4000 F24000.00
G1 X-14.8406 Y-29.0000 Z-0.4000 F60000.00
G1 X-14.8406 Y-29.0000 Z-0.2000 F24000.00
G1 X-39.0000 Y-4.8406 Z-0.2000 F60000.00
G1 X-39.0000 Y-4.8406 Z-0.2000 F24000.00
G1 X-14.8406 Y-29.0000 Z-0.2000 F60000.00
G1 X-14.8406 Y-29.0000 Z-0.0000 F24000.00
G1 X-39.0000 Y-4.8406 Z-0.0000 F60000.00
G1 X-39.0000 Y-4.8406 Z-0.0000 F24000.00
G1 X-14.8406 Y-29.0000 Z-0.0000 F60000.00
G0 X-14.8406 Y-29.0000 Z12.0000
G0 X-16.2548 Y-29.0000 Z12.0000
G0 X-16.2548 Y-29.0000 Z8.0000
G1 X-16.2548 Y-29.0000 Z-0.0000 F24000.00
G1 X-39.0000 Y-6.2548 Z-0.0000 F60000.00
G1 X-39.0000 Y-6.2548 Z-0.0000 F24000.00
G1 X-16.2548 Y-29.0000 Z-0.0000 F60000.00
G1 X-16.2548 Y-29.0000 Z-0.2000 F24000.00
G1 X-39.0000 Y-6.2548 Z-0.2000 F60000.00
G1 X-39.0000 Y-6.2548 Z-0.2000 F24000.00
G1 X-16.2548 Y-29.0000 Z-0.2000 F60000.00
G1 X-16.2548 Y-29.0000 Z-0.4000 F24000.00
G1 X-39.0000 Y-6.2548 Z-0.4000 F60000.00
G1 X-39.0000 Y-6.2548 Z-0.4000 F24000.00
G1 X-16.2548 Y-29.0000 Z-0.4000 F60000.00
G1 X-16.2548 Y-29.0000 Z-0.5000 F24000.00
G1 X-39.0000 Y-6.2548 Z-0.5000 F60000.00
G1 X-39.0000 Y-6.2548 Z-0.5000 F24000.00
G1 X-16.2548 Y-29.0000 Z-0.5000 F60000.00
G0 X-16.2548 Y-29.0000 Z12.0000
G0 X-17.6690 Y-29.0000 Z12.0000
G0 X-17.6690 Y-29.0000 Z7.5000
G1 X-17.6690 Y-29.0000 Z-0.5000 F24000.00
G1 X-39.0000 Y-7.6690 Z-0.5000 F60000.00
G1 X-39.0000 Y-7.6690 Z-0.5000 F24000.00
G1 X-17.6690 Y-29.0000 Z-0.5000 F60000.00
G1 X-17.6690 Y-29.0000 Z-0.4000 F24000.00
G1 X-39.0000 Y-7.6690 Z-0.4000 F60000.00
G1 X-39.0000 Y-7.6690 Z-0.4000 F24000.00
G1 X-17.6690 Y-29.0000 Z-0.4000 F60000.00
G1 X-17.6690 Y-29.0000 Z-0.2000 F24000.00
G1 X-39.0000 Y-7.6690 Z-0.2000 F60000.00
G1 X-39.0000 Y-7.6690 Z-0.2000 F24000.00
G1 X-17.6690 Y-29.0000 Z-0.2000 F60000.00
G1 X-17.6690 Y-29.0000 Z-0.0000 F24000.00
G1 X-39.0000 Y-7.6690 Z-0.0000 F60000.00
G1 X-39.0000 Y-7.6690 Z-0.0000 F24000.00
G1 X-17.6690 Y-29.0000 Z-0.0000 F60000.00
G0 X-17.6690 Y-29.0000 Z12.0000
G0 X-19.0833 Y-29.0000 Z12.0000
G0 X-19.0833 Y-29.0000 Z8.0000
G1 X-19.0833 Y-29.0000 Z-0.0000 F24000.00
G1 X-39.0000 Y-9.0833 Z-0.0000 F60000.00
G1 X-39.0000 Y-9.0833 Z-0.0000 F24000.00
G1 X-19.0833 Y-29.0000 Z-0.0000 F60000.00
G1 X-19.0833 Y-29.0000 Z-0.2000 F24000.00
G1 X-39.0000 Y-9.0833 Z-0.2000 F60000.00
G1 X-39.0000 Y-9.0833 Z-0.2000 F24000.00
G1 X-19.0833 Y-29.0000 Z-0.2000 F60000.00
G1 X-19.0833 Y-29.0000 Z-0.4000 F24000.00
G1 X-39.0000 Y-9.0833 Z-0.4000 F60000.00
G1 X-39.0000 Y-9.0833 Z-0.4000 F24000.00
G1 X-19.0833 Y-29.0000 Z-0.4000 F60000.00
G1 X-19.0833 Y-29.0000 Z-0.5000 F24000.00
G1 X-39.0000 Y-9.0833 Z-0.5000 F60000.00
G1 X-39.0000 Y-9.0833 Z-0.5000 F24000.00
G1 X-19.0833 Y-29.0000 Z-0.5000 F60000.00
G0 X-19.0833 Y-29.0000 Z12.0000
G0 X-20.4975 Y-29.0000 Z12.0000
G0 X-20.4975 Y-29.0000 Z7.5000
G1 X-20.4975 Y-29.0000 Z-0.5000 F24000.00
G1 X-39.0000 Y-10.4975 Z-0.5000 F60000.00
G1 X-39.0000 Y-10.4975 Z-0.5000 F24000.00
G1 X-20.4975 Y-29.0000 Z-0.5000 F60000.00
G0 X-20.4975 Y-29.0000 Z12.0000
G0 X-20.5147 Y-29.0000 Z12.0000
G0 X-20.5147 Y-29.0000 Z7.5000
G1 X-20.5147 Y-29.0000 Z-0.5000 F24000.00
G1 X37.4853 Y29.0000 Z-0.5000 F60000.00
G1 X37.4853 Y29.0000 Z-0.5000 F24000.00
G1 X-20.5147 Y-29.0000 Z-0.5000 F60000.00
G1 X-20.5147 Y-29.0000 Z-0.4000 F24000.00
G1 X37.4853 Y29.0000 Z-0.4000 F60000.00
G1 X37.4853 Y29.0000 Z-0.4000 F24000.00
G1 X-20.5147 Y-29.0000 Z-0.4000 F60000.00
G0 X-20.5147 Y-29.0000 Z12.0000
G0 X-20.4975 Y-29.0000 Z12.0000
G0 X-20.4975 Y-29.0000 Z7.6000
G1 X-20.4975 Y-29.0000 Z-0.4000 F24000.00
G1 X-39.0000 Y-10.4975 Z-0.4000 F60000.00
G1 X-39.0000 Y-10.4975 Z-0.4000 F24000.00
G1 X-20.4975 Y-29.0000 Z-0.4000 F60000.00
G1 X-20.4975 Y-29.0000 Z-0.2000 F24000.00
G1 X-39.0000 Y-10.4975 Z-0.2000 F60000.00
G1 X-39.0000 Y-10.4975 Z-0.2000 F24000.00
G1 X-20.4975 Y-29.0000 Z-0.2000 F60000.00
G0 X-20.4975 Y-29.0000 Z12.0000
G0 X-20.5147 Y-29.0000 Z12.0000
G0 X-20.5147 Y-29.0000 Z7.8000
G1 X-20.5147 Y-29.0000 Z-0.2000 F24000.00
G1 X37.4853 Y29.0000 Z-0.2000 F60000.00
G1 X37.4853 Y29.0000 Z-0.2000 F24000.00
G1 X-20.5147 Y-29.0000 Z-0.2000 F60000.00
G1 X-20.5147 Y-29.0000 Z-0.0000 F24000.00
G1 X37.4853 Y29.0000 Z-0.0000 F60000.00
G1 X37.4853 Y29.0000 Z-0.0000 F24000.00
G1 X-20.5147 Y-29.0000 Z-0.0000 F60000.00
G0 X-20.5147 Y-29.0000 Z12.0000
G0 X-20.4975 Y-29.0000 Z12.0000
G0 X-20.4975 Y-29.0000 Z8.0000
G1 X-20.4975 Y-29.0000 Z-0.0000 F24000.00
G1 X-39.0000 Y-10.4975 Z-0.0000 F60000.00
G1 X-39.0000 Y-10.4975 Z-0.0000 F24000.00
G1 X-20.4975 Y-29.0000 Z-0.0000 F60000.00
G0 X-20.4975 Y-29.0000 Z12.0000
G0 X-21.9117 Y-29.0000 Z12.0000
G0 X-21.9117 Y-29.0000 Z8.0000
G1 X-21.9117 Y-29.0000 Z-0.0000 F24000.00
G1 X-39.0000 Y-11.9117 Z-0.0000 F60000.00
G1 X-39.0000 Y-11.9117 Z-0.0000 F24000.00
G1 X-21.9117 Y-29.0000 Z-0.0000 F60000.00
G0 X-21.9117 Y-29.0000 Z12.0000
G0 X-21.9289 Y-29.0000 Z12.0000
G0 X-21.9289 Y-29.0000 Z8.0000
G1 X-21.9289 Y-29.0000 Z-0.0000 F24000.00
G1 X36.0711 Y29.0000 Z-0.0000 F60000.00
G1 X36.0711 Y29.0000 Z-0.0000 F24000.00
G1 X-21.9289 Y-29.0000 Z-0.0000 F60000.00
G1 X-21.9289 Y-29.0000 Z-0.2000 F24000.00
G1 X36.0711 Y29.0000 Z-0.2000 F60000.00
G1 X36.0711 Y29.0000 Z-0.2000 F24000.00
G1 X-21.9289 Y-29.0000 Z-0.2000 F60000.00
G0 X-21.9289 Y-29.0000 Z12.0000
G0 X-21.9117 Y-29.0000 Z12.0000
G0 X-21.9117 Y-29.0000 Z7.8000
G1 X-21.9117 Y-29.0000 Z-0.2000 F24000.00
G1 X-39.0000 Y-11.9117 Z-0.2000 F60000.00
G1 X-39.0000 Y-11.9117 Z-0.2000 F24000.00
G1 X-21.9117 Y-29.0000 Z-0.2000 F60000.00
G1 X-21.9117 Y-29.0000 Z-0.4000 F24000.00
G1 X-39.0000 Y-11.9117 Z-0.4000 F60000.00
G1 X-39.0000 Y-11.9117 Z-0.4000 F24000.00
G1 X-21.9117 Y-29.0000 Z-0.4000 F60000.00
G0 X-21.9117 Y-29.0000 Z12.0000
G0 X-21.9289 Y-29.0000 Z12.0000
G0 X-21.9289 Y-29.0000 Z7.6000
G1 X-21.9289 Y-29.0000 Z-0.4000 F24000.00
G1 X36.0711 Y29.0000 Z-0.4000 F60000.00
G1 X36.0711 Y29.0000 Z-0.4000 F24000.00
G1 X-21.9289 Y-29.0000 Z-0.4000 F60000.00
G1 X-21.9289 Y-29.0000 Z-0.5000 F24000.00
G1 X36.0711 Y29.0000 Z-0.5000 F60000.00
G1 X36.0711 Y29.0000 Z-0.5000 F24000.00
G1 X-21.9289 Y-29.0000 Z-0.5000 F60000.00
G0 X-21.9289 Y-29.0000 Z12.0000
G0 X-21.9117 Y-29.0000 Z12.0000
G0 X-21.9117 Y-29.0000 Z7.5000
G1 X-21.9117 Y-29.0000 Z-0.5000 F24000.00
G1 X-39.0000 Y-11.9117 Z-0.5000 F60000.00
G1 X-39.0000 Y-11.9117 Z-0.5000 F24000.00
G1 X-21.9117 Y-29.0000 Z-0.5000 F60000.00
G0 X-21.9117 Y-29.0000 Z12.0000
G0 X-23.3259 Y-29.0000 Z12.0000
G0 X-23.3259 Y-29.0000 Z7.5000
G1 X-23.3259 Y-29.0000 Z-0.5000 F24000.00
G1 X-39.0000 Y-13.3259 Z-0.5000 F60000.00
G1 X-39.0000 Y-13.3259 Z-0.5000 F24000.00
G1 X-23.3259 Y-29.0000 Z-0.5000 F60000.00
G0 X-23.3259 Y-29.0000 Z12.0000
G0 X-23.3431 Y-29.0000 Z12.0000
G0 X-23.3431 Y-29.0000 Z7.5000
G1 X-23.3431 Y-29.0000 Z-0.5000 F24000.00
G1 X34.6569 Y29.0000 Z-0.5000 F60000.00
G1 X34.6569 Y29.0000 Z-0.5000 F24000.00
G1 X-23.3431 Y-29.0000 Z-0.5000 F60000.00
G1 X-23.3431 Y-29.0000 Z-0.4000 F24000.00
G1 X34.6569 Y29.0000 Z-0.4000 F60000.00
G1 X34.6569 Y29.0000 Z-0.4000 F24000.00
G1 X-23.3431 Y-29.0000 Z-0.4000 F60000.00
G0 X-23.3431 Y-29.0000 Z12.0000
G0 X-23.3259 Y-29.0000 Z12.0000
G0 X-23.3259 Y-29.0000 Z7.6000
G1 X-23.3259 Y-29.0000 Z-0.4000 F24000.00
G1 X-39.0000 Y-13.3259 Z-0.4000 F60000.00
G1 X-39.0000 Y-13.3259 Z-0.4000 F24000.00
G1 X-23.3259 Y-29.0000 Z-0.4000 F60000.00
G1 X-23.3259 Y-29.0000 Z-0.2000 F24000.00
G1 X-39.0000 Y-13.3259 Z-0.2000 F60000.00
G1 X-39.0000 Y-13.3259 Z-0.2000 F24000.00
G1 X-23.3259 Y-29.0000 Z-0.2000 F60000.00
G0 X-23.3259 Y-29.0000 Z12.0000
G0 X-23.3431 Y-29.0000 Z12.0000
G0 X-23.3431 Y-29.0000 Z7.8000
G1 X-23.3431 Y-29.0000 Z-0.2000 F24000.00
G1 X34.6569 Y29.0000 Z-0.2000 F60000.00
G1 X34.6569 Y29.0000 Z-0.2000 F24000.00
G1 X-23.3431 Y-29.0000 Z-0.2000 F60000.00
G1 X-23.3431 Y-29.0000 Z-0.0000 F24000.00
G1 X34.6569 Y29.0000 Z-0.0000 F60000.00
G1 X34.6569 Y29.0000 Z-0.0000 F24000.00
G1 X-23.3431 Y-29.0000 Z-0.0000 F60000.00
G0 X-23.3431 Y-29.0000 Z12.0000
G0 X-23.3259 Y-29.0000 Z12.0000
G0 X-23.3259 Y-29.0000 Z8.0000
G1 X-23.3259 Y-29.0000 Z-0.0000 F24000.00
G1 X-39.0000 Y-13.3259 Z-0.0000 F60000.00
G1 X-39.0000 Y-13.3259 Z-0.0000 F24000.00
G1 X-23.3259 Y-29.0000 Z-0.0000 F60000.00
G0 X-23.3259 Y-29.0000 Z12.0000
G0 X-24.7401 Y-29.0000 Z12.0000
G0 X-24.7401 Y-29.0000 Z8.0000
G1 X-24.7401 Y-29.0000 Z-0.0000 F24000.00
G1 X-39.0000 Y-14.7401 Z-0.0000 F60000.00
G1 X-39.0000 Y-14.7401 Z-0.0000 F24000.00
G1 X-24.7401 Y-29.0000 Z-0.0000 F60000.00
G0 X-24.7401 Y-29.0000 Z12.0000
G0 X-24.7574 Y-29.0000 Z12.0000
G0 X-24.7574 Y-29.0000 Z8.0000
G1 X-24.7574 Y-29.0000 Z-0.0000 F24000.00
G1 X33.2426 Y29.0000 Z-0.0000 F60000.00
G1 X33.2426 Y29.0000 Z-0.0000 F24000.00
G1 X-24.7574 Y-29.0000 Z-0.0000 F60000.00
G1 X-24.7574 Y-29.0000 Z-0.2000 F24000.00
G1 X33.2426 Y29.0000 Z-0.2000 F60000.00
G1 X33.2426 Y29.0000 Z-0.2000 F24000.00
G1 X-24.7574 Y-29.0000 Z-0.2000 F60000.00
G0 X-24.7574 Y-29.0000 Z12.0000
G0 X-24.7401 Y-29.0000 Z12.0000
G0 X-24.7401 Y-29.0000 Z7.8000
G1 X-24.7401 Y-29.0000 Z-0.2000 F24000.00
G1 X-39.0000 Y-14.7401 Z-0.2000 F60000.00
G1 X-39.0000 Y-14.7401 Z-0.2000 F24000.00
G1 X-24.7401 Y-29.0000 Z-0.2000 F60000.00
G1 X-24.7401 Y-29.0000 Z-0.4000 F24000.00
G1 X-39.0000 Y-14.7401 Z-0.4000 F60000.00
G1 X-39.0000 Y-14.7401 Z-0.4000 F24000.00
G1 X-24.7401 Y-29.0000 Z-0.4000 F60000.00
G0 X-24.7401 Y-29.0000 Z12.0000
G0 X-24.7574 Y-29.0000 Z12.0000
G0 X-24.7574 Y-29.0000 Z7.6000
G1 X-24.7574 Y-29.0000 Z-0.4000 F24000.00
G1 X33.2426 Y29.0000 Z-0.4000 F60000.00
G1 X33.2426 Y29.0000 Z-0.4000 F24000.00
G1 X-24.7574 Y-29.0000 Z-0.4000 F60000.00
G1 X-24.7574 Y-29.0000 Z-0.5000 F24000.00
G1 X33.2426 Y29.0000 Z-0.5000 F60000.00
G1 X33.2426 Y29.0000 Z-0.5000 F24000.00
G1 X-24.7574 Y-29.0000 Z-0.5000 F60000.00
