(Exported by FreeCAD)
(Post Processor: grbl_post)
(Output Time:2020-03-01 13:06:27.533888)
(begin preamble)
G17 G90
G21
(begin operation: T2: 7/8"WoodMill)
(Path: T2: 7/8"WoodMill)
(T2: 7/8"WoodMill)
(begin toolchange)
; M6 T2
M3 S12000.0000
(finish operation: T2: 7/8"WoodMill)
(begin operation: Clean_Bed_Pocket)
(Path: Clean_Bed_Pocket)
(Clean_Bed_Pocket)
G0 Z5.0000
G0 X248.8900 Y508.8900
G0 Z3.0000
G1 X248.8900 Y508.8900 Z-0.0000 F1000.20
G1 X248.8900 Y21.1100 Z-0.0000 F1999.80
G1 X-248.8900 Y21.1100 Z0.0000 F1999.80
G1 X-248.8900 Y508.8900 Z0.0000 F1999.80
G1 X248.8900 Y508.8900 Z-0.0000 F1999.80
G0 X248.8900 Y508.8900 Z5.0000
G0 X232.2250 Y492.2250 Z5.0000
G0 X232.2250 Y492.2250 Z3.0000
G1 X232.2250 Y492.2250 Z-0.0000 F1000.20
G1 X232.2250 Y37.7750 Z-0.0000 F1999.80
G1 X-232.2250 Y37.7750 Z0.0000 F1999.80
G1 X-232.2250 Y492.2250 Z0.0000 F1999.80
G1 X232.2250 Y492.2250 Z-0.0000 F1999.80
G0 X232.2250 Y492.2250 Z5.0000
G0 X215.5600 Y475.5600 Z5.0000
G0 X215.5600 Y475.5600 Z3.0000
G1 X215.5600 Y475.5600 Z-0.0000 F1000.20
G1 X215.5600 Y54.4400 Z-0.0000 F1999.80
G1 X-215.5600 Y54.4400 Z0.0000 F1999.80
G1 X-215.5600 Y475.5600 Z0.0000 F1999.80
G1 X215.5600 Y475.5600 Z-0.0000 F1999.80
G0 X215.5600 Y475.5600 Z5.0000
G0 X198.8950 Y458.8950 Z5.0000
G0 X198.8950 Y458.8950 Z3.0000
G1 X198.8950 Y458.8950 Z-0.0000 F1000.20
G1 X198.8950 Y71.1050 Z-0.0000 F1999.80
G1 X-198.8950 Y71.1050 Z0.0000 F1999.80
G1 X-198.8950 Y458.8950 Z0.0000 F1999.80
G1 X198.8950 Y458.8950 Z-0.0000 F1999.80
G0 X198.8950 Y458.8950 Z5.0000
G0 X182.2300 Y442.2300 Z5.0000
G0 X182.2300 Y442.2300 Z3.0000
G1 X182.2300 Y442.2300 Z-0.0000 F1000.20
G1 X182.2300 Y87.7700 Z-0.0000 F1999.80
G1 X-182.2300 Y87.7700 Z0.0000 F1999.80
G1 X-182.2300 Y442.2300 Z0.0000 F1999.80
G1 X182.2300 Y442.2300 Z-0.0000 F1999.80
G0 X182.2300 Y442.2300 Z5.0000
G0 X165.5650 Y425.5650 Z5.0000
G0 X165.5650 Y425.5650 Z3.0000
G1 X165.5650 Y425.5650 Z-0.0000 F1000.20
G1 X165.5650 Y104.4350 Z-0.0000 F1999.80
G1 X-165.5650 Y104.4350 Z0.0000 F1999.80
G1 X-165.5650 Y425.5650 Z0.0000 F1999.80
G1 X165.5650 Y425.5650 Z-0.0000 F1999.80
G0 X165.5650 Y425.5650 Z5.0000
G0 X148.9000 Y408.9000 Z5.0000
G0 X148.9000 Y408.9000 Z3.0000
G1 X148.9000 Y408.9000 Z-0.0000 F1000.20
G1 X148.9000 Y121.1000 Z-0.0000 F1999.80
G1 X-148.9000 Y121.1000 Z0.0000 F1999.80
G1 X-148.9000 Y408.9000 Z0.0000 F1999.80
G1 X148.9000 Y408.9000 Z-0.0000 F1999.80
G0 X148.9000 Y408.9000 Z5.0000
G0 X132.2350 Y392.2350 Z5.0000
G0 X132.2350 Y392.2350 Z3.0000
G1 X132.2350 Y392.2350 Z-0.0000 F1000.20
G1 X132.2350 Y137.7650 Z-0.0000 F1999.80
G1 X-132.2350 Y137.7650 Z0.0000 F1999.80
G1 X-132.2350 Y392.2350 Z0.0000 F1999.80
G1 X132.2350 Y392.2350 Z-0.0000 F1999.80
G0 X132.2350 Y392.2350 Z5.0000
G0 X115.5700 Y375.5700 Z5.0000
G0 X115.5700 Y375.5700 Z3.0000
G1 X115.5700 Y375.5700 Z-0.0000 F1000.20
G1 X115.5700 Y154.4300 Z-0.0000 F1999.80
G1 X-115.5700 Y154.4300 Z0.0000 F1999.80
G1 X-115.5700 Y375.5700 Z0.0000 F1999.80
G1 X115.5700 Y375.5700 Z-0.0000 F1999.80
G0 X115.5700 Y375.5700 Z5.0000
G0 X98.9050 Y358.9050 Z5.0000
G0 X98.9050 Y358.9050 Z3.0000
G1 X98.9050 Y358.9050 Z-0.0000 F1000.20
G1 X98.9050 Y171.0950 Z-0.0000 F1999.80
G1 X-98.9050 Y171.0950 Z0.0000 F1999.80
G1 X-98.9050 Y358.9050 Z0.0000 F1999.80
G1 X98.9050 Y358.9050 Z-0.0000 F1999.80
G0 X98.9050 Y358.9050 Z5.0000
G0 X82.2400 Y342.2400 Z5.0000
G0 X82.2400 Y342.2400 Z3.0000
G1 X82.2400 Y342.2400 Z-0.0000 F1000.20
G1 X82.2400 Y187.7600 Z-0.0000 F1999.80
G1 X-82.2400 Y187.7600 Z0.0000 F1999.80
G1 X-82.2400 Y342.2400 Z0.0000 F1999.80
G1 X82.2400 Y342.2400 Z-0.0000 F1999.80
G0 X82.2400 Y342.2400 Z5.0000
G0 X65.5750 Y325.5750 Z5.0000
G0 X65.5750 Y325.5750 Z3.0000
G1 X65.5750 Y325.5750 Z-0.0000 F1000.20
G1 X65.5750 Y204.4250 Z-0.0000 F1999.80
G1 X-65.5750 Y204.4250 Z0.0000 F1999.80
G1 X-65.5750 Y325.5750 Z0.0000 F1999.80
G1 X65.5750 Y325.5750 Z-0.0000 F1999.80
G0 X65.5750 Y325.5750 Z5.0000
G0 X48.9100 Y308.9100 Z5.0000
G0 X48.9100 Y308.9100 Z3.0000
G1 X48.9100 Y308.9100 Z-0.0000 F1000.20
G1 X48.9100 Y221.0900 Z-0.0000 F1999.80
G1 X-48.9100 Y221.0900 Z0.0000 F1999.80
G1 X-48.9100 Y308.9100 Z0.0000 F1999.80
G1 X48.9100 Y308.9100 Z-0.0000 F1999.80
G0 X48.9100 Y308.9100 Z5.0000
G0 X32.2450 Y292.2450 Z5.0000
G0 X32.2450 Y292.2450 Z3.0000
G1 X32.2450 Y292.2450 Z-0.0000 F1000.20
G1 X32.2450 Y237.7550 Z-0.0000 F1999.80
G1 X-32.2450 Y237.7550 Z0.0000 F1999.80
G1 X-32.2450 Y292.2450 Z0.0000 F1999.80
G1 X32.2450 Y292.2450 Z-0.0000 F1999.80
G0 X32.2450 Y292.2450 Z5.0000
G0 X15.5800 Y275.5800 Z5.0000
G0 X15.5800 Y275.5800 Z3.0000
G1 X15.5800 Y275.5800 Z-0.0000 F1000.20
G1 X15.5800 Y254.4200 Z-0.0000 F1999.80
G1 X-15.5800 Y254.4200 Z0.0000 F1999.80
G1 X-15.5800 Y275.5800 Z0.0000 F1999.80
G1 X15.5800 Y275.5800 Z-0.0000 F1999.80
G0 X15.5800 Y275.5800 Z5.0000
G0 X10.0250 Y270.0250 Z5.0000
G0 X10.0250 Y270.0250 Z3.0000
G1 X10.0250 Y270.0250 Z-0.0000 F1000.20
G1 X10.0250 Y259.9750 Z-0.0000 F1999.80
G1 X-10.0250 Y259.9750 Z0.0000 F1999.80
G1 X-10.0250 Y270.0250 Z0.0000 F1999.80
G1 X10.0250 Y270.0250 Z-0.0000 F1999.80
G1 X10.0250 Y270.0250 Z-0.2000 F1000.20
G1 X10.0250 Y259.9750 Z-0.2000 F1999.80
G1 X-10.0250 Y259.9750 Z-0.2000 F1999.80
G1 X-10.0250 Y270.0250 Z-0.2000 F1999.80
G1 X10.0250 Y270.0250 Z-0.2000 F1999.80
G0 X10.0250 Y270.0250 Z5.0000
G0 X10.0250 Y275.5800 Z5.0000
G0 X10.0250 Y275.5800 Z2.8000
G1 X10.0250 Y275.5800 Z-0.2000 F1000.20
G1 X15.5800 Y275.5800 Z-0.2000 F1999.80
G1 X15.5800 Y254.4200 Z-0.2000 F1999.80
G1 X-15.5800 Y254.4200 Z-0.2000 F1999.80
G1 X-15.5800 Y275.5800 Z-0.2000 F1999.80
G1 X10.0250 Y275.5800 Z-0.2000 F1999.80
G0 X10.0250 Y275.5800 Z5.0000
G0 X10.0250 Y292.2450 Z5.0000
G0 X10.0250 Y292.2450 Z2.8000
G1 X10.0250 Y292.2450 Z-0.2000 F1000.20
G1 X32.2450 Y292.2450 Z-0.2000 F1999.80
G1 X32.2450 Y237.7550 Z-0.2000 F1999.80
G1 X-32.2450 Y237.7550 Z-0.2000 F1999.80
G1 X-32.2450 Y292.2450 Z-0.2000 F1999.80
G1 X10.0250 Y292.2450 Z-0.2000 F1999.80
G0 X10.0250 Y292.2450 Z5.0000
G0 X10.0250 Y308.9100 Z5.0000
G0 X10.0250 Y308.9100 Z2.8000
G1 X10.0250 Y308.9100 Z-0.2000 F1000.20
G1 X48.9100 Y308.9100 Z-0.2000 F1999.80
G1 X48.9100 Y221.0900 Z-0.2000 F1999.80
G1 X-48.9100 Y221.0900 Z-0.2000 F1999.80
G1 X-48.9100 Y308.9100 Z-0.2000 F1999.80
G1 X10.0250 Y308.9100 Z-0.2000 F1999.80
G0 X10.0250 Y308.9100 Z5.0000
G0 X10.0250 Y325.5750 Z5.0000
G0 X10.0250 Y325.5750 Z2.8000
G1 X10.0250 Y325.5750 Z-0.2000 F1000.20
G1 X65.5750 Y325.5750 Z-0.2000 F1999.80
G1 X65.5750 Y204.4250 Z-0.2000 F1999.80
G1 X-65.5750 Y204.4250 Z-0.2000 F1999.80
G1 X-65.5750 Y325.5750 Z-0.2000 F1999.80
G1 X10.0250 Y325.5750 Z-0.2000 F1999.80
G0 X10.0250 Y325.5750 Z5.0000
G0 X10.0250 Y342.2400 Z5.0000
G0 X10.0250 Y342.2400 Z2.8000
G1 X10.0250 Y342.2400 Z-0.2000 F1000.20
G1 X82.2400 Y342.2400 Z-0.2000 F1999.80
G1 X82.2400 Y187.7600 Z-0.2000 F1999.80
G1 X-82.2400 Y187.7600 Z-0.2000 F1999.80
G1 X-82.2400 Y342.2400 Z-0.2000 F1999.80
G1 X10.0250 Y342.2400 Z-0.2000 F1999.80
G0 X10.0250 Y342.2400 Z5.0000
G0 X10.0250 Y358.9050 Z5.0000
G0 X10.0250 Y358.9050 Z2.8000
G1 X10.0250 Y358.9050 Z-0.2000 F1000.20
G1 X98.9050 Y358.9050 Z-0.2000 F1999.80
G1 X98.9050 Y171.0950 Z-0.2000 F1999.80
G1 X-98.9050 Y171.0950 Z-0.2000 F1999.80
G1 X-98.9050 Y358.9050 Z-0.2000 F1999.80
G1 X10.0250 Y358.9050 Z-0.2000 F1999.80
G0 X10.0250 Y358.9050 Z5.0000
G0 X10.0250 Y375.5700 Z5.0000
G0 X10.0250 Y375.5700 Z2.8000
G1 X10.0250 Y375.5700 Z-0.2000 F1000.20
G1 X115.5700 Y375.5700 Z-0.2000 F1999.80
G1 X115.5700 Y154.4300 Z-0.2000 F1999.80
G1 X-115.5700 Y154.4300 Z-0.2000 F1999.80
G1 X-115.5700 Y375.5700 Z-0.2000 F1999.80
G1 X10.0250 Y375.5700 Z-0.2000 F1999.80
G0 X10.0250 Y375.5700 Z5.0000
G0 X10.0250 Y392.2350 Z5.0000
G0 X10.0250 Y392.2350 Z2.8000
G1 X10.0250 Y392.2350 Z-0.2000 F1000.20
G1 X132.2350 Y392.2350 Z-0.2000 F1999.80
G1 X132.2350 Y137.7650 Z-0.2000 F1999.80
G1 X-132.2350 Y137.7650 Z-0.2000 F1999.80
G1 X-132.2350 Y392.2350 Z-0.2000 F1999.80
G1 X10.0250 Y392.2350 Z-0.2000 F1999.80
G0 X10.0250 Y392.2350 Z5.0000
G0 X10.0250 Y408.9000 Z5.0000
G0 X10.0250 Y408.9000 Z2.8000
G1 X10.0250 Y408.9000 Z-0.2000 F1000.20
G1 X148.9000 Y408.9000 Z-0.2000 F1999.80
G1 X148.9000 Y121.1000 Z-0.2000 F1999.80
G1 X-148.9000 Y121.1000 Z-0.2000 F1999.80
G1 X-148.9000 Y408.9000 Z-0.2000 F1999.80
G1 X10.0250 Y408.9000 Z-0.2000 F1999.80
G0 X10.0250 Y408.9000 Z5.0000
G0 X10.0250 Y425.5650 Z5.0000
G0 X10.0250 Y425.5650 Z2.8000
G1 X10.0250 Y425.5650 Z-0.2000 F1000.20
G1 X165.5650 Y425.5650 Z-0.2000 F1999.80
G1 X165.5650 Y104.4350 Z-0.2000 F1999.80
G1 X-165.5650 Y104.4350 Z-0.2000 F1999.80
G1 X-165.5650 Y425.5650 Z-0.2000 F1999.80
G1 X10.0250 Y425.5650 Z-0.2000 F1999.80
G0 X10.0250 Y425.5650 Z5.0000
G0 X10.0250 Y442.2300 Z5.0000
G0 X10.0250 Y442.2300 Z2.8000
G1 X10.0250 Y442.2300 Z-0.2000 F1000.20
G1 X182.2300 Y442.2300 Z-0.2000 F1999.80
G1 X182.2300 Y87.7700 Z-0.2000 F1999.80
G1 X-182.2300 Y87.7700 Z-0.2000 F1999.80
G1 X-182.2300 Y442.2300 Z-0.2000 F1999.80
G1 X10.0250 Y442.2300 Z-0.2000 F1999.80
G0 X10.0250 Y442.2300 Z5.0000
G0 X10.0250 Y458.8950 Z5.0000
G0 X10.0250 Y458.8950 Z2.8000
G1 X10.0250 Y458.8950 Z-0.2000 F1000.20
G1 X198.8950 Y458.8950 Z-0.2000 F1999.80
G1 X198.8950 Y71.1050 Z-0.2000 F1999.80
G1 X-198.8950 Y71.1050 Z-0.2000 F1999.80
G1 X-198.8950 Y458.8950 Z-0.2000 F1999.80
G1 X10.0250 Y458.8950 Z-0.2000 F1999.80
G0 X10.0250 Y458.8950 Z5.0000
G0 X10.0250 Y475.5600 Z5.0000
G0 X10.0250 Y475.5600 Z2.8000
G1 X10.0250 Y475.5600 Z-0.2000 F1000.20
G1 X215.5600 Y475.5600 Z-0.2000 F1999.80
G1 X215.5600 Y54.4400 Z-0.2000 F1999.80
G1 X-215.5600 Y54.4400 Z-0.2000 F1999.80
G1 X-215.5600 Y475.5600 Z-0.2000 F1999.80
G1 X10.0250 Y475.5600 Z-0.2000 F1999.80
G0 X10.0250 Y475.5600 Z5.0000
G0 X10.0250 Y492.2250 Z5.0000
G0 X10.0250 Y492.2250 Z2.8000
G1 X10.0250 Y492.2250 Z-0.2000 F1000.20
G1 X232.2250 Y492.2250 Z-0.2000 F1999.80
G1 X232.2250 Y37.7750 Z-0.2000 F1999.80
G1 X-232.2250 Y37.7750 Z-0.2000 F1999.80
G1 X-232.2250 Y492.2250 Z-0.2000 F1999.80
G1 X10.0250 Y492.2250 Z-0.2000 F1999.80
G0 X10.0250 Y492.2250 Z5.0000
G0 X10.0250 Y508.8900 Z5.0000
G0 X10.0250 Y508.8900 Z2.8000
G1 X10.0250 Y508.8900 Z-0.2000 F1000.20
G1 X248.8900 Y508.8900 Z-0.2000 F1999.80
G1 X248.8900 Y21.1100 Z-0.2000 F1999.80
G1 X-248.8900 Y21.1100 Z-0.2000 F1999.80
G1 X-248.8900 Y508.8900 Z-0.2000 F1999.80
G1 X10.0250 Y508.8900 Z-0.2000 F1999.80
G0 Z5.0000
(finish operation: Clean_Bed_Pocket)
(begin postamble)
M5
G17 G90
; M2
