(Exported by FreeCAD)
(Post Processor: grbl_post)
(Output Time:2020-02-29 20:26:46.773701)
(begin preamble)
G17 G90
G21
(begin operation: T2: 7/8"WoodMill)
(Path: T2: 7/8"WoodMill)
(T2: 7/8"WoodMill)
(begin toolchange)
; M6 T2
M3 S12000.0000
(finish operation: T2: 7/8"WoodMill)
(begin operation: Clean_Bed_Pocket)
(Path: Clean_Bed_Pocket)
(Clean_Bed_Pocket)
G0 Z5.0000
G0 X-234.3950 Y508.8900
G0 Z3.0000
G1 X-234.3950 Y508.8900 Z0.0000 F1000.20
G1 X-248.8900 Y508.8900 Z0.0000 F1999.80
G1 X-248.8900 Y21.1100 Z0.0000 F1999.80
G1 X-234.3950 Y21.1100 Z0.0000 F1999.80
G1 X-234.3950 Y508.8900 Z0.0000 F1999.80
G1 X-217.7300 Y508.8900 Z0.0000 F1999.80
G1 X-217.7300 Y21.1100 Z0.0000 F1999.80
G1 X-201.0650 Y21.1100 Z0.0000 F1999.80
G1 X-201.0650 Y508.8900 Z0.0000 F1999.80
G1 X-184.4000 Y508.8900 Z0.0000 F1999.80
G1 X-184.4000 Y21.1100 Z0.0000 F1999.80
G1 X-167.7350 Y21.1100 Z0.0000 F1999.80
G1 X-167.7350 Y508.8900 Z0.0000 F1999.80
G1 X-151.0700 Y508.8900 Z0.0000 F1999.80
G1 X-151.0700 Y21.1100 Z0.0000 F1999.80
G1 X-134.4050 Y21.1100 Z0.0000 F1999.80
G1 X-134.4050 Y508.8900 Z0.0000 F1999.80
G1 X-117.7400 Y508.8900 Z0.0000 F1999.80
G1 X-117.7400 Y21.1100 Z0.0000 F1999.80
G1 X-101.0750 Y21.1100 Z0.0000 F1999.80
G1 X-101.0750 Y508.8900 Z0.0000 F1999.80
G1 X-84.4100 Y508.8900 Z0.0000 F1999.80
G1 X-84.4100 Y21.1100 Z0.0000 F1999.80
G1 X-67.7450 Y21.1100 Z0.0000 F1999.80
G1 X-67.7450 Y508.8900 Z0.0000 F1999.80
G1 X-51.0800 Y508.8900 Z0.0000 F1999.80
G1 X-51.0800 Y21.1100 Z0.0000 F1999.80
G1 X-34.4150 Y21.1100 Z0.0000 F1999.80
G1 X-34.4150 Y508.8900 Z0.0000 F1999.80
G1 X-17.7500 Y508.8900 Z0.0000 F1999.80
G1 X-17.7500 Y21.1100 Z0.0000 F1999.80
G1 X-1.0850 Y21.1100 Z0.0000 F1999.80
G1 X-1.0850 Y508.8900 Z0.0000 F1999.80
G1 X15.5800 Y508.8900 Z-0.0000 F1999.80
G1 X15.5800 Y21.1100 Z-0.0000 F1999.80
G1 X32.2450 Y21.1100 Z-0.0000 F1999.80
G1 X32.2450 Y508.8900 Z-0.0000 F1999.80
G1 X48.9100 Y508.8900 Z-0.0000 F1999.80
G1 X48.9100 Y21.1100 Z-0.0000 F1999.80
G1 X65.5750 Y21.1100 Z-0.0000 F1999.80
G1 X65.5750 Y508.8900 Z-0.0000 F1999.80
G1 X82.2400 Y508.8900 Z-0.0000 F1999.80
G1 X82.2400 Y21.1100 Z-0.0000 F1999.80
G1 X98.9050 Y21.1100 Z-0.0000 F1999.80
G1 X98.9050 Y508.8900 Z-0.0000 F1999.80
G1 X115.5700 Y508.8900 Z-0.0000 F1999.80
G1 X115.5700 Y21.1100 Z-0.0000 F1999.80
G1 X132.2350 Y21.1100 Z-0.0000 F1999.80
G1 X132.2350 Y508.8900 Z-0.0000 F1999.80
G1 X148.9000 Y508.8900 Z-0.0000 F1999.80
G1 X148.9000 Y21.1100 Z-0.0000 F1999.80
G1 X165.5650 Y21.1100 Z-0.0000 F1999.80
G1 X165.5650 Y508.8900 Z-0.0000 F1999.80
G1 X182.2300 Y508.8900 Z-0.0000 F1999.80
G1 X182.2300 Y21.1100 Z-0.0000 F1999.80
G1 X198.8950 Y21.1100 Z-0.0000 F1999.80
G1 X198.8950 Y508.8900 Z-0.0000 F1999.80
G1 X215.5600 Y508.8900 Z-0.0000 F1999.80
G1 X215.5600 Y21.1100 Z-0.0000 F1999.80
G1 X232.2250 Y21.1100 Z-0.0000 F1999.80
G1 X232.2250 Y508.8900 Z-0.0000 F1999.80
G1 X248.8900 Y508.8900 Z-0.0000 F1999.80
G1 X248.8900 Y21.1100 Z-0.0000 F1999.80
G1 X248.8900 Y21.1100 Z-0.2000 F1000.20
G1 X248.8900 Y508.8900 Z-0.2000 F1999.80
G1 X232.2250 Y508.8900 Z-0.2000 F1999.80
G1 X232.2250 Y21.1100 Z-0.2000 F1999.80
G1 X215.5600 Y21.1100 Z-0.2000 F1999.80
G1 X215.5600 Y508.8900 Z-0.2000 F1999.80
G1 X198.8950 Y508.8900 Z-0.2000 F1999.80
G1 X198.8950 Y21.1100 Z-0.2000 F1999.80
G1 X182.2300 Y21.1100 Z-0.2000 F1999.80
G1 X182.2300 Y508.8900 Z-0.2000 F1999.80
G1 X165.5650 Y508.8900 Z-0.2000 F1999.80
G1 X165.5650 Y21.1100 Z-0.2000 F1999.80
G1 X148.9000 Y21.1100 Z-0.2000 F1999.80
G1 X148.9000 Y508.8900 Z-0.2000 F1999.80
G1 X132.2350 Y508.8900 Z-0.2000 F1999.80
G1 X132.2350 Y21.1100 Z-0.2000 F1999.80
G1 X115.5700 Y21.1100 Z-0.2000 F1999.80
G1 X115.5700 Y508.8900 Z-0.2000 F1999.80
G1 X98.9050 Y508.8900 Z-0.2000 F1999.80
G1 X98.9050 Y21.1100 Z-0.2000 F1999.80
G1 X82.2400 Y21.1100 Z-0.2000 F1999.80
G1 X82.2400 Y508.8900 Z-0.2000 F1999.80
G1 X65.5750 Y508.8900 Z-0.2000 F1999.80
G1 X65.5750 Y21.1100 Z-0.2000 F1999.80
G1 X48.9100 Y21.1100 Z-0.2000 F1999.80
G1 X48.9100 Y508.8900 Z-0.2000 F1999.80
G1 X32.2450 Y508.8900 Z-0.2000 F1999.80
G1 X32.2450 Y21.1100 Z-0.2000 F1999.80
G1 X15.5800 Y21.1100 Z-0.2000 F1999.80
G1 X15.5800 Y508.8900 Z-0.2000 F1999.80
G1 X-1.0850 Y508.8900 Z-0.2000 F1999.80
G1 X-1.0850 Y21.1100 Z-0.2000 F1999.80
G1 X-17.7500 Y21.1100 Z-0.2000 F1999.80
G1 X-17.7500 Y508.8900 Z-0.2000 F1999.80
G1 X-34.4150 Y508.8900 Z-0.2000 F1999.80
G1 X-34.4150 Y21.1100 Z-0.2000 F1999.80
G1 X-51.0800 Y21.1100 Z-0.2000 F1999.80
G1 X-51.0800 Y508.8900 Z-0.2000 F1999.80
G1 X-67.7450 Y508.8900 Z-0.2000 F1999.80
G1 X-67.7450 Y21.1100 Z-0.2000 F1999.80
G1 X-84.4100 Y21.1100 Z-0.2000 F1999.80
G1 X-84.4100 Y508.8900 Z-0.2000 F1999.80
G1 X-101.0750 Y508.8900 Z-0.2000 F1999.80
G1 X-101.0750 Y21.1100 Z-0.2000 F1999.80
G1 X-117.7400 Y21.1100 Z-0.2000 F1999.80
G1 X-117.7400 Y508.8900 Z-0.2000 F1999.80
G1 X-134.4050 Y508.8900 Z-0.2000 F1999.80
G1 X-134.4050 Y21.1100 Z-0.2000 F1999.80
G1 X-151.0700 Y21.1100 Z-0.2000 F1999.80
G1 X-151.0700 Y508.8900 Z-0.2000 F1999.80
G1 X-167.7350 Y508.8900 Z-0.2000 F1999.80
G1 X-167.7350 Y21.1100 Z-0.2000 F1999.80
G1 X-184.4000 Y21.1100 Z-0.2000 F1999.80
G1 X-184.4000 Y508.8900 Z-0.2000 F1999.80
G1 X-201.0650 Y508.8900 Z-0.2000 F1999.80
G1 X-201.0650 Y21.1100 Z-0.2000 F1999.80
G1 X-217.7300 Y21.1100 Z-0.2000 F1999.80
G1 X-217.7300 Y508.8900 Z-0.2000 F1999.80
G1 X-234.3950 Y508.8900 Z-0.2000 F1999.80
G1 X-234.3950 Y21.1100 Z-0.2000 F1999.80
G1 X-248.8900 Y21.1100 Z-0.2000 F1999.80
G1 X-248.8900 Y508.8900 Z-0.2000 F1999.80
G1 X-234.3950 Y508.8900 Z-0.2000 F1999.80
G0 Z5.0000
(finish operation: Clean_Bed_Pocket)
(begin postamble)
M5
G17 G90
; M2
