(Exported by FreeCAD)
(Post Processor: grbl_post)
(Output Time:2020-02-23 01:43:57.062758)
(begin preamble)
G17 G90
G21
(begin operation: T4: 2FluteWoodMill)
(Path: T4: 2FluteWoodMill)
(T4: 2FluteWoodMill)
(begin toolchange)
; M6 T4
M3 S10000.0000
(finish operation: T4: 2FluteWoodMill)
(begin operation: Through_Holes_Edge)
(Path: Through_Holes_Edge)
(Through_Holes_Edge)
(helix cut operation)
G0 Z17.0000
G0 X-208.4500 Y0.0000
G0 Z15.0000
G1 Z12.0000 F999.60
G2 X-211.5500 Y0.0000 Z11.8032 I-1.5500 J0.0000 F1999.80
G2 X-208.4500 Y0.0000 Z11.6065 I1.5500 J0.0000 F1999.80
G2 X-211.5500 Y0.0000 Z11.4097 I-1.5500 J0.0000 F1999.80
G2 X-208.4500 Y0.0000 Z11.2129 I1.5500 J0.0000 F1999.80
G2 X-211.5500 Y0.0000 Z11.0161 I-1.5500 J0.0000 F1999.80
G2 X-208.4500 Y0.0000 Z10.8194 I1.5500 J0.0000 F1999.80
G2 X-211.5500 Y0.0000 Z10.6226 I-1.5500 J0.0000 F1999.80
G2 X-208.4500 Y0.0000 Z10.4258 I1.5500 J0.0000 F1999.80
G2 X-211.5500 Y0.0000 Z10.2290 I-1.5500 J0.0000 F1999.80
G2 X-208.4500 Y0.0000 Z10.0323 I1.5500 J0.0000 F1999.80
G2 X-211.5500 Y0.0000 Z9.8355 I-1.5500 J0.0000 F1999.80
G2 X-208.4500 Y0.0000 Z9.6387 I1.5500 J0.0000 F1999.80
G2 X-211.5500 Y0.0000 Z9.4419 I-1.5500 J0.0000 F1999.80
G2 X-208.4500 Y0.0000 Z9.2452 I1.5500 J0.0000 F1999.80
G2 X-211.5500 Y0.0000 Z9.0484 I-1.5500 J0.0000 F1999.80
G2 X-208.4500 Y0.0000 Z8.8516 I1.5500 J0.0000 F1999.80
G2 X-211.5500 Y0.0000 Z8.6548 I-1.5500 J0.0000 F1999.80
G2 X-208.4500 Y0.0000 Z8.4581 I1.5500 J0.0000 F1999.80
G2 X-211.5500 Y0.0000 Z8.2613 I-1.5500 J0.0000 F1999.80
G2 X-208.4500 Y0.0000 Z8.0645 I1.5500 J0.0000 F1999.80
G2 X-211.5500 Y0.0000 Z7.8677 I-1.5500 J0.0000 F1999.80
G2 X-208.4500 Y0.0000 Z7.6710 I1.5500 J0.0000 F1999.80
G2 X-211.5500 Y0.0000 Z7.4742 I-1.5500 J0.0000 F1999.80
G2 X-208.4500 Y0.0000 Z7.2774 I1.5500 J0.0000 F1999.80
G2 X-211.5500 Y0.0000 Z7.0806 I-1.5500 J0.0000 F1999.80
G2 X-208.4500 Y0.0000 Z6.8839 I1.5500 J0.0000 F1999.80
G2 X-211.5500 Y0.0000 Z6.6871 I-1.5500 J0.0000 F1999.80
G2 X-208.4500 Y0.0000 Z6.4903 I1.5500 J0.0000 F1999.80
G2 X-211.5500 Y0.0000 Z6.2935 I-1.5500 J0.0000 F1999.80
G2 X-208.4500 Y0.0000 Z6.0968 I1.5500 J0.0000 F1999.80
G2 X-211.5500 Y0.0000 Z5.9000 I-1.5500 J0.0000 F1999.80
G2 X-208.4500 Y0.0000 Z5.7032 I1.5500 J0.0000 F1999.80
G2 X-211.5500 Y0.0000 Z5.5065 I-1.5500 J0.0000 F1999.80
G2 X-208.4500 Y0.0000 Z5.3097 I1.5500 J0.0000 F1999.80
G2 X-211.5500 Y0.0000 Z5.1129 I-1.5500 J0.0000 F1999.80
G2 X-208.4500 Y0.0000 Z4.9161 I1.5500 J0.0000 F1999.80
G2 X-211.5500 Y0.0000 Z4.7194 I-1.5500 J0.0000 F1999.80
G2 X-208.4500 Y0.0000 Z4.5226 I1.5500 J0.0000 F1999.80
G2 X-211.5500 Y0.0000 Z4.3258 I-1.5500 J0.0000 F1999.80
G2 X-208.4500 Y0.0000 Z4.1290 I1.5500 J0.0000 F1999.80
G2 X-211.5500 Y0.0000 Z3.9323 I-1.5500 J0.0000 F1999.80
G2 X-208.4500 Y0.0000 Z3.7355 I1.5500 J0.0000 F1999.80
G2 X-211.5500 Y0.0000 Z3.5387 I-1.5500 J0.0000 F1999.80
G2 X-208.4500 Y0.0000 Z3.3419 I1.5500 J0.0000 F1999.80
G2 X-211.5500 Y0.0000 Z3.1452 I-1.5500 J0.0000 F1999.80
G2 X-208.4500 Y0.0000 Z2.9484 I1.5500 J0.0000 F1999.80
G2 X-211.5500 Y0.0000 Z2.7516 I-1.5500 J0.0000 F1999.80
G2 X-208.4500 Y0.0000 Z2.5548 I1.5500 J0.0000 F1999.80
G2 X-211.5500 Y0.0000 Z2.3581 I-1.5500 J0.0000 F1999.80
G2 X-208.4500 Y0.0000 Z2.1613 I1.5500 J0.0000 F1999.80
G2 X-211.5500 Y0.0000 Z1.9645 I-1.5500 J0.0000 F1999.80
G2 X-208.4500 Y0.0000 Z1.7677 I1.5500 J0.0000 F1999.80
G2 X-211.5500 Y0.0000 Z1.5710 I-1.5500 J0.0000 F1999.80
G2 X-208.4500 Y0.0000 Z1.3742 I1.5500 J0.0000 F1999.80
G2 X-211.5500 Y0.0000 Z1.1774 I-1.5500 J0.0000 F1999.80
G2 X-208.4500 Y0.0000 Z0.9806 I1.5500 J0.0000 F1999.80
G2 X-211.5500 Y0.0000 Z0.7839 I-1.5500 J0.0000 F1999.80
G2 X-208.4500 Y0.0000 Z0.5871 I1.5500 J0.0000 F1999.80
G2 X-211.5500 Y0.0000 Z0.3903 I-1.5500 J0.0000 F1999.80
G2 X-208.4500 Y0.0000 Z0.1935 I1.5500 J0.0000 F1999.80
G2 X-211.5500 Y0.0000 Z-0.0032 I-1.5500 J0.0000 F1999.80
G2 X-208.4500 Y0.0000 Z-0.2000 I1.5500 J0.0000 F1999.80
G2 X-211.5500 Y0.0000 Z-0.2000 I-1.5500 J0.0000 F1999.80
G2 X-208.4500 Y0.0000 Z-0.2000 I1.5500 J0.0000 F1999.80
G0 Z15.0000
G0 X71.5500 Y0.0000
G0 Z15.0000
G1 Z12.0000 F999.60
G2 X68.4500 Y0.0000 Z11.8032 I-1.5500 J0.0000 F1999.80
G2 X71.5500 Y0.0000 Z11.6065 I1.5500 J0.0000 F1999.80
G2 X68.4500 Y0.0000 Z11.4097 I-1.5500 J0.0000 F1999.80
G2 X71.5500 Y0.0000 Z11.2129 I1.5500 J0.0000 F1999.80
G2 X68.4500 Y0.0000 Z11.0161 I-1.5500 J0.0000 F1999.80
G2 X71.5500 Y0.0000 Z10.8194 I1.5500 J0.0000 F1999.80
G2 X68.4500 Y0.0000 Z10.6226 I-1.5500 J0.0000 F1999.80
G2 X71.5500 Y0.0000 Z10.4258 I1.5500 J0.0000 F1999.80
G2 X68.4500 Y0.0000 Z10.2290 I-1.5500 J0.0000 F1999.80
G2 X71.5500 Y0.0000 Z10.0323 I1.5500 J0.0000 F1999.80
G2 X68.4500 Y0.0000 Z9.8355 I-1.5500 J0.0000 F1999.80
G2 X71.5500 Y0.0000 Z9.6387 I1.5500 J0.0000 F1999.80
G2 X68.4500 Y0.0000 Z9.4419 I-1.5500 J0.0000 F1999.80
G2 X71.5500 Y0.0000 Z9.2452 I1.5500 J0.0000 F1999.80
G2 X68.4500 Y0.0000 Z9.0484 I-1.5500 J0.0000 F1999.80
G2 X71.5500 Y0.0000 Z8.8516 I1.5500 J0.0000 F1999.80
G2 X68.4500 Y0.0000 Z8.6548 I-1.5500 J0.0000 F1999.80
G2 X71.5500 Y0.0000 Z8.4581 I1.5500 J0.0000 F1999.80
G2 X68.4500 Y0.0000 Z8.2613 I-1.5500 J0.0000 F1999.80
G2 X71.5500 Y0.0000 Z8.0645 I1.5500 J0.0000 F1999.80
G2 X68.4500 Y0.0000 Z7.8677 I-1.5500 J0.0000 F1999.80
G2 X71.5500 Y0.0000 Z7.6710 I1.5500 J0.0000 F1999.80
G2 X68.4500 Y0.0000 Z7.4742 I-1.5500 J0.0000 F1999.80
G2 X71.5500 Y0.0000 Z7.2774 I1.5500 J0.0000 F1999.80
G2 X68.4500 Y0.0000 Z7.0806 I-1.5500 J0.0000 F1999.80
G2 X71.5500 Y0.0000 Z6.8839 I1.5500 J0.0000 F1999.80
G2 X68.4500 Y0.0000 Z6.6871 I-1.5500 J0.0000 F1999.80
G2 X71.5500 Y0.0000 Z6.4903 I1.5500 J0.0000 F1999.80
G2 X68.4500 Y0.0000 Z6.2935 I-1.5500 J0.0000 F1999.80
G2 X71.5500 Y0.0000 Z6.0968 I1.5500 J0.0000 F1999.80
G2 X68.4500 Y0.0000 Z5.9000 I-1.5500 J0.0000 F1999.80
G2 X71.5500 Y0.0000 Z5.7032 I1.5500 J0.0000 F1999.80
G2 X68.4500 Y0.0000 Z5.5065 I-1.5500 J0.0000 F1999.80
G2 X71.5500 Y0.0000 Z5.3097 I1.5500 J0.0000 F1999.80
G2 X68.4500 Y0.0000 Z5.1129 I-1.5500 J0.0000 F1999.80
G2 X71.5500 Y0.0000 Z4.9161 I1.5500 J0.0000 F1999.80
G2 X68.4500 Y0.0000 Z4.7194 I-1.5500 J0.0000 F1999.80
G2 X71.5500 Y0.0000 Z4.5226 I1.5500 J0.0000 F1999.80
G2 X68.4500 Y0.0000 Z4.3258 I-1.5500 J0.0000 F1999.80
G2 X71.5500 Y0.0000 Z4.1290 I1.5500 J0.0000 F1999.80
G2 X68.4500 Y0.0000 Z3.9323 I-1.5500 J0.0000 F1999.80
G2 X71.5500 Y0.0000 Z3.7355 I1.5500 J0.0000 F1999.80
G2 X68.4500 Y0.0000 Z3.5387 I-1.5500 J0.0000 F1999.80
G2 X71.5500 Y0.0000 Z3.3419 I1.5500 J0.0000 F1999.80
G2 X68.4500 Y0.0000 Z3.1452 I-1.5500 J0.0000 F1999.80
G2 X71.5500 Y0.0000 Z2.9484 I1.5500 J0.0000 F1999.80
G2 X68.4500 Y0.0000 Z2.7516 I-1.5500 J0.0000 F1999.80
G2 X71.5500 Y0.0000 Z2.5548 I1.5500 J0.0000 F1999.80
G2 X68.4500 Y0.0000 Z2.3581 I-1.5500 J0.0000 F1999.80
G2 X71.5500 Y0.0000 Z2.1613 I1.5500 J0.0000 F1999.80
G2 X68.4500 Y0.0000 Z1.9645 I-1.5500 J0.0000 F1999.80
G2 X71.5500 Y0.0000 Z1.7677 I1.5500 J0.0000 F1999.80
G2 X68.4500 Y0.0000 Z1.5710 I-1.5500 J0.0000 F1999.80
G2 X71.5500 Y0.0000 Z1.3742 I1.5500 J0.0000 F1999.80
G2 X68.4500 Y0.0000 Z1.1774 I-1.5500 J0.0000 F1999.80
G2 X71.5500 Y0.0000 Z0.9806 I1.5500 J0.0000 F1999.80
G2 X68.4500 Y0.0000 Z0.7839 I-1.5500 J0.0000 F1999.80
G2 X71.5500 Y0.0000 Z0.5871 I1.5500 J0.0000 F1999.80
G2 X68.4500 Y0.0000 Z0.3903 I-1.5500 J0.0000 F1999.80
G2 X71.5500 Y0.0000 Z0.1935 I1.5500 J0.0000 F1999.80
G2 X68.4500 Y0.0000 Z-0.0032 I-1.5500 J0.0000 F1999.80
G2 X71.5500 Y0.0000 Z-0.2000 I1.5500 J0.0000 F1999.80
G2 X68.4500 Y0.0000 Z-0.2000 I-1.5500 J0.0000 F1999.80
G2 X71.5500 Y0.0000 Z-0.2000 I1.5500 J0.0000 F1999.80
G0 Z15.0000
G0 X-68.4500 Y0.0000
G0 Z15.0000
G1 Z12.0000 F999.60
G2 X-71.5500 Y0.0000 Z11.8032 I-1.5500 J0.0000 F1999.80
G2 X-68.4500 Y0.0000 Z11.6065 I1.5500 J0.0000 F1999.80
G2 X-71.5500 Y0.0000 Z11.4097 I-1.5500 J0.0000 F1999.80
G2 X-68.4500 Y0.0000 Z11.2129 I1.5500 J0.0000 F1999.80
G2 X-71.5500 Y0.0000 Z11.0161 I-1.5500 J0.0000 F1999.80
G2 X-68.4500 Y0.0000 Z10.8194 I1.5500 J0.0000 F1999.80
G2 X-71.5500 Y0.0000 Z10.6226 I-1.5500 J0.0000 F1999.80
G2 X-68.4500 Y0.0000 Z10.4258 I1.5500 J0.0000 F1999.80
G2 X-71.5500 Y0.0000 Z10.2290 I-1.5500 J0.0000 F1999.80
G2 X-68.4500 Y0.0000 Z10.0323 I1.5500 J0.0000 F1999.80
G2 X-71.5500 Y0.0000 Z9.8355 I-1.5500 J0.0000 F1999.80
G2 X-68.4500 Y0.0000 Z9.6387 I1.5500 J0.0000 F1999.80
G2 X-71.5500 Y0.0000 Z9.4419 I-1.5500 J0.0000 F1999.80
G2 X-68.4500 Y0.0000 Z9.2452 I1.5500 J0.0000 F1999.80
G2 X-71.5500 Y0.0000 Z9.0484 I-1.5500 J0.0000 F1999.80
G2 X-68.4500 Y0.0000 Z8.8516 I1.5500 J0.0000 F1999.80
G2 X-71.5500 Y0.0000 Z8.6548 I-1.5500 J0.0000 F1999.80
G2 X-68.4500 Y0.0000 Z8.4581 I1.5500 J0.0000 F1999.80
G2 X-71.5500 Y0.0000 Z8.2613 I-1.5500 J0.0000 F1999.80
G2 X-68.4500 Y0.0000 Z8.0645 I1.5500 J0.0000 F1999.80
G2 X-71.5500 Y0.0000 Z7.8677 I-1.5500 J0.0000 F1999.80
G2 X-68.4500 Y0.0000 Z7.6710 I1.5500 J0.0000 F1999.80
G2 X-71.5500 Y0.0000 Z7.4742 I-1.5500 J0.0000 F1999.80
G2 X-68.4500 Y0.0000 Z7.2774 I1.5500 J0.0000 F1999.80
G2 X-71.5500 Y0.0000 Z7.0806 I-1.5500 J0.0000 F1999.80
G2 X-68.4500 Y0.0000 Z6.8839 I1.5500 J0.0000 F1999.80
G2 X-71.5500 Y0.0000 Z6.6871 I-1.5500 J0.0000 F1999.80
G2 X-68.4500 Y0.0000 Z6.4903 I1.5500 J0.0000 F1999.80
G2 X-71.5500 Y0.0000 Z6.2935 I-1.5500 J0.0000 F1999.80
G2 X-68.4500 Y0.0000 Z6.0968 I1.5500 J0.0000 F1999.80
G2 X-71.5500 Y0.0000 Z5.9000 I-1.5500 J0.0000 F1999.80
G2 X-68.4500 Y0.0000 Z5.7032 I1.5500 J0.0000 F1999.80
G2 X-71.5500 Y0.0000 Z5.5065 I-1.5500 J0.0000 F1999.80
G2 X-68.4500 Y0.0000 Z5.3097 I1.5500 J0.0000 F1999.80
G2 X-71.5500 Y0.0000 Z5.1129 I-1.5500 J0.0000 F1999.80
G2 X-68.4500 Y0.0000 Z4.9161 I1.5500 J0.0000 F1999.80
G2 X-71.5500 Y0.0000 Z4.7194 I-1.5500 J0.0000 F1999.80
G2 X-68.4500 Y0.0000 Z4.5226 I1.5500 J0.0000 F1999.80
G2 X-71.5500 Y0.0000 Z4.3258 I-1.5500 J0.0000 F1999.80
G2 X-68.4500 Y0.0000 Z4.1290 I1.5500 J0.0000 F1999.80
G2 X-71.5500 Y0.0000 Z3.9323 I-1.5500 J0.0000 F1999.80
G2 X-68.4500 Y0.0000 Z3.7355 I1.5500 J0.0000 F1999.80
G2 X-71.5500 Y0.0000 Z3.5387 I-1.5500 J0.0000 F1999.80
G2 X-68.4500 Y0.0000 Z3.3419 I1.5500 J0.0000 F1999.80
G2 X-71.5500 Y0.0000 Z3.1452 I-1.5500 J0.0000 F1999.80
G2 X-68.4500 Y0.0000 Z2.9484 I1.5500 J0.0000 F1999.80
G2 X-71.5500 Y0.0000 Z2.7516 I-1.5500 J0.0000 F1999.80
G2 X-68.4500 Y0.0000 Z2.5548 I1.5500 J0.0000 F1999.80
G2 X-71.5500 Y0.0000 Z2.3581 I-1.5500 J0.0000 F1999.80
G2 X-68.4500 Y0.0000 Z2.1613 I1.5500 J0.0000 F1999.80
G2 X-71.5500 Y0.0000 Z1.9645 I-1.5500 J0.0000 F1999.80
G2 X-68.4500 Y0.0000 Z1.7677 I1.5500 J0.0000 F1999.80
G2 X-71.5500 Y0.0000 Z1.5710 I-1.5500 J0.0000 F1999.80
G2 X-68.4500 Y0.0000 Z1.3742 I1.5500 J0.0000 F1999.80
G2 X-71.5500 Y0.0000 Z1.1774 I-1.5500 J0.0000 F1999.80
G2 X-68.4500 Y0.0000 Z0.9806 I1.5500 J0.0000 F1999.80
G2 X-71.5500 Y0.0000 Z0.7839 I-1.5500 J0.0000 F1999.80
G2 X-68.4500 Y0.0000 Z0.5871 I1.5500 J0.0000 F1999.80
G2 X-71.5500 Y0.0000 Z0.3903 I-1.5500 J0.0000 F1999.80
G2 X-68.4500 Y0.0000 Z0.1935 I1.5500 J0.0000 F1999.80
G2 X-71.5500 Y0.0000 Z-0.0032 I-1.5500 J0.0000 F1999.80
G2 X-68.4500 Y0.0000 Z-0.2000 I1.5500 J0.0000 F1999.80
G2 X-71.5500 Y0.0000 Z-0.2000 I-1.5500 J0.0000 F1999.80
G2 X-68.4500 Y0.0000 Z-0.2000 I1.5500 J0.0000 F1999.80
G0 Z15.0000
G0 X211.5500 Y0.0000
G0 Z15.0000
G1 Z12.0000 F999.60
G2 X208.4500 Y0.0000 Z11.8032 I-1.5500 J0.0000 F1999.80
G2 X211.5500 Y0.0000 Z11.6065 I1.5500 J0.0000 F1999.80
G2 X208.4500 Y0.0000 Z11.4097 I-1.5500 J0.0000 F1999.80
G2 X211.5500 Y0.0000 Z11.2129 I1.5500 J0.0000 F1999.80
G2 X208.4500 Y0.0000 Z11.0161 I-1.5500 J0.0000 F1999.80
G2 X211.5500 Y0.0000 Z10.8194 I1.5500 J0.0000 F1999.80
G2 X208.4500 Y0.0000 Z10.6226 I-1.5500 J0.0000 F1999.80
G2 X211.5500 Y0.0000 Z10.4258 I1.5500 J0.0000 F1999.80
G2 X208.4500 Y0.0000 Z10.2290 I-1.5500 J0.0000 F1999.80
G2 X211.5500 Y0.0000 Z10.0323 I1.5500 J0.0000 F1999.80
G2 X208.4500 Y0.0000 Z9.8355 I-1.5500 J0.0000 F1999.80
G2 X211.5500 Y0.0000 Z9.6387 I1.5500 J0.0000 F1999.80
G2 X208.4500 Y0.0000 Z9.4419 I-1.5500 J0.0000 F1999.80
G2 X211.5500 Y0.0000 Z9.2452 I1.5500 J0.0000 F1999.80
G2 X208.4500 Y0.0000 Z9.0484 I-1.5500 J0.0000 F1999.80
G2 X211.5500 Y0.0000 Z8.8516 I1.5500 J0.0000 F1999.80
G2 X208.4500 Y0.0000 Z8.6548 I-1.5500 J0.0000 F1999.80
G2 X211.5500 Y0.0000 Z8.4581 I1.5500 J0.0000 F1999.80
G2 X208.4500 Y0.0000 Z8.2613 I-1.5500 J0.0000 F1999.80
G2 X211.5500 Y0.0000 Z8.0645 I1.5500 J0.0000 F1999.80
G2 X208.4500 Y0.0000 Z7.8677 I-1.5500 J0.0000 F1999.80
G2 X211.5500 Y0.0000 Z7.6710 I1.5500 J0.0000 F1999.80
G2 X208.4500 Y0.0000 Z7.4742 I-1.5500 J0.0000 F1999.80
G2 X211.5500 Y0.0000 Z7.2774 I1.5500 J0.0000 F1999.80
G2 X208.4500 Y0.0000 Z7.0806 I-1.5500 J0.0000 F1999.80
G2 X211.5500 Y0.0000 Z6.8839 I1.5500 J0.0000 F1999.80
G2 X208.4500 Y0.0000 Z6.6871 I-1.5500 J0.0000 F1999.80
G2 X211.5500 Y0.0000 Z6.4903 I1.5500 J0.0000 F1999.80
G2 X208.4500 Y0.0000 Z6.2935 I-1.5500 J0.0000 F1999.80
G2 X211.5500 Y0.0000 Z6.0968 I1.5500 J0.0000 F1999.80
G2 X208.4500 Y0.0000 Z5.9000 I-1.5500 J0.0000 F1999.80
G2 X211.5500 Y0.0000 Z5.7032 I1.5500 J0.0000 F1999.80
G2 X208.4500 Y0.0000 Z5.5065 I-1.5500 J0.0000 F1999.80
G2 X211.5500 Y0.0000 Z5.3097 I1.5500 J0.0000 F1999.80
G2 X208.4500 Y0.0000 Z5.1129 I-1.5500 J0.0000 F1999.80
G2 X211.5500 Y0.0000 Z4.9161 I1.5500 J0.0000 F1999.80
G2 X208.4500 Y0.0000 Z4.7194 I-1.5500 J0.0000 F1999.80
G2 X211.5500 Y0.0000 Z4.5226 I1.5500 J0.0000 F1999.80
G2 X208.4500 Y0.0000 Z4.3258 I-1.5500 J0.0000 F1999.80
G2 X211.5500 Y0.0000 Z4.1290 I1.5500 J0.0000 F1999.80
G2 X208.4500 Y0.0000 Z3.9323 I-1.5500 J0.0000 F1999.80
G2 X211.5500 Y0.0000 Z3.7355 I1.5500 J0.0000 F1999.80
G2 X208.4500 Y0.0000 Z3.5387 I-1.5500 J0.0000 F1999.80
G2 X211.5500 Y0.0000 Z3.3419 I1.5500 J0.0000 F1999.80
G2 X208.4500 Y0.0000 Z3.1452 I-1.5500 J0.0000 F1999.80
G2 X211.5500 Y0.0000 Z2.9484 I1.5500 J0.0000 F1999.80
G2 X208.4500 Y0.0000 Z2.7516 I-1.5500 J0.0000 F1999.80
G2 X211.5500 Y0.0000 Z2.5548 I1.5500 J0.0000 F1999.80
G2 X208.4500 Y0.0000 Z2.3581 I-1.5500 J0.0000 F1999.80
G2 X211.5500 Y0.0000 Z2.1613 I1.5500 J0.0000 F1999.80
G2 X208.4500 Y0.0000 Z1.9645 I-1.5500 J0.0000 F1999.80
G2 X211.5500 Y0.0000 Z1.7677 I1.5500 J0.0000 F1999.80
G2 X208.4500 Y0.0000 Z1.5710 I-1.5500 J0.0000 F1999.80
G2 X211.5500 Y0.0000 Z1.3742 I1.5500 J0.0000 F1999.80
G2 X208.4500 Y0.0000 Z1.1774 I-1.5500 J0.0000 F1999.80
G2 X211.5500 Y0.0000 Z0.9806 I1.5500 J0.0000 F1999.80
G2 X208.4500 Y0.0000 Z0.7839 I-1.5500 J0.0000 F1999.80
G2 X211.5500 Y0.0000 Z0.5871 I1.5500 J0.0000 F1999.80
G2 X208.4500 Y0.0000 Z0.3903 I-1.5500 J0.0000 F1999.80
G2 X211.5500 Y0.0000 Z0.1935 I1.5500 J0.0000 F1999.80
G2 X208.4500 Y0.0000 Z-0.0032 I-1.5500 J0.0000 F1999.80
G2 X211.5500 Y0.0000 Z-0.2000 I1.5500 J0.0000 F1999.80
G2 X208.4500 Y0.0000 Z-0.2000 I-1.5500 J0.0000 F1999.80
G2 X211.5500 Y0.0000 Z-0.2000 I1.5500 J0.0000 F1999.80
G0 Z15.0000
G0 Z17.0000
(finish operation: Through_Holes_Edge)
(begin operation: Counterbore_Edge)
(Path: Counterbore_Edge)
(Counterbore_Edge)
(helix cut operation)
G0 Z17.0000
G0 X71.5000 Y0.0000
G0 Z15.0000
G1 Z12.0000 F999.60
G2 X68.5000 Y0.0000 Z11.8000 I-1.5000 J0.0000 F1999.80
G2 X71.5000 Y0.0000 Z11.6000 I1.5000 J0.0000 F1999.80
G2 X68.5000 Y0.0000 Z11.4000 I-1.5000 J0.0000 F1999.80
G2 X71.5000 Y0.0000 Z11.2000 I1.5000 J0.0000 F1999.80
G2 X68.5000 Y0.0000 Z11.0000 I-1.5000 J0.0000 F1999.80
G2 X71.5000 Y0.0000 Z10.8000 I1.5000 J0.0000 F1999.80
G2 X68.5000 Y0.0000 Z10.6000 I-1.5000 J0.0000 F1999.80
G2 X71.5000 Y0.0000 Z10.4000 I1.5000 J0.0000 F1999.80
G2 X68.5000 Y0.0000 Z10.2000 I-1.5000 J0.0000 F1999.80
G2 X71.5000 Y0.0000 Z10.0000 I1.5000 J0.0000 F1999.80
G2 X68.5000 Y0.0000 Z9.8000 I-1.5000 J0.0000 F1999.80
G2 X71.5000 Y0.0000 Z9.6000 I1.5000 J0.0000 F1999.80
G2 X68.5000 Y0.0000 Z9.4000 I-1.5000 J0.0000 F1999.80
G2 X71.5000 Y0.0000 Z9.2000 I1.5000 J0.0000 F1999.80
G2 X68.5000 Y0.0000 Z9.0000 I-1.5000 J0.0000 F1999.80
G2 X71.5000 Y0.0000 Z8.8000 I1.5000 J0.0000 F1999.80
G2 X68.5000 Y0.0000 Z8.6000 I-1.5000 J0.0000 F1999.80
G2 X71.5000 Y0.0000 Z8.4000 I1.5000 J0.0000 F1999.80
G2 X68.5000 Y0.0000 Z8.2000 I-1.5000 J0.0000 F1999.80
G2 X71.5000 Y0.0000 Z8.0000 I1.5000 J0.0000 F1999.80
G2 X68.5000 Y0.0000 Z7.8000 I-1.5000 J0.0000 F1999.80
G2 X71.5000 Y0.0000 Z7.6000 I1.5000 J0.0000 F1999.80
G2 X68.5000 Y0.0000 Z7.4000 I-1.5000 J0.0000 F1999.80
G2 X71.5000 Y0.0000 Z7.2000 I1.5000 J0.0000 F1999.80
G2 X68.5000 Y0.0000 Z7.0000 I-1.5000 J0.0000 F1999.80
G2 X71.5000 Y0.0000 Z6.8000 I1.5000 J0.0000 F1999.80
G2 X68.5000 Y0.0000 Z6.6000 I-1.5000 J0.0000 F1999.80
G2 X71.5000 Y0.0000 Z6.4000 I1.5000 J0.0000 F1999.80
G2 X68.5000 Y0.0000 Z6.2000 I-1.5000 J0.0000 F1999.80
G2 X71.5000 Y0.0000 Z6.0000 I1.5000 J0.0000 F1999.80
G2 X68.5000 Y0.0000 Z6.0000 I-1.5000 J0.0000 F1999.80
G2 X71.5000 Y0.0000 Z6.0000 I1.5000 J0.0000 F1999.80
G0 Z15.0000
G0 X73.5000 Y0.0000
G0 Z15.0000
G1 Z12.0000 F999.60
G2 X66.5000 Y0.0000 Z11.8000 I-3.5000 J0.0000 F1999.80
G2 X73.5000 Y0.0000 Z11.6000 I3.5000 J0.0000 F1999.80
G2 X66.5000 Y0.0000 Z11.4000 I-3.5000 J0.0000 F1999.80
G2 X73.5000 Y0.0000 Z11.2000 I3.5000 J0.0000 F1999.80
G2 X66.5000 Y0.0000 Z11.0000 I-3.5000 J0.0000 F1999.80
G2 X73.5000 Y0.0000 Z10.8000 I3.5000 J0.0000 F1999.80
G2 X66.5000 Y0.0000 Z10.6000 I-3.5000 J0.0000 F1999.80
G2 X73.5000 Y0.0000 Z10.4000 I3.5000 J0.0000 F1999.80
G2 X66.5000 Y0.0000 Z10.2000 I-3.5000 J0.0000 F1999.80
G2 X73.5000 Y0.0000 Z10.0000 I3.5000 J0.0000 F1999.80
G2 X66.5000 Y0.0000 Z9.8000 I-3.5000 J0.0000 F1999.80
G2 X73.5000 Y0.0000 Z9.6000 I3.5000 J0.0000 F1999.80
G2 X66.5000 Y0.0000 Z9.4000 I-3.5000 J0.0000 F1999.80
G2 X73.5000 Y0.0000 Z9.2000 I3.5000 J0.0000 F1999.80
G2 X66.5000 Y0.0000 Z9.0000 I-3.5000 J0.0000 F1999.80
G2 X73.5000 Y0.0000 Z8.8000 I3.5000 J0.0000 F1999.80
G2 X66.5000 Y0.0000 Z8.6000 I-3.5000 J0.0000 F1999.80
G2 X73.5000 Y0.0000 Z8.4000 I3.5000 J0.0000 F1999.80
G2 X66.5000 Y0.0000 Z8.2000 I-3.5000 J0.0000 F1999.80
G2 X73.5000 Y0.0000 Z8.0000 I3.5000 J0.0000 F1999.80
G2 X66.5000 Y0.0000 Z7.8000 I-3.5000 J0.0000 F1999.80
G2 X73.5000 Y0.0000 Z7.6000 I3.5000 J0.0000 F1999.80
G2 X66.5000 Y0.0000 Z7.4000 I-3.5000 J0.0000 F1999.80
G2 X73.5000 Y0.0000 Z7.2000 I3.5000 J0.0000 F1999.80
G2 X66.5000 Y0.0000 Z7.0000 I-3.5000 J0.0000 F1999.80
G2 X73.5000 Y0.0000 Z6.8000 I3.5000 J0.0000 F1999.80
G2 X66.5000 Y0.0000 Z6.6000 I-3.5000 J0.0000 F1999.80
G2 X73.5000 Y0.0000 Z6.4000 I3.5000 J0.0000 F1999.80
G2 X66.5000 Y0.0000 Z6.2000 I-3.5000 J0.0000 F1999.80
G2 X73.5000 Y0.0000 Z6.0000 I3.5000 J0.0000 F1999.80
G2 X66.5000 Y0.0000 Z6.0000 I-3.5000 J0.0000 F1999.80
G2 X73.5000 Y0.0000 Z6.0000 I3.5000 J0.0000 F1999.80
G0 Z15.0000
G0 X75.5000 Y0.0000
G0 Z15.0000
G1 Z12.0000 F999.60
G2 X64.5000 Y0.0000 Z11.8000 I-5.5000 J0.0000 F1999.80
G2 X75.5000 Y0.0000 Z11.6000 I5.5000 J0.0000 F1999.80
G2 X64.5000 Y0.0000 Z11.4000 I-5.5000 J0.0000 F1999.80
G2 X75.5000 Y0.0000 Z11.2000 I5.5000 J0.0000 F1999.80
G2 X64.5000 Y0.0000 Z11.0000 I-5.5000 J0.0000 F1999.80
G2 X75.5000 Y0.0000 Z10.8000 I5.5000 J0.0000 F1999.80
G2 X64.5000 Y0.0000 Z10.6000 I-5.5000 J0.0000 F1999.80
G2 X75.5000 Y0.0000 Z10.4000 I5.5000 J0.0000 F1999.80
G2 X64.5000 Y0.0000 Z10.2000 I-5.5000 J0.0000 F1999.80
G2 X75.5000 Y0.0000 Z10.0000 I5.5000 J0.0000 F1999.80
G2 X64.5000 Y0.0000 Z9.8000 I-5.5000 J0.0000 F1999.80
G2 X75.5000 Y0.0000 Z9.6000 I5.5000 J0.0000 F1999.80
G2 X64.5000 Y0.0000 Z9.4000 I-5.5000 J0.0000 F1999.80
G2 X75.5000 Y0.0000 Z9.2000 I5.5000 J0.0000 F1999.80
G2 X64.5000 Y0.0000 Z9.0000 I-5.5000 J0.0000 F1999.80
G2 X75.5000 Y0.0000 Z8.8000 I5.5000 J0.0000 F1999.80
G2 X64.5000 Y0.0000 Z8.6000 I-5.5000 J0.0000 F1999.80
G2 X75.5000 Y0.0000 Z8.4000 I5.5000 J0.0000 F1999.80
G2 X64.5000 Y0.0000 Z8.2000 I-5.5000 J0.0000 F1999.80
G2 X75.5000 Y0.0000 Z8.0000 I5.5000 J0.0000 F1999.80
G2 X64.5000 Y0.0000 Z7.8000 I-5.5000 J0.0000 F1999.80
G2 X75.5000 Y0.0000 Z7.6000 I5.5000 J0.0000 F1999.80
G2 X64.5000 Y0.0000 Z7.4000 I-5.5000 J0.0000 F1999.80
G2 X75.5000 Y0.0000 Z7.2000 I5.5000 J0.0000 F1999.80
G2 X64.5000 Y0.0000 Z7.0000 I-5.5000 J0.0000 F1999.80
G2 X75.5000 Y0.0000 Z6.8000 I5.5000 J0.0000 F1999.80
G2 X64.5000 Y0.0000 Z6.6000 I-5.5000 J0.0000 F1999.80
G2 X75.5000 Y0.0000 Z6.4000 I5.5000 J0.0000 F1999.80
G2 X64.5000 Y0.0000 Z6.2000 I-5.5000 J0.0000 F1999.80
G2 X75.5000 Y0.0000 Z6.0000 I5.5000 J0.0000 F1999.80
G2 X64.5000 Y0.0000 Z6.0000 I-5.5000 J0.0000 F1999.80
G2 X75.5000 Y0.0000 Z6.0000 I5.5000 J0.0000 F1999.80
G0 Z15.0000
G0 X-68.5000 Y0.0000
G0 Z15.0000
G1 Z12.0000 F999.60
G2 X-71.5000 Y0.0000 Z11.8000 I-1.5000 J0.0000 F1999.80
G2 X-68.5000 Y0.0000 Z11.6000 I1.5000 J0.0000 F1999.80
G2 X-71.5000 Y0.0000 Z11.4000 I-1.5000 J0.0000 F1999.80
G2 X-68.5000 Y0.0000 Z11.2000 I1.5000 J0.0000 F1999.80
G2 X-71.5000 Y0.0000 Z11.0000 I-1.5000 J0.0000 F1999.80
G2 X-68.5000 Y0.0000 Z10.8000 I1.5000 J0.0000 F1999.80
G2 X-71.5000 Y0.0000 Z10.6000 I-1.5000 J0.0000 F1999.80
G2 X-68.5000 Y0.0000 Z10.4000 I1.5000 J0.0000 F1999.80
G2 X-71.5000 Y0.0000 Z10.2000 I-1.5000 J0.0000 F1999.80
G2 X-68.5000 Y0.0000 Z10.0000 I1.5000 J0.0000 F1999.80
G2 X-71.5000 Y0.0000 Z9.8000 I-1.5000 J0.0000 F1999.80
G2 X-68.5000 Y0.0000 Z9.6000 I1.5000 J0.0000 F1999.80
G2 X-71.5000 Y0.0000 Z9.4000 I-1.5000 J0.0000 F1999.80
G2 X-68.5000 Y0.0000 Z9.2000 I1.5000 J0.0000 F1999.80
G2 X-71.5000 Y0.0000 Z9.0000 I-1.5000 J0.0000 F1999.80
G2 X-68.5000 Y0.0000 Z8.8000 I1.5000 J0.0000 F1999.80
G2 X-71.5000 Y0.0000 Z8.6000 I-1.5000 J0.0000 F1999.80
G2 X-68.5000 Y0.0000 Z8.4000 I1.5000 J0.0000 F1999.80
G2 X-71.5000 Y0.0000 Z8.2000 I-1.5000 J0.0000 F1999.80
G2 X-68.5000 Y0.0000 Z8.0000 I1.5000 J0.0000 F1999.80
G2 X-71.5000 Y0.0000 Z7.8000 I-1.5000 J0.0000 F1999.80
G2 X-68.5000 Y0.0000 Z7.6000 I1.5000 J0.0000 F1999.80
G2 X-71.5000 Y0.0000 Z7.4000 I-1.5000 J0.0000 F1999.80
G2 X-68.5000 Y0.0000 Z7.2000 I1.5000 J0.0000 F1999.80
G2 X-71.5000 Y0.0000 Z7.0000 I-1.5000 J0.0000 F1999.80
G2 X-68.5000 Y0.0000 Z6.8000 I1.5000 J0.0000 F1999.80
G2 X-71.5000 Y0.0000 Z6.6000 I-1.5000 J0.0000 F1999.80
G2 X-68.5000 Y0.0000 Z6.4000 I1.5000 J0.0000 F1999.80
G2 X-71.5000 Y0.0000 Z6.2000 I-1.5000 J0.0000 F1999.80
G2 X-68.5000 Y0.0000 Z6.0000 I1.5000 J0.0000 F1999.80
G2 X-71.5000 Y0.0000 Z6.0000 I-1.5000 J0.0000 F1999.80
G2 X-68.5000 Y0.0000 Z6.0000 I1.5000 J0.0000 F1999.80
G0 Z15.0000
G0 X-66.5000 Y0.0000
G0 Z15.0000
G1 Z12.0000 F999.60
G2 X-73.5000 Y0.0000 Z11.8000 I-3.5000 J0.0000 F1999.80
G2 X-66.5000 Y0.0000 Z11.6000 I3.5000 J0.0000 F1999.80
G2 X-73.5000 Y0.0000 Z11.4000 I-3.5000 J0.0000 F1999.80
G2 X-66.5000 Y0.0000 Z11.2000 I3.5000 J0.0000 F1999.80
G2 X-73.5000 Y0.0000 Z11.0000 I-3.5000 J0.0000 F1999.80
G2 X-66.5000 Y0.0000 Z10.8000 I3.5000 J0.0000 F1999.80
G2 X-73.5000 Y0.0000 Z10.6000 I-3.5000 J0.0000 F1999.80
G2 X-66.5000 Y0.0000 Z10.4000 I3.5000 J0.0000 F1999.80
G2 X-73.5000 Y0.0000 Z10.2000 I-3.5000 J0.0000 F1999.80
G2 X-66.5000 Y0.0000 Z10.0000 I3.5000 J0.0000 F1999.80
G2 X-73.5000 Y0.0000 Z9.8000 I-3.5000 J0.0000 F1999.80
G2 X-66.5000 Y0.0000 Z9.6000 I3.5000 J0.0000 F1999.80
G2 X-73.5000 Y0.0000 Z9.4000 I-3.5000 J0.0000 F1999.80
G2 X-66.5000 Y0.0000 Z9.2000 I3.5000 J0.0000 F1999.80
G2 X-73.5000 Y0.0000 Z9.0000 I-3.5000 J0.0000 F1999.80
G2 X-66.5000 Y0.0000 Z8.8000 I3.5000 J0.0000 F1999.80
G2 X-73.5000 Y0.0000 Z8.6000 I-3.5000 J0.0000 F1999.80
G2 X-66.5000 Y0.0000 Z8.4000 I3.5000 J0.0000 F1999.80
G2 X-73.5000 Y0.0000 Z8.2000 I-3.5000 J0.0000 F1999.80
G2 X-66.5000 Y0.0000 Z8.0000 I3.5000 J0.0000 F1999.80
G2 X-73.5000 Y0.0000 Z7.8000 I-3.5000 J0.0000 F1999.80
G2 X-66.5000 Y0.0000 Z7.6000 I3.5000 J0.0000 F1999.80
G2 X-73.5000 Y0.0000 Z7.4000 I-3.5000 J0.0000 F1999.80
G2 X-66.5000 Y0.0000 Z7.2000 I3.5000 J0.0000 F1999.80
G2 X-73.5000 Y0.0000 Z7.0000 I-3.5000 J0.0000 F1999.80
G2 X-66.5000 Y0.0000 Z6.8000 I3.5000 J0.0000 F1999.80
G2 X-73.5000 Y0.0000 Z6.6000 I-3.5000 J0.0000 F1999.80
G2 X-66.5000 Y0.0000 Z6.4000 I3.5000 J0.0000 F1999.80
G2 X-73.5000 Y0.0000 Z6.2000 I-3.5000 J0.0000 F1999.80
G2 X-66.5000 Y0.0000 Z6.0000 I3.5000 J0.0000 F1999.80
G2 X-73.5000 Y0.0000 Z6.0000 I-3.5000 J0.0000 F1999.80
G2 X-66.5000 Y0.0000 Z6.0000 I3.5000 J0.0000 F1999.80
G0 Z15.0000
G0 X-64.5000 Y0.0000
G0 Z15.0000
G1 Z12.0000 F999.60
G2 X-75.5000 Y0.0000 Z11.8000 I-5.5000 J0.0000 F1999.80
G2 X-64.5000 Y0.0000 Z11.6000 I5.5000 J0.0000 F1999.80
G2 X-75.5000 Y0.0000 Z11.4000 I-5.5000 J0.0000 F1999.80
G2 X-64.5000 Y0.0000 Z11.2000 I5.5000 J0.0000 F1999.80
G2 X-75.5000 Y0.0000 Z11.0000 I-5.5000 J0.0000 F1999.80
G2 X-64.5000 Y0.0000 Z10.8000 I5.5000 J0.0000 F1999.80
G2 X-75.5000 Y0.0000 Z10.6000 I-5.5000 J0.0000 F1999.80
G2 X-64.5000 Y0.0000 Z10.4000 I5.5000 J0.0000 F1999.80
G2 X-75.5000 Y0.0000 Z10.2000 I-5.5000 J0.0000 F1999.80
G2 X-64.5000 Y0.0000 Z10.0000 I5.5000 J0.0000 F1999.80
G2 X-75.5000 Y0.0000 Z9.8000 I-5.5000 J0.0000 F1999.80
G2 X-64.5000 Y0.0000 Z9.6000 I5.5000 J0.0000 F1999.80
G2 X-75.5000 Y0.0000 Z9.4000 I-5.5000 J0.0000 F1999.80
G2 X-64.5000 Y0.0000 Z9.2000 I5.5000 J0.0000 F1999.80
G2 X-75.5000 Y0.0000 Z9.0000 I-5.5000 J0.0000 F1999.80
G2 X-64.5000 Y0.0000 Z8.8000 I5.5000 J0.0000 F1999.80
G2 X-75.5000 Y0.0000 Z8.6000 I-5.5000 J0.0000 F1999.80
G2 X-64.5000 Y0.0000 Z8.4000 I5.5000 J0.0000 F1999.80
G2 X-75.5000 Y0.0000 Z8.2000 I-5.5000 J0.0000 F1999.80
G2 X-64.5000 Y0.0000 Z8.0000 I5.5000 J0.0000 F1999.80
G2 X-75.5000 Y0.0000 Z7.8000 I-5.5000 J0.0000 F1999.80
G2 X-64.5000 Y0.0000 Z7.6000 I5.5000 J0.0000 F1999.80
G2 X-75.5000 Y0.0000 Z7.4000 I-5.5000 J0.0000 F1999.80
G2 X-64.5000 Y0.0000 Z7.2000 I5.5000 J0.0000 F1999.80
G2 X-75.5000 Y0.0000 Z7.0000 I-5.5000 J0.0000 F1999.80
G2 X-64.5000 Y0.0000 Z6.8000 I5.5000 J0.0000 F1999.80
G2 X-75.5000 Y0.0000 Z6.6000 I-5.5000 J0.0000 F1999.80
G2 X-64.5000 Y0.0000 Z6.4000 I5.5000 J0.0000 F1999.80
G2 X-75.5000 Y0.0000 Z6.2000 I-5.5000 J0.0000 F1999.80
G2 X-64.5000 Y0.0000 Z6.0000 I5.5000 J0.0000 F1999.80
G2 X-75.5000 Y0.0000 Z6.0000 I-5.5000 J0.0000 F1999.80
G2 X-64.5000 Y0.0000 Z6.0000 I5.5000 J0.0000 F1999.80
G0 Z15.0000
G0 X211.5000 Y0.0000
G0 Z15.0000
G1 Z12.0000 F999.60
G2 X208.5000 Y0.0000 Z11.8000 I-1.5000 J0.0000 F1999.80
G2 X211.5000 Y0.0000 Z11.6000 I1.5000 J0.0000 F1999.80
G2 X208.5000 Y0.0000 Z11.4000 I-1.5000 J0.0000 F1999.80
G2 X211.5000 Y0.0000 Z11.2000 I1.5000 J0.0000 F1999.80
G2 X208.5000 Y0.0000 Z11.0000 I-1.5000 J0.0000 F1999.80
G2 X211.5000 Y0.0000 Z10.8000 I1.5000 J0.0000 F1999.80
G2 X208.5000 Y0.0000 Z10.6000 I-1.5000 J0.0000 F1999.80
G2 X211.5000 Y0.0000 Z10.4000 I1.5000 J0.0000 F1999.80
G2 X208.5000 Y0.0000 Z10.2000 I-1.5000 J0.0000 F1999.80
G2 X211.5000 Y0.0000 Z10.0000 I1.5000 J0.0000 F1999.80
G2 X208.5000 Y0.0000 Z9.8000 I-1.5000 J0.0000 F1999.80
G2 X211.5000 Y0.0000 Z9.6000 I1.5000 J0.0000 F1999.80
G2 X208.5000 Y0.0000 Z9.4000 I-1.5000 J0.0000 F1999.80
G2 X211.5000 Y0.0000 Z9.2000 I1.5000 J0.0000 F1999.80
G2 X208.5000 Y0.0000 Z9.0000 I-1.5000 J0.0000 F1999.80
G2 X211.5000 Y0.0000 Z8.8000 I1.5000 J0.0000 F1999.80
G2 X208.5000 Y0.0000 Z8.6000 I-1.5000 J0.0000 F1999.80
G2 X211.5000 Y0.0000 Z8.4000 I1.5000 J0.0000 F1999.80
G2 X208.5000 Y0.0000 Z8.2000 I-1.5000 J0.0000 F1999.80
G2 X211.5000 Y0.0000 Z8.0000 I1.5000 J0.0000 F1999.80
G2 X208.5000 Y0.0000 Z7.8000 I-1.5000 J0.0000 F1999.80
G2 X211.5000 Y0.0000 Z7.6000 I1.5000 J0.0000 F1999.80
G2 X208.5000 Y0.0000 Z7.4000 I-1.5000 J0.0000 F1999.80
G2 X211.5000 Y0.0000 Z7.2000 I1.5000 J0.0000 F1999.80
G2 X208.5000 Y0.0000 Z7.0000 I-1.5000 J0.0000 F1999.80
G2 X211.5000 Y0.0000 Z6.8000 I1.5000 J0.0000 F1999.80
G2 X208.5000 Y0.0000 Z6.6000 I-1.5000 J0.0000 F1999.80
G2 X211.5000 Y0.0000 Z6.4000 I1.5000 J0.0000 F1999.80
G2 X208.5000 Y0.0000 Z6.2000 I-1.5000 J0.0000 F1999.80
G2 X211.5000 Y0.0000 Z6.0000 I1.5000 J0.0000 F1999.80
G2 X208.5000 Y0.0000 Z6.0000 I-1.5000 J0.0000 F1999.80
G2 X211.5000 Y0.0000 Z6.0000 I1.5000 J0.0000 F1999.80
G0 Z15.0000
G0 X213.5000 Y0.0000
G0 Z15.0000
G1 Z12.0000 F999.60
G2 X206.5000 Y0.0000 Z11.8000 I-3.5000 J0.0000 F1999.80
G2 X213.5000 Y0.0000 Z11.6000 I3.5000 J0.0000 F1999.80
G2 X206.5000 Y0.0000 Z11.4000 I-3.5000 J0.0000 F1999.80
G2 X213.5000 Y0.0000 Z11.2000 I3.5000 J0.0000 F1999.80
G2 X206.5000 Y0.0000 Z11.0000 I-3.5000 J0.0000 F1999.80
G2 X213.5000 Y0.0000 Z10.8000 I3.5000 J0.0000 F1999.80
G2 X206.5000 Y0.0000 Z10.6000 I-3.5000 J0.0000 F1999.80
G2 X213.5000 Y0.0000 Z10.4000 I3.5000 J0.0000 F1999.80
G2 X206.5000 Y0.0000 Z10.2000 I-3.5000 J0.0000 F1999.80
G2 X213.5000 Y0.0000 Z10.0000 I3.5000 J0.0000 F1999.80
G2 X206.5000 Y0.0000 Z9.8000 I-3.5000 J0.0000 F1999.80
G2 X213.5000 Y0.0000 Z9.6000 I3.5000 J0.0000 F1999.80
G2 X206.5000 Y0.0000 Z9.4000 I-3.5000 J0.0000 F1999.80
G2 X213.5000 Y0.0000 Z9.2000 I3.5000 J0.0000 F1999.80
G2 X206.5000 Y0.0000 Z9.0000 I-3.5000 J0.0000 F1999.80
G2 X213.5000 Y0.0000 Z8.8000 I3.5000 J0.0000 F1999.80
G2 X206.5000 Y0.0000 Z8.6000 I-3.5000 J0.0000 F1999.80
G2 X213.5000 Y0.0000 Z8.4000 I3.5000 J0.0000 F1999.80
G2 X206.5000 Y0.0000 Z8.2000 I-3.5000 J0.0000 F1999.80
G2 X213.5000 Y0.0000 Z8.0000 I3.5000 J0.0000 F1999.80
G2 X206.5000 Y0.0000 Z7.8000 I-3.5000 J0.0000 F1999.80
G2 X213.5000 Y0.0000 Z7.6000 I3.5000 J0.0000 F1999.80
G2 X206.5000 Y0.0000 Z7.4000 I-3.5000 J0.0000 F1999.80
G2 X213.5000 Y0.0000 Z7.2000 I3.5000 J0.0000 F1999.80
G2 X206.5000 Y0.0000 Z7.0000 I-3.5000 J0.0000 F1999.80
G2 X213.5000 Y0.0000 Z6.8000 I3.5000 J0.0000 F1999.80
G2 X206.5000 Y0.0000 Z6.6000 I-3.5000 J0.0000 F1999.80
G2 X213.5000 Y0.0000 Z6.4000 I3.5000 J0.0000 F1999.80
G2 X206.5000 Y0.0000 Z6.2000 I-3.5000 J0.0000 F1999.80
G2 X213.5000 Y0.0000 Z6.0000 I3.5000 J0.0000 F1999.80
G2 X206.5000 Y0.0000 Z6.0000 I-3.5000 J0.0000 F1999.80
G2 X213.5000 Y0.0000 Z6.0000 I3.5000 J0.0000 F1999.80
G0 Z15.0000
G0 X215.5000 Y0.0000
G0 Z15.0000
G1 Z12.0000 F999.60
G2 X204.5000 Y0.0000 Z11.8000 I-5.5000 J0.0000 F1999.80
G2 X215.5000 Y0.0000 Z11.6000 I5.5000 J0.0000 F1999.80
G2 X204.5000 Y0.0000 Z11.4000 I-5.5000 J0.0000 F1999.80
G2 X215.5000 Y0.0000 Z11.2000 I5.5000 J0.0000 F1999.80
G2 X204.5000 Y0.0000 Z11.0000 I-5.5000 J0.0000 F1999.80
G2 X215.5000 Y0.0000 Z10.8000 I5.5000 J0.0000 F1999.80
G2 X204.5000 Y0.0000 Z10.6000 I-5.5000 J0.0000 F1999.80
G2 X215.5000 Y0.0000 Z10.4000 I5.5000 J0.0000 F1999.80
G2 X204.5000 Y0.0000 Z10.2000 I-5.5000 J0.0000 F1999.80
G2 X215.5000 Y0.0000 Z10.0000 I5.5000 J0.0000 F1999.80
G2 X204.5000 Y0.0000 Z9.8000 I-5.5000 J0.0000 F1999.80
G2 X215.5000 Y0.0000 Z9.6000 I5.5000 J0.0000 F1999.80
G2 X204.5000 Y0.0000 Z9.4000 I-5.5000 J0.0000 F1999.80
G2 X215.5000 Y0.0000 Z9.2000 I5.5000 J0.0000 F1999.80
G2 X204.5000 Y0.0000 Z9.0000 I-5.5000 J0.0000 F1999.80
G2 X215.5000 Y0.0000 Z8.8000 I5.5000 J0.0000 F1999.80
G2 X204.5000 Y0.0000 Z8.6000 I-5.5000 J0.0000 F1999.80
G2 X215.5000 Y0.0000 Z8.4000 I5.5000 J0.0000 F1999.80
G2 X204.5000 Y0.0000 Z8.2000 I-5.5000 J0.0000 F1999.80
G2 X215.5000 Y0.0000 Z8.0000 I5.5000 J0.0000 F1999.80
G2 X204.5000 Y0.0000 Z7.8000 I-5.5000 J0.0000 F1999.80
G2 X215.5000 Y0.0000 Z7.6000 I5.5000 J0.0000 F1999.80
G2 X204.5000 Y0.0000 Z7.4000 I-5.5000 J0.0000 F1999.80
G2 X215.5000 Y0.0000 Z7.2000 I5.5000 J0.0000 F1999.80
G2 X204.5000 Y0.0000 Z7.0000 I-5.5000 J0.0000 F1999.80
G2 X215.5000 Y0.0000 Z6.8000 I5.5000 J0.0000 F1999.80
G2 X204.5000 Y0.0000 Z6.6000 I-5.5000 J0.0000 F1999.80
G2 X215.5000 Y0.0000 Z6.4000 I5.5000 J0.0000 F1999.80
G2 X204.5000 Y0.0000 Z6.2000 I-5.5000 J0.0000 F1999.80
G2 X215.5000 Y0.0000 Z6.0000 I5.5000 J0.0000 F1999.80
G2 X204.5000 Y0.0000 Z6.0000 I-5.5000 J0.0000 F1999.80
G2 X215.5000 Y0.0000 Z6.0000 I5.5000 J0.0000 F1999.80
G0 Z15.0000
G0 X-208.5000 Y0.0000
G0 Z15.0000
G1 Z12.0000 F999.60
G2 X-211.5000 Y0.0000 Z11.8000 I-1.5000 J0.0000 F1999.80
G2 X-208.5000 Y0.0000 Z11.6000 I1.5000 J0.0000 F1999.80
G2 X-211.5000 Y0.0000 Z11.4000 I-1.5000 J0.0000 F1999.80
G2 X-208.5000 Y0.0000 Z11.2000 I1.5000 J0.0000 F1999.80
G2 X-211.5000 Y0.0000 Z11.0000 I-1.5000 J0.0000 F1999.80
G2 X-208.5000 Y0.0000 Z10.8000 I1.5000 J0.0000 F1999.80
G2 X-211.5000 Y0.0000 Z10.6000 I-1.5000 J0.0000 F1999.80
G2 X-208.5000 Y0.0000 Z10.4000 I1.5000 J0.0000 F1999.80
G2 X-211.5000 Y0.0000 Z10.2000 I-1.5000 J0.0000 F1999.80
G2 X-208.5000 Y0.0000 Z10.0000 I1.5000 J0.0000 F1999.80
G2 X-211.5000 Y0.0000 Z9.8000 I-1.5000 J0.0000 F1999.80
G2 X-208.5000 Y0.0000 Z9.6000 I1.5000 J0.0000 F1999.80
G2 X-211.5000 Y0.0000 Z9.4000 I-1.5000 J0.0000 F1999.80
G2 X-208.5000 Y0.0000 Z9.2000 I1.5000 J0.0000 F1999.80
G2 X-211.5000 Y0.0000 Z9.0000 I-1.5000 J0.0000 F1999.80
G2 X-208.5000 Y0.0000 Z8.8000 I1.5000 J0.0000 F1999.80
G2 X-211.5000 Y0.0000 Z8.6000 I-1.5000 J0.0000 F1999.80
G2 X-208.5000 Y0.0000 Z8.4000 I1.5000 J0.0000 F1999.80
G2 X-211.5000 Y0.0000 Z8.2000 I-1.5000 J0.0000 F1999.80
G2 X-208.5000 Y0.0000 Z8.0000 I1.5000 J0.0000 F1999.80
G2 X-211.5000 Y0.0000 Z7.8000 I-1.5000 J0.0000 F1999.80
G2 X-208.5000 Y0.0000 Z7.6000 I1.5000 J0.0000 F1999.80
G2 X-211.5000 Y0.0000 Z7.4000 I-1.5000 J0.0000 F1999.80
G2 X-208.5000 Y0.0000 Z7.2000 I1.5000 J0.0000 F1999.80
G2 X-211.5000 Y0.0000 Z7.0000 I-1.5000 J0.0000 F1999.80
G2 X-208.5000 Y0.0000 Z6.8000 I1.5000 J0.0000 F1999.80
G2 X-211.5000 Y0.0000 Z6.6000 I-1.5000 J0.0000 F1999.80
G2 X-208.5000 Y0.0000 Z6.4000 I1.5000 J0.0000 F1999.80
G2 X-211.5000 Y0.0000 Z6.2000 I-1.5000 J0.0000 F1999.80
G2 X-208.5000 Y0.0000 Z6.0000 I1.5000 J0.0000 F1999.80
G2 X-211.5000 Y0.0000 Z6.0000 I-1.5000 J0.0000 F1999.80
G2 X-208.5000 Y0.0000 Z6.0000 I1.5000 J0.0000 F1999.80
G0 Z15.0000
G0 X-206.5000 Y0.0000
G0 Z15.0000
G1 Z12.0000 F999.60
G2 X-213.5000 Y0.0000 Z11.8000 I-3.5000 J0.0000 F1999.80
G2 X-206.5000 Y0.0000 Z11.6000 I3.5000 J0.0000 F1999.80
G2 X-213.5000 Y0.0000 Z11.4000 I-3.5000 J0.0000 F1999.80
G2 X-206.5000 Y0.0000 Z11.2000 I3.5000 J0.0000 F1999.80
G2 X-213.5000 Y0.0000 Z11.0000 I-3.5000 J0.0000 F1999.80
G2 X-206.5000 Y0.0000 Z10.8000 I3.5000 J0.0000 F1999.80
G2 X-213.5000 Y0.0000 Z10.6000 I-3.5000 J0.0000 F1999.80
G2 X-206.5000 Y0.0000 Z10.4000 I3.5000 J0.0000 F1999.80
G2 X-213.5000 Y0.0000 Z10.2000 I-3.5000 J0.0000 F1999.80
G2 X-206.5000 Y0.0000 Z10.0000 I3.5000 J0.0000 F1999.80
G2 X-213.5000 Y0.0000 Z9.8000 I-3.5000 J0.0000 F1999.80
G2 X-206.5000 Y0.0000 Z9.6000 I3.5000 J0.0000 F1999.80
G2 X-213.5000 Y0.0000 Z9.4000 I-3.5000 J0.0000 F1999.80
G2 X-206.5000 Y0.0000 Z9.2000 I3.5000 J0.0000 F1999.80
G2 X-213.5000 Y0.0000 Z9.0000 I-3.5000 J0.0000 F1999.80
G2 X-206.5000 Y0.0000 Z8.8000 I3.5000 J0.0000 F1999.80
G2 X-213.5000 Y0.0000 Z8.6000 I-3.5000 J0.0000 F1999.80
G2 X-206.5000 Y0.0000 Z8.4000 I3.5000 J0.0000 F1999.80
G2 X-213.5000 Y0.0000 Z8.2000 I-3.5000 J0.0000 F1999.80
G2 X-206.5000 Y0.0000 Z8.0000 I3.5000 J0.0000 F1999.80
G2 X-213.5000 Y0.0000 Z7.8000 I-3.5000 J0.0000 F1999.80
G2 X-206.5000 Y0.0000 Z7.6000 I3.5000 J0.0000 F1999.80
G2 X-213.5000 Y0.0000 Z7.4000 I-3.5000 J0.0000 F1999.80
G2 X-206.5000 Y0.0000 Z7.2000 I3.5000 J0.0000 F1999.80
G2 X-213.5000 Y0.0000 Z7.0000 I-3.5000 J0.0000 F1999.80
G2 X-206.5000 Y0.0000 Z6.8000 I3.5000 J0.0000 F1999.80
G2 X-213.5000 Y0.0000 Z6.6000 I-3.5000 J0.0000 F1999.80
G2 X-206.5000 Y0.0000 Z6.4000 I3.5000 J0.0000 F1999.80
G2 X-213.5000 Y0.0000 Z6.2000 I-3.5000 J0.0000 F1999.80
G2 X-206.5000 Y0.0000 Z6.0000 I3.5000 J0.0000 F1999.80
G2 X-213.5000 Y0.0000 Z6.0000 I-3.5000 J0.0000 F1999.80
G2 X-206.5000 Y0.0000 Z6.0000 I3.5000 J0.0000 F1999.80
G0 Z15.0000
G0 X-204.5000 Y0.0000
G0 Z15.0000
G1 Z12.0000 F999.60
G2 X-215.5000 Y0.0000 Z11.8000 I-5.5000 J0.0000 F1999.80
G2 X-204.5000 Y0.0000 Z11.6000 I5.5000 J0.0000 F1999.80
G2 X-215.5000 Y0.0000 Z11.4000 I-5.5000 J0.0000 F1999.80
G2 X-204.5000 Y0.0000 Z11.2000 I5.5000 J0.0000 F1999.80
G2 X-215.5000 Y0.0000 Z11.0000 I-5.5000 J0.0000 F1999.80
G2 X-204.5000 Y0.0000 Z10.8000 I5.5000 J0.0000 F1999.80
G2 X-215.5000 Y0.0000 Z10.6000 I-5.5000 J0.0000 F1999.80
G2 X-204.5000 Y0.0000 Z10.4000 I5.5000 J0.0000 F1999.80
G2 X-215.5000 Y0.0000 Z10.2000 I-5.5000 J0.0000 F1999.80
G2 X-204.5000 Y0.0000 Z10.0000 I5.5000 J0.0000 F1999.80
G2 X-215.5000 Y0.0000 Z9.8000 I-5.5000 J0.0000 F1999.80
G2 X-204.5000 Y0.0000 Z9.6000 I5.5000 J0.0000 F1999.80
G2 X-215.5000 Y0.0000 Z9.4000 I-5.5000 J0.0000 F1999.80
G2 X-204.5000 Y0.0000 Z9.2000 I5.5000 J0.0000 F1999.80
G2 X-215.5000 Y0.0000 Z9.0000 I-5.5000 J0.0000 F1999.80
G2 X-204.5000 Y0.0000 Z8.8000 I5.5000 J0.0000 F1999.80
G2 X-215.5000 Y0.0000 Z8.6000 I-5.5000 J0.0000 F1999.80
G2 X-204.5000 Y0.0000 Z8.4000 I5.5000 J0.0000 F1999.80
G2 X-215.5000 Y0.0000 Z8.2000 I-5.5000 J0.0000 F1999.80
G2 X-204.5000 Y0.0000 Z8.0000 I5.5000 J0.0000 F1999.80
G2 X-215.5000 Y0.0000 Z7.8000 I-5.5000 J0.0000 F1999.80
G2 X-204.5000 Y0.0000 Z7.6000 I5.5000 J0.0000 F1999.80
G2 X-215.5000 Y0.0000 Z7.4000 I-5.5000 J0.0000 F1999.80
G2 X-204.5000 Y0.0000 Z7.2000 I5.5000 J0.0000 F1999.80
G2 X-215.5000 Y0.0000 Z7.0000 I-5.5000 J0.0000 F1999.80
G2 X-204.5000 Y0.0000 Z6.8000 I5.5000 J0.0000 F1999.80
G2 X-215.5000 Y0.0000 Z6.6000 I-5.5000 J0.0000 F1999.80
G2 X-204.5000 Y0.0000 Z6.4000 I5.5000 J0.0000 F1999.80
G2 X-215.5000 Y0.0000 Z6.2000 I-5.5000 J0.0000 F1999.80
G2 X-204.5000 Y0.0000 Z6.0000 I5.5000 J0.0000 F1999.80
G2 X-215.5000 Y0.0000 Z6.0000 I-5.5000 J0.0000 F1999.80
G2 X-204.5000 Y0.0000 Z6.0000 I5.5000 J0.0000 F1999.80
G0 Z15.0000
G0 Z17.0000
(finish operation: Counterbore_Edge)
(begin operation: Through_Holes_Body)
(Path: Through_Holes_Body)
(inactive operation)
(finish operation: Through_Holes_Body)
(begin operation: Counterbore_Body)
(Path: Counterbore_Body)
(inactive operation)
(finish operation: Counterbore_Body)
(begin postamble)
M5
G17 G90
; M2
