(Exported by FreeCAD)
(Post Processor: grbl_post)
(Output Time:2020-01-05 16:43:57.371762)
(begin preamble)
G17 G90
G21
(begin operation: T5: Flattener)
(Path: T5: Flattener)
(T5: Flattener)
(begin toolchange)
; M6 T5
M3 S3000.0000
(finish operation: T5: Flattener)
(begin operation: Flatten_Center)
(Path: Flatten_Center)
(Flatten_Center)
G0 Z5.0000
G0 X249.9909 Y509.9909
G0 Z3.0000
G1 X249.9909 Y509.9909 Z-0.5000 F600.00
G1 X250.0000 Y509.7818 Z-0.5000 F1800.00
G1 X250.0000 Y20.2182 Z-0.5000 F1800.00
G1 X249.9909 Y20.0091 Z-0.5000 F1800.00
G1 X249.7818 Y20.0000 Z-0.5000 F1800.00
G1 X-249.7818 Y20.0000 Z-0.5000 F1800.00
G1 X-249.9909 Y20.0091 Z-0.5000 F1800.00
G1 X-250.0000 Y20.2182 Z-0.5000 F1800.00
G1 X-250.0000 Y509.7818 Z-0.5000 F1800.00
G1 X-249.9909 Y509.9909 Z-0.5000 F1800.00
G1 X-249.7818 Y510.0000 Z-0.5000 F1800.00
G1 X249.7818 Y510.0000 Z-0.5000 F1800.00
G1 X249.9909 Y509.9909 Z-0.5000 F1800.00
G0 X249.9909 Y509.9909 Z5.0000
G0 X240.0000 Y500.0000 Z5.0000
G0 X240.0000 Y500.0000 Z2.5000
G1 X240.0000 Y500.0000 Z-0.5000 F600.00
G1 X240.0000 Y30.0000 Z-0.5000 F1800.00
G1 X132.6276 Y30.0000 Z-0.5000 F1800.00
G3 X132.7214 Y69.9240 Z-0.5000 I-18.1170 J20.0047 F1800.00
G3 X94.5379 Y68.1796 Z-0.5000 I-18.2215 J-19.9218 F1800.00
G3 X96.3667 Y30.0000 Z-0.5000 I19.9620 J-18.1774 F1800.00
G1 X-96.3724 Y30.0000 Z-0.5000 F1800.00
G3 X-96.2786 Y69.9240 Z-0.5000 I-18.1170 J20.0047 F1800.00
G3 X-134.4621 Y68.1796 Z-0.5000 I-18.2215 J-19.9218 F1800.00
G3 X-132.6333 Y30.0000 Z-0.5000 I19.9620 J-18.1774 F1800.00
G1 X-240.0000 Y30.0000 Z-0.5000 F1800.00
G1 X-240.0000 Y500.0000 Z-0.5000 F1800.00
G1 X240.0000 Y500.0000 Z-0.5000 F1800.00
G0 X240.0000 Y500.0000 Z5.0000
G0 X230.0000 Y490.0000 Z5.0000
G0 X230.0000 Y490.0000 Z2.5000
G1 X230.0000 Y490.0000 Z-0.5000 F600.00
G1 X230.0000 Y40.0000 Z-0.5000 F1800.00
G1 X150.1138 Y40.0000 Z-0.5000 F1800.00
G3 X142.7027 Y73.9305 Z-0.5000 I-35.5232 J10.0156 F1800.00
G3 X162.7027 Y133.9305 Z-0.5000 I-8.1813 J36.0604 F1800.00
G3 X182.7027 Y193.9305 Z-0.5000 I-8.1813 J36.0604 F1800.00
G3 X196.1515 Y260.0008 Z-0.5000 I-8.1920 J36.0714 F1800.00
G3 X182.7025 Y326.0686 Z-0.5000 I-21.6523 J29.9952 F1800.00
G3 X162.7025 Y386.0686 Z-0.5000 I-28.1804 J23.9399 F1800.00
G3 X142.7025 Y446.0686 Z-0.5000 I-28.1804 J23.9399 F1800.00
G3 X145.6179 Y490.0000 Z-0.5000 I-28.1874 J23.9330 F1800.00
G1 X230.0000 Y490.0000 Z-0.5000 F1800.00
G0 X230.0000 Y490.0000 Z5.0000
G0 X220.0000 Y480.0000 Z5.0000
G0 X220.0000 Y480.0000 Z2.5000
G1 X220.0000 Y480.0000 Z-0.5000 F600.00
G1 X220.0000 Y301.7429 Z-0.5000 F1800.00
G3 X197.7293 Y330.8581 Z-0.5000 I-45.4601 J-11.6980 F1800.00
G1 X197.4792 Y330.9926 Z-0.5000 F1800.00
G3 X177.7293 Y390.8581 Z-0.5000 I-42.9995 J19.0048 F1800.00
G1 X177.4792 Y390.9926 Z-0.5000 F1800.00
G3 X157.7293 Y450.8581 Z-0.5000 I-42.9995 J19.0048 F1800.00
G1 X157.4792 Y450.9926 Z-0.5000 F1800.00
G3 X160.4214 Y480.0000 Z-0.5000 I-43.0622 J19.0207 F1800.00
G1 X220.0000 Y480.0000 Z-0.5000 F1800.00
G0 X220.0000 Y480.0000 Z5.0000
G0 X210.0000 Y470.0000 Z5.0000
G0 X210.0000 Y470.0000 Z2.5000
G1 X210.0000 Y470.0000 Z-0.5000 F600.00
G1 X210.0000 Y362.9508 Z-0.5000 F1800.00
G3 X189.4800 Y394.9943 Z-0.5000 I-55.4996 J-12.9488 F1800.00
G3 X169.4800 Y454.9943 Z-0.5000 I-54.9352 J15.0216 F1800.00
G3 X171.4914 Y470.0000 Z-0.5000 I-54.9367 J15.0015 F1800.00
G1 X210.0000 Y470.0000 Z-0.5000 F1800.00
G0 X210.0000 Y470.0000 Z5.0000
G0 X200.0000 Y460.0000 Z5.0000
G0 X200.0000 Y460.0000 Z2.5000
G1 X200.0000 Y460.0000 Z-0.5000 F600.00
G1 X200.0000 Y424.0533 Z-0.5000 F1800.00
G3 X180.5237 Y458.6807 Z-0.5000 I-65.3629 J-13.9726 F1800.00
G3 X180.7397 Y460.0000 Z-0.5000 I-32.2237 J5.9518 F1800.00
G1 X200.0000 Y460.0000 Z-0.5000 F1800.00
G0 X200.0000 Y460.0000 Z5.0000
G0 X155.9560 Y426.3786 Z5.0000
G0 X155.9560 Y426.3786 Z2.5000
G1 X155.9560 Y426.3786 Z-0.5000 F600.00
G2 X132.7216 Y383.0658 Z-0.5000 I-21.4560 J-16.3786 F1800.00
G2 X107.5658 Y411.7784 Z-0.5000 I1.7784 J26.9342 F1800.00
G2 X136.2784 Y436.9342 Z-0.5000 I26.9342 J-1.7784 F1800.00
G2 X155.9560 Y426.3786 Z-0.5000 I-1.7784 J-26.9342 F1800.00
G0 X155.9560 Y426.3786 Z5.0000
G0 X148.0084 Y420.3117 Z5.0000
G0 X148.0084 Y420.3117 Z2.5000
G1 X148.0084 Y420.3117 Z-0.5000 F600.00
G2 X133.2449 Y393.0521 Z-0.5000 I-13.5084 J-10.3117 F1800.00
G2 X117.5521 Y411.2551 Z-0.5000 I1.2551 J16.9479 F1800.00
G2 X135.7551 Y426.9479 Z-0.5000 I16.9479 J-1.2551 F1800.00
G2 X148.0084 Y420.3117 Z-0.5000 I-1.2551 J-16.9479 F1800.00
G0 X148.0084 Y420.3117 Z5.0000
G0 X129.5921 Y447.6205 Z5.0000
G0 X129.5921 Y447.6205 Z2.5000
G1 X129.5921 Y447.6205 Z-0.5000 F600.00
G2 X112.7216 Y443.0658 Z-0.5000 I-15.0921 J22.3795 F1800.00
G2 X87.5658 Y471.7784 Z-0.5000 I1.7784 J26.9342 F1800.00
G2 X116.2784 Y496.9342 Z-0.5000 I26.9342 J-1.7784 F1800.00
G2 X129.5921 Y447.6205 Z-0.5000 I-1.7784 J-26.9342 F1800.00
G0 X129.5921 Y447.6205 Z5.0000
G0 X124.0018 Y455.9101 Z5.0000
G0 X124.0018 Y455.9101 Z2.5000
G1 X124.0018 Y455.9101 Z-0.5000 F600.00
G2 X113.2449 Y453.0521 Z-0.5000 I-9.5018 J14.0899 F1800.00
G2 X97.5521 Y471.2551 Z-0.5000 I1.2551 J16.9479 F1800.00
G2 X115.7551 Y486.9479 Z-0.5000 I16.9479 J-1.2551 F1800.00
G2 X124.0018 Y455.9101 Z-0.5000 I-1.2551 J-16.9479 F1800.00
G0 X124.0018 Y455.9101 Z5.0000
G0 X106.2975 Y433.9314 Z5.0000
G0 X106.2975 Y433.9314 Z2.5000
G1 X106.2975 Y433.9314 Z-0.5000 F600.00
G3 X126.2975 Y373.9314 Z-0.5000 I28.1804 J-23.9399 F1800.00
G3 X146.2975 Y313.9314 Z-0.5000 I28.1804 J-23.9399 F1800.00
G3 X152.8485 Y259.9992 Z-0.5000 I28.1805 J-23.9409 F1800.00
G3 X146.2973 Y206.0695 Z-0.5000 I21.6518 J-29.9930 F1800.00
G3 X126.2973 Y146.0695 Z-0.5000 I8.1813 J-36.0604 F1800.00
G3 X106.2973 Y86.0695 Z-0.5000 I8.1813 J-36.0604 F1800.00
G3 X78.8863 Y40.0000 Z-0.5000 I8.1769 J-36.0546 F1800.00
G1 X-78.8862 Y40.0000 Z-0.5000 F1800.00
G3 X-106.2975 Y86.0686 Z-0.5000 I-35.5865 J10.0150 F1800.00
G3 X-126.2975 Y146.0686 Z-0.5000 I-28.1804 J23.9399 F1800.00
G3 X-146.2975 Y206.0686 Z-0.5000 I-28.1804 J23.9399 F1800.00
G3 X-152.8485 Y260.0008 Z-0.5000 I-28.1805 J23.9409 F1800.00
G3 X-146.2973 Y313.9305 Z-0.5000 I-21.6518 J29.9930 F1800.00
G3 X-126.2973 Y373.9305 Z-0.5000 I-8.1813 J36.0604 F1800.00
G3 X-106.2973 Y433.9305 Z-0.5000 I-8.1813 J36.0604 F1800.00
G3 X-83.3821 Y490.0000 Z-0.5000 I-8.1991 J36.0683 F1800.00
G1 X83.3821 Y490.0000 Z-0.5000 F1800.00
G3 X106.2975 Y433.9314 Z-0.5000 I31.1131 J-20.0011 F1800.00
G0 X106.2975 Y433.9314 Z5.0000
G0 X91.5208 Y429.0074 Z5.0000
G0 X91.5208 Y429.0074 Z2.5000
G1 X91.5208 Y429.0074 Z-0.5000 F600.00
G3 X111.2707 Y369.1419 Z-0.5000 I42.9995 J-19.0048 F1800.00
G1 X111.5208 Y369.0074 Z-0.5000 F1800.00
G3 X131.2707 Y309.1419 Z-0.5000 I42.9995 J-19.0048 F1800.00
G1 X131.5208 Y309.0074 Z-0.5000 F1800.00
G3 X138.3345 Y260.0011 Z-0.5000 I42.9744 J-19.0018 F1800.00
G3 X131.5299 Y210.9843 Z-0.5000 I36.1502 J-29.9991 F1800.00
G3 X111.5299 Y150.9843 Z-0.5000 I22.9461 J-40.9820 F1800.00
G3 X91.5299 Y90.9843 Z-0.5000 I22.9461 J-40.9820 F1800.00
G3 X67.5082 Y50.0000 Z-0.5000 I22.9329 J-40.9734 F1800.00
G1 X-67.5082 Y50.0000 Z-0.5000 F1800.00
G3 X-91.2707 Y90.8581 Z-0.5000 I-47.0190 J-0.0066 F1800.00
G1 X-91.5208 Y90.9926 Z-0.5000 F1800.00
G3 X-111.2707 Y150.8581 Z-0.5000 I-42.9995 J19.0048 F1800.00
G1 X-111.5208 Y150.9926 Z-0.5000 F1800.00
G3 X-131.2707 Y210.8581 Z-0.5000 I-42.9995 J19.0048 F1800.00
G1 X-131.5208 Y210.9926 Z-0.5000 F1800.00
G3 X-138.3345 Y259.9989 Z-0.5000 I-42.9744 J19.0018 F1800.00
G3 X-131.5299 Y309.0157 Z-0.5000 I-36.1502 J29.9991 F1800.00
G3 X-111.5299 Y369.0157 Z-0.5000 I-22.9461 J40.9820 F1800.00
G3 X-91.5299 Y429.0157 Z-0.5000 I-22.9461 J40.9820 F1800.00
G3 X-68.5786 Y480.0000 Z-0.5000 I-22.9536 J40.9910 F1800.00
G1 X68.5893 Y480.0000 Z-0.5000 F1800.00
G3 X91.2707 Y429.1419 Z-0.5000 I45.9206 J-10.0073 F1800.00
G1 X91.5208 Y429.0074 Z-0.5000 F1800.00
G0 X91.5208 Y429.0074 Z5.0000
G0 X79.5200 Y425.0057 Z5.0000
G0 X79.5200 Y425.0057 Z2.5000
G1 X79.5200 Y425.0057 Z-0.5000 F600.00
G3 X99.5200 Y365.0057 Z-0.5000 I54.9352 J-15.0216 F1800.00
G3 X119.5200 Y305.0057 Z-0.5000 I54.9352 J-15.0216 F1800.00
G3 X126.0457 Y260.0059 Z-0.5000 I54.9452 J-15.0051 F1800.00
G3 X119.5215 Y214.9884 Z-0.5000 I48.4586 J-30.0044 F1800.00
G3 X99.5215 Y154.9884 Z-0.5000 I34.9260 J-44.9753 F1800.00
G3 X79.5215 Y94.9884 Z-0.5000 I34.9260 J-44.9753 F1800.00
G3 X58.3978 Y60.0000 Z-0.5000 I34.9119 J-44.9482 F1800.00
G1 X-58.3924 Y60.0000 Z-0.5000 F1800.00
G3 X-79.5200 Y94.9943 Z-0.5000 I-56.0098 J-9.9406 F1800.00
G3 X-99.5200 Y154.9943 Z-0.5000 I-54.9352 J15.0216 F1800.00
G3 X-119.5200 Y214.9943 Z-0.5000 I-54.9352 J15.0216 F1800.00
G3 X-126.0457 Y259.9941 Z-0.5000 I-54.9452 J15.0051 F1800.00
G3 X-119.5215 Y305.0116 Z-0.5000 I-48.4586 J30.0044 F1800.00
G3 X-99.5215 Y365.0116 Z-0.5000 I-34.9260 J44.9753 F1800.00
G3 X-79.5215 Y425.0116 Z-0.5000 I-34.9260 J44.9753 F1800.00
G3 X-57.5086 Y470.0000 Z-0.5000 I-34.9521 J44.9819 F1800.00
G1 X57.5086 Y470.0000 Z-0.5000 F1800.00
G3 X79.5200 Y425.0057 Z-0.5000 I56.9930 J0.0001 F1800.00
G0 X79.5200 Y425.0057 Z5.0000
G0 X68.4763 Y421.3193 Z5.0000
G0 X68.4763 Y421.3193 Z2.5000
G1 X68.4763 Y421.3193 Z-0.5000 F600.00
G3 X88.4763 Y361.3193 Z-0.5000 I65.9525 J-11.3492 F1800.00
G3 X108.4763 Y301.3193 Z-0.5000 I65.9525 J-11.3492 F1800.00
G3 X114.6025 Y260.0002 Z-0.5000 I65.8109 J-11.3561 F1800.00
G3 X108.4760 Y218.6760 Z-0.5000 I59.8554 J-29.9900 F1800.00
G3 X88.4760 Y158.6760 Z-0.5000 I45.9438 J-48.6479 F1800.00
G3 X68.4760 Y98.6760 Z-0.5000 I45.9438 J-48.6479 F1800.00
G3 X50.5590 Y70.0000 Z-0.5000 I46.0431 J-48.7034 F1800.00
G1 X-50.5623 Y70.0000 Z-0.5000 F1800.00
G3 X-68.4763 Y98.6807 Z-0.5000 I-63.9689 J-20.0201 F1800.00
G3 X-88.4763 Y158.6807 Z-0.5000 I-65.9525 J11.3492 F1800.00
G3 X-108.4763 Y218.6807 Z-0.5000 I-65.9525 J11.3492 F1800.00
G3 X-114.6025 Y259.9998 Z-0.5000 I-65.8109 J11.3561 F1800.00
G3 X-108.4760 Y301.3240 Z-0.5000 I-59.8554 J29.9900 F1800.00
G3 X-88.4760 Y361.3240 Z-0.5000 I-45.9438 J48.6479 F1800.00
G3 X-68.4760 Y421.3240 Z-0.5000 I-45.9438 J48.6479 F1800.00
G3 X-48.2603 Y460.0000 Z-0.5000 I-45.9965 J48.6634 F1800.00
G1 X48.2606 Y460.0000 Z-0.5000 F1800.00
G3 X68.4763 Y421.3193 Z-0.5000 I66.2376 J9.9947 F1800.00
G0 X68.4763 Y421.3193 Z5.0000
G0 X57.9057 Y417.7968 Z5.0000
G0 X57.9057 Y417.7968 Z2.5000
G1 X57.9057 Y417.7968 Z-0.5000 F600.00
G3 X77.9057 Y357.7968 Z-0.5000 I76.5177 J-7.8274 F1800.00
G3 X97.9057 Y297.7968 Z-0.5000 I76.5177 J-7.8274 F1800.00
G3 X103.5904 Y260.0050 Z-0.5000 I76.5991 J-7.8013 F1800.00
G3 X97.9045 Y222.2066 Z-0.5000 I70.9915 J-30.0059 F1800.00
G3 X77.9045 Y162.2066 Z-0.5000 I56.5431 J-52.1810 F1800.00
G3 X57.9045 Y102.2066 Z-0.5000 I56.5431 J-52.1810 F1800.00
G3 X43.5884 Y80.0000 Z-0.5000 I56.9158 J-52.4104 F1800.00
G1 X-43.5924 Y80.0000 Z-0.5000 F1800.00
G3 X-57.9057 Y102.2032 Z-0.5000 I-71.0321 J-30.0756 F1800.00
G3 X-77.9057 Y162.2032 Z-0.5000 I-76.5177 J7.8274 F1800.00
G3 X-97.9057 Y222.2032 Z-0.5000 I-76.5177 J7.8274 F1800.00
G3 X-103.5904 Y259.9950 Z-0.5000 I-76.5991 J7.8013 F1800.00
G3 X-97.9045 Y297.7934 Z-0.5000 I-70.9915 J30.0059 F1800.00
G3 X-77.9045 Y357.7934 Z-0.5000 I-56.5431 J52.1810 F1800.00
G3 X-57.9045 Y417.7934 Z-0.5000 I-56.5431 J52.1810 F1800.00
G3 X-40.1526 Y450.0000 Z-0.5000 I-56.4512 J52.1107 F1800.00
G1 X40.1526 Y450.0000 Z-0.5000 F1800.00
G3 X57.9057 Y417.7968 Z-0.5000 I74.3752 J20.0066 F1800.00
G0 X57.9057 Y417.7968 Z5.0000
G0 X47.6201 Y414.3860 Z5.0000
G0 X47.6201 Y414.3860 Z2.5000
G1 X47.6201 Y414.3860 Z-0.5000 F600.00
G3 X67.6201 Y354.3860 Z-0.5000 I86.7025 J-4.4325 F1800.00
G3 X87.6201 Y294.3860 Z-0.5000 I86.7025 J-4.4325 F1800.00
G3 X92.8539 Y259.9935 Z-0.5000 I86.7217 J-4.3971 F1800.00
G3 X87.6198 Y225.6196 Z-0.5000 I81.3760 J-29.9767 F1800.00
G3 X67.6198 Y165.6196 Z-0.5000 I66.7187 J-55.5729 F1800.00
G3 X47.6198 Y105.6196 Z-0.5000 I66.7187 J-55.5729 F1800.00
G3 X37.2530 Y90.0000 Z-0.5000 I65.1683 J-54.5022 F1800.00
G1 X-37.2542 Y90.0000 Z-0.5000 F1800.00
G3 X-47.6201 Y105.6140 Z-0.5000 I-76.3680 J-39.4515 F1800.00
G3 X-67.6201 Y165.6140 Z-0.5000 I-86.7025 J4.4325 F1800.00
G3 X-87.6201 Y225.6140 Z-0.5000 I-86.7025 J4.4325 F1800.00
G3 X-92.8539 Y260.0065 Z-0.5000 I-86.7217 J4.3971 F1800.00
G3 X-87.6198 Y294.3804 Z-0.5000 I-81.3760 J29.9767 F1800.00
G3 X-67.6198 Y354.3804 Z-0.5000 I-66.7187 J55.5729 F1800.00
G3 X-47.6198 Y414.3804 Z-0.5000 I-66.7187 J55.5729 F1800.00
G3 X-32.8563 Y440.0000 Z-0.5000 I-65.9346 J55.0589 F1800.00
G1 X32.8516 Y440.0000 Z-0.5000 F1800.00
G3 X47.6201 Y414.3860 Z-0.5000 I80.7064 J29.4690 F1800.00
G0 X47.6201 Y414.3860 Z5.0000
G0 X37.5103 Y411.0081 Z5.0000
G0 X37.5103 Y411.0081 Z2.5000
G1 X37.5103 Y411.0081 Z-0.5000 F600.00
G3 X57.5103 Y351.0081 Z-0.5000 I96.8796 J-1.0401 F1800.00
G3 X77.5103 Y291.0081 Z-0.5000 I96.8796 J-1.0401 F1800.00
G3 X82.2634 Y260.0007 Z-0.5000 I97.1844 J-0.9705 F1800.00
G3 X77.5151 Y228.9929 Z-0.5000 I92.2721 J-29.9976 F1800.00
G3 X57.5151 Y168.9929 Z-0.5000 I76.8058 J-58.9353 F1800.00
G3 X37.5151 Y108.9929 Z-0.5000 I76.8058 J-58.9353 F1800.00
G3 X31.3923 Y100.0000 Z-0.5000 I75.7979 J-58.1872 F1800.00
G1 X-31.3855 Y100.0000 Z-0.5000 F1800.00
G3 X-37.5103 Y108.9919 Z-0.5000 I-84.8173 J-51.1909 F1800.00
G3 X-57.5103 Y168.9919 Z-0.5000 I-96.8796 J1.0401 F1800.00
G3 X-77.5103 Y228.9919 Z-0.5000 I-96.8796 J1.0401 F1800.00
G3 X-82.2634 Y259.9993 Z-0.5000 I-97.1844 J0.9705 F1800.00
G3 X-77.5151 Y291.0071 Z-0.5000 I-92.2721 J29.9976 F1800.00
G3 X-57.5151 Y351.0071 Z-0.5000 I-76.8058 J58.9353 F1800.00
G3 X-37.5151 Y411.0071 Z-0.5000 I-76.8058 J58.9353 F1800.00
G3 X-26.1324 Y430.0000 Z-0.5000 I-76.2549 J58.6078 F1800.00
G1 X26.1425 Y430.0000 Z-0.5000 F1800.00
G3 X37.5103 Y411.0081 Z-0.5000 I87.4124 J39.4234 F1800.00
G0 X37.5103 Y411.0081 Z5.0000
G0 X27.5283 Y407.6777 Z5.0000
G0 X27.5283 Y407.6777 Z2.5000
G1 X27.5283 Y407.6777 Z-0.5000 F600.00
G3 X47.5283 Y347.6777 Z-0.5000 I106.8981 J2.2994 F1800.00
G3 X67.5283 Y287.6777 Z-0.5000 I106.8981 J2.2994 F1800.00
G3 X71.7923 Y260.0099 Z-0.5000 I107.6356 J2.4259 F1800.00
G3 X67.5356 Y232.3228 Z-0.5000 I103.3223 J-30.0559 F1800.00
G3 X47.5356 Y172.3228 Z-0.5000 I86.7544 J-62.2515 F1800.00
G3 X27.5356 Y112.3228 Z-0.5000 I86.7544 J-62.2515 F1800.00
G3 X25.9218 Y110.0000 Z-0.5000 I40.4028 J-29.7923 F1800.00
G1 X-25.9136 Y110.0000 Z-0.5000 F1800.00
G3 X-27.5283 Y112.3223 Z-0.5000 I-48.8115 J-32.2161 F1800.00
G3 X-47.5283 Y172.3223 Z-0.5000 I-106.8981 J-2.2994 F1800.00
G3 X-67.5283 Y232.3223 Z-0.5000 I-106.8981 J-2.2994 F1800.00
G3 X-71.7923 Y259.9901 Z-0.5000 I-107.6357 J-2.4259 F1800.00
G3 X-67.5356 Y287.6772 Z-0.5000 I-103.3221 J30.0559 F1800.00
G3 X-47.5356 Y347.6772 Z-0.5000 I-86.7544 J62.2515 F1800.00
G3 X-27.5356 Y407.6772 Z-0.5000 I-86.7544 J62.2515 F1800.00
G3 X-19.9178 Y420.0000 Z-0.5000 I-85.9596 J61.6547 F1800.00
G1 X19.9122 Y420.0000 Z-0.5000 F1800.00
G3 X27.5283 Y407.6777 Z-0.5000 I92.6124 J48.7262 F1800.00
G0 X27.5283 Y407.6777 Z5.0000
G0 X17.6454 Y404.3814 Z5.0000
G0 X17.6454 Y404.3814 Z2.5000
G1 X17.6454 Y404.3814 Z-0.5000 F600.00
G3 X37.6454 Y344.3814 Z-0.5000 I116.5936 J5.5312 F1800.00
G3 X57.6454 Y284.3814 Z-0.5000 I116.5936 J5.5312 F1800.00
G3 X61.4211 Y260.0000 Z-0.5000 I116.7170 J5.5919 F1800.00
G3 X57.6449 Y235.6125 Z-0.5000 I112.9563 J-29.9764 F1800.00
G3 X37.6449 Y175.6125 Z-0.5000 I96.5569 J-65.5190 F1800.00
G3 X17.9356 Y120.0000 Z-0.5000 I96.8054 J-65.6070 F1800.00
G1 X-17.9380 Y120.0000 Z-0.5000 F1800.00
G3 X-37.6454 Y175.6186 Z-0.5000 I-116.3329 J-9.9195 F1800.00
G3 X-57.6454 Y235.6186 Z-0.5000 I-116.5936 J-5.5312 F1800.00
G3 X-61.4211 Y260.0000 Z-0.5000 I-116.7170 J-5.5919 F1800.00
G3 X-57.6449 Y284.3875 Z-0.5000 I-112.9563 J29.9764 F1800.00
G3 X-37.6449 Y344.3875 Z-0.5000 I-96.5569 J65.5190 F1800.00
G3 X-17.6449 Y404.3875 Z-0.5000 I-96.5569 J65.5190 F1800.00
G3 X-14.0686 Y410.0000 Z-0.5000 I-90.2812 J61.4738 F1800.00
G1 X14.0676 Y410.0000 Z-0.5000 F1800.00
G3 X17.6454 Y404.3814 Z-0.5000 I98.1805 J58.5700 F1800.00
G0 X17.6454 Y404.3814 Z5.0000
G0 X7.9006 Y400.0000 Z5.0000
G0 X7.9006 Y400.0000 Z2.5000
G1 X7.9006 Y400.0000 Z-0.5000 F600.00
G3 X27.8280 Y341.0961 Z-0.5000 I126.3591 J9.9251 F1800.00
G3 X47.8280 Y281.0961 Z-0.5000 I126.3024 J8.7675 F1800.00
G3 X51.1041 Y259.9955 Z-0.5000 I125.8600 J8.7361 F1800.00
G3 X47.8262 Y238.9011 Z-0.5000 I122.5353 J-29.8425 F1800.00
G3 X27.8262 Y178.9011 Z-0.5000 I106.3950 J-68.7983 F1800.00
G3 X9.0943 Y130.0000 Z-0.5000 I106.6612 J-68.8955 F1800.00
G1 X-9.0943 Y130.0000 Z-0.5000 F1800.00
G3 X-27.8280 Y178.9039 Z-0.5000 I-125.3927 J-19.9942 F1800.00
G3 X-47.8280 Y238.9039 Z-0.5000 I-126.3024 J-8.7675 F1800.00
G3 X-51.1041 Y260.0045 Z-0.5000 I-125.8600 J-8.7361 F1800.00
G3 X-47.8262 Y281.0989 Z-0.5000 I-122.5353 J29.8425 F1800.00
G3 X-27.8262 Y341.0989 Z-0.5000 I-106.3950 J68.7983 F1800.00
G3 X-7.8980 Y400.0000 Z-0.5000 I-106.5292 J68.8641 F1800.00
G1 X7.9006 Y400.0000 Z-0.5000 F1800.00
G0 X7.9006 Y400.0000 Z5.0000
G0 X-0.0027 Y383.9864 Z5.0000
G0 X-0.0027 Y383.9864 Z2.5000
G1 X-0.0027 Y383.9864 Z-0.5000 F600.00
G3 X18.0468 Y337.8550 Z-0.5000 I134.5944 J26.0651 F1800.00
G3 X38.0468 Y277.8550 Z-0.5000 I136.1473 J12.0491 F1800.00
G3 X40.8351 Y259.9993 Z-0.5000 I136.7034 J12.2018 F1800.00
G3 X38.0493 Y242.1350 Z-0.5000 I133.1026 J-29.9063 F1800.00
G3 X18.0493 Y182.1350 Z-0.5000 I116.0016 J-72.0005 F1800.00
G3 X0.8353 Y140.0000 Z-0.5000 I115.6946 J-71.8501 F1800.00
G1 X-0.8350 Y140.0000 Z-0.5000 F1800.00
G3 X-18.0468 Y182.1450 Z-0.5000 I-133.6131 J-29.9800 F1800.00
G3 X-38.0468 Y242.1450 Z-0.5000 I-136.1473 J-12.0491 F1800.00
G3 X-40.8351 Y260.0007 Z-0.5000 I-136.7034 J-12.2018 F1800.00
G3 X-38.0493 Y277.8650 Z-0.5000 I-133.1026 J29.9063 F1800.00
G3 X-18.0493 Y337.8650 Z-0.5000 I-116.0016 J72.0005 F1800.00
G3 X-0.0027 Y383.9864 Z-0.5000 I-116.1860 J72.0531 F1800.00
G0 X-0.0027 Y383.9864 Z5.0000
G0 X0.0043 Y350.6939 Z5.0000
G0 X0.0043 Y350.6939 Z2.5000
G1 X0.0043 Y350.6939 Z-0.5000 F600.00
G3 X8.3133 Y334.6160 Z-0.5000 I134.1606 J59.1478 F1800.00
G3 X8.7783 Y330.6769 Z-0.5000 I82.6568 J7.7600 F1800.00
G3 X15.9801 Y300.8019 Z-0.5000 I145.7217 J19.3231 F1800.00
G3 X28.3133 Y274.6160 Z-0.5000 I137.7082 J48.8610 F1800.00
G3 X30.5991 Y260.0203 Z-0.5000 I147.3225 J15.5953 F1800.00
G3 X28.3150 Y245.3963 Z-0.5000 I148.4608 J-30.6787 F1800.00
G3 X25.2508 Y240.0204 Z-0.5000 I110.9578 J-66.8048 F1800.00
G3 X13.5172 Y211.6178 Z-0.5000 I129.2492 J-70.0204 F1800.00
G3 X8.3150 Y185.3963 Z-0.5000 I139.9647 J-41.3950 F1800.00
G3 X-0.0043 Y169.3061 Z-0.5000 I128.8612 J-76.8217 F1800.00
G3 X-8.3133 Y185.3840 Z-0.5000 I-134.1606 J-59.1478 F1800.00
G3 X-8.7783 Y189.3231 Z-0.5000 I-82.6569 J-7.7600 F1800.00
G3 X-15.9801 Y219.1981 Z-0.5000 I-145.7217 J-19.3231 F1800.00
G3 X-28.3133 Y245.3840 Z-0.5000 I-137.7082 J-48.8610 F1800.00
G3 X-30.5991 Y259.9797 Z-0.5000 I-147.3225 J-15.5953 F1800.00
G3 X-28.3150 Y274.6037 Z-0.5000 I-148.4608 J30.6787 F1800.00
G3 X-25.2508 Y279.9796 Z-0.5000 I-110.9576 J66.8047 F1800.00
G3 X-13.5172 Y308.3822 Z-0.5000 I-129.2492 J70.0204 F1800.00
G3 X-8.3150 Y334.6037 Z-0.5000 I-139.9647 J41.3950 F1800.00
G3 X0.0043 Y350.6939 Z-0.5000 I-128.8612 J76.8217 F1800.00
G0 X0.0043 Y350.6939 Z5.0000
G0 X0.0019 Y322.1513 Z5.0000
G0 X0.0019 Y322.1513 Z2.5000
G1 X0.0019 Y322.1513 Z-0.5000 F600.00
G3 X18.6199 Y271.3654 Z-0.5000 I154.4918 J27.8308 F1800.00
G3 X20.4000 Y259.9788 Z-0.5000 I159.7830 J19.1468 F1800.00
G3 X18.6114 Y248.6168 Z-0.5000 I156.8872 J-30.5185 F1800.00
G3 X-0.0019 Y197.8487 Z-0.5000 I135.9330 J-78.6339 F1800.00
G3 X-18.6199 Y248.6346 Z-0.5000 I-154.4918 J-27.8308 F1800.00
G3 X-20.4000 Y260.0212 Z-0.5000 I-159.7830 J-19.1468 F1800.00
G3 X-18.6114 Y271.3832 Z-0.5000 I-156.8873 J30.5185 F1800.00
G3 X0.0019 Y322.1513 Z-0.5000 I-135.9330 J78.6339 F1800.00
G0 X0.0019 Y322.1513 Z5.0000
G0 X0.0034 Y286.6275 Z5.0000
G0 X0.0034 Y286.6275 Z2.5000
G1 X0.0034 Y286.6275 Z-0.5000 F600.00
G3 X8.9427 Y268.1440 Z-0.5000 I155.5791 J63.8401 F1800.00
G3 X10.2242 Y260.0235 Z-0.5000 I166.7850 J22.1588 F1800.00
G3 X8.9501 Y251.8663 Z-0.5000 I171.4068 J-30.9495 F1800.00
G3 X-0.0034 Y233.3725 Z-0.5000 I145.0395 J-81.6339 F1800.00
G3 X-8.9427 Y251.8560 Z-0.5000 I-155.5791 J-63.8401 F1800.00
G3 X-10.2242 Y259.9765 Z-0.5000 I-166.7849 J-22.1588 F1800.00
G3 X-8.9501 Y268.1337 Z-0.5000 I-171.4067 J30.9495 F1800.00
G3 X0.0034 Y286.6275 Z-0.5000 I-145.0395 J81.6339 F1800.00
G0 X0.0034 Y286.6275 Z5.0000
G0 X-0.0014 Y260.4438 Z5.0000
G0 X-0.0014 Y260.4438 Z2.5000
G1 X-0.0014 Y260.4438 Z-0.5000 F600.00
G2 X0.0014 Y259.5562 Z-0.5000 I-1.2774 J-0.4478 F1800.00
G2 X-0.0014 Y260.4438 Z-0.5000 I1.2774 J0.4478 F1800.00
G0 X-0.0014 Y260.4438 Z5.0000
G0 X-147.8862 Y285.4922 Z5.0000
G0 X-147.8862 Y285.4922 Z2.5000
G1 X-147.8862 Y285.4922 Z-0.5000 F600.00
G2 X-176.2784 Y263.0658 Z-0.5000 I-26.6138 J4.5078 F1800.00
G2 X-201.4342 Y291.7784 Z-0.5000 I1.7784 J26.9342 F1800.00
G2 X-172.7216 Y316.9342 Z-0.5000 I26.9342 J-1.7784 F1800.00
G2 X-147.8862 Y285.4922 Z-0.5000 I-1.7784 J-26.9342 F1800.00
G0 X-147.8862 Y285.4922 Z5.0000
G0 X-157.7443 Y287.1620 Z5.0000
G0 X-157.7443 Y287.1620 Z2.5000
G1 X-157.7443 Y287.1620 Z-0.5000 F600.00
G2 X-175.7551 Y273.0521 Z-0.5000 I-16.7557 J2.8380 F1800.00
G2 X-191.4479 Y291.2551 Z-0.5000 I1.2551 J16.9479 F1800.00
G2 X-173.2449 Y306.9479 Z-0.5000 I16.9479 J-1.2551 F1800.00
G2 X-157.7443 Y287.1620 Z-0.5000 I-1.2551 J-16.9479 F1800.00
G0 X-157.7443 Y287.1620 Z5.0000
G0 X-166.9071 Y255.9030 Z5.0000
G0 X-166.9071 Y255.9030 Z2.5000
G1 X-166.9071 Y255.9030 Z-0.5000 F600.00
G2 X-176.2784 Y203.0658 Z-0.5000 I-7.5929 J-25.9030 F1800.00
G2 X-201.4342 Y231.7784 Z-0.5000 I1.7784 J26.9342 F1800.00
G2 X-172.7216 Y256.9342 Z-0.5000 I26.9342 J-1.7784 F1800.00
G2 X-166.9071 Y255.9030 Z-0.5000 I-1.7784 J-26.9342 F1800.00
G0 X-166.9071 Y255.9030 Z5.0000
G0 X-169.7196 Y246.3082 Z5.0000
G0 X-169.7196 Y246.3082 Z2.5000
G1 X-169.7196 Y246.3082 Z-0.5000 F600.00
G2 X-175.7551 Y213.0521 Z-0.5000 I-4.7804 J-16.3082 F1800.00
G2 X-191.4479 Y231.2551 Z-0.5000 I1.2551 J16.9479 F1800.00
G2 X-173.2449 Y246.9479 Z-0.5000 I16.9479 J-1.2551 F1800.00
G2 X-169.7196 Y246.3082 Z-0.5000 I-1.2551 J-16.9479 F1800.00
G0 X-169.7196 Y246.3082 Z5.0000
G0 X-196.1515 Y259.9992 Z5.0000
G0 X-196.1515 Y259.9992 Z2.5000
G1 X-196.1515 Y259.9992 Z-0.5000 F600.00
G3 X-182.7025 Y193.9314 Z-0.5000 I21.6523 J-29.9952 F1800.00
G3 X-162.7025 Y133.9314 Z-0.5000 I28.1804 J-23.9399 F1800.00
G3 X-142.7025 Y73.9314 Z-0.5000 I28.1804 J-23.9399 F1800.00
G3 X-150.1137 Y40.0000 Z-0.5000 I28.1135 J-23.9156 F1800.00
G1 X-230.0000 Y40.0000 Z-0.5000 F1800.00
G1 X-230.0000 Y490.0000 Z-0.5000 F1800.00
G1 X-145.6179 Y490.0000 Z-0.5000 F1800.00
G3 X-142.7027 Y446.0695 Z-0.5000 I31.1017 J-19.9981 F1800.00
G3 X-162.7027 Y386.0695 Z-0.5000 I8.1813 J-36.0604 F1800.00
G3 X-182.7027 Y326.0695 Z-0.5000 I8.1813 J-36.0604 F1800.00
G3 X-196.1515 Y259.9992 Z-0.5000 I8.1920 J-36.0714 F1800.00
G0 X-196.1515 Y259.9992 Z5.0000
G0 X-210.6655 Y260.0011 Z5.0000
G0 X-210.6655 Y260.0011 Z2.5000
G1 X-210.6655 Y260.0011 Z-0.5000 F600.00
G3 X-220.0000 Y241.7406 Z-0.5000 I36.0930 J-29.9663 F1800.00
G1 X-220.0000 Y278.2571 Z-0.5000 F1800.00
G3 X-210.6655 Y260.0011 Z-0.5000 I45.4118 J11.7052 F1800.00
G0 X-210.6655 Y260.0011 Z5.0000
G0 X-220.0000 Y301.7406 Z5.0000
G0 X-220.0000 Y301.7406 Z2.5000
G1 X-220.0000 Y301.7406 Z-0.5000 F600.00
G1 X-220.0000 Y480.0000 Z-0.5000 F1800.00
G1 X-160.4107 Y480.0000 Z-0.5000 F1800.00
G3 X-157.4701 Y450.9843 Z-0.5000 I45.8371 J-10.0114 F1800.00
G3 X-177.4701 Y390.9843 Z-0.5000 I22.9461 J-40.9820 F1800.00
G3 X-197.4701 Y330.9843 Z-0.5000 I22.9461 J-40.9820 F1800.00
G3 X-220.0000 Y301.7406 Z-0.5000 I22.9078 J-40.9492 F1800.00
G0 X-220.0000 Y301.7406 Z5.0000
G0 X-210.0000 Y334.5830 Z5.0000
G0 X-210.0000 Y334.5830 Z2.5000
G1 X-210.0000 Y334.5830 Z-0.5000 F600.00
G1 X-210.0000 Y337.0492 Z-0.5000 F1800.00
G3 X-209.4785 Y334.9884 Z-0.5000 I52.0741 J12.0824 F1800.00
G1 X-210.0000 Y334.5830 Z-0.5000 F1800.00
G0 X-210.0000 Y334.5830 Z5.0000
G0 X-210.0000 Y362.9666 Z5.0000
G0 X-210.0000 Y362.9666 Z2.5000
G1 X-210.0000 Y362.9666 Z-0.5000 F600.00
G1 X-210.0000 Y470.0000 Z-0.5000 F1800.00
G1 X-171.4914 Y470.0000 Z-0.5000 F1800.00
G3 X-169.4785 Y454.9884 Z-0.5000 I56.0693 J-0.1221 F1800.00
G3 X-189.4785 Y394.9884 Z-0.5000 I34.9260 J-44.9753 F1800.00
G3 X-210.0000 Y362.9666 Z-0.5000 I34.9561 J-44.9886 F1800.00
G0 X-210.0000 Y362.9666 Z5.0000
G0 X-180.7850 Y356.1410 Z5.0000
G0 X-180.7850 Y356.1410 Z2.5000
G1 X-180.7850 Y356.1410 Z-0.5000 F600.00
G2 X-152.7216 Y376.9342 Z-0.5000 I26.2850 J-6.1410 F1800.00
G2 X-156.2784 Y323.0658 Z-0.5000 I-1.7784 J-26.9342 F1800.00
G2 X-180.7850 Y356.1410 Z-0.5000 I1.7784 J26.9342 F1800.00
G0 X-180.7850 Y356.1410 Z5.0000
G0 X-171.0487 Y353.8663 Z5.0000
G0 X-171.0487 Y353.8663 Z2.5000
G1 X-171.0487 Y353.8663 Z-0.5000 F600.00
G2 X-153.2449 Y366.9479 Z-0.5000 I16.5487 J-3.8663 F1800.00
G2 X-155.7551 Y333.0521 Z-0.5000 I-1.2551 J-16.9479 F1800.00
G2 X-171.0487 Y353.8663 Z-0.5000 I1.2551 J16.9479 F1800.00
G0 X-171.0487 Y353.8663 Z5.0000
G0 X-149.2283 Y387.3794 Z5.0000
G0 X-149.2283 Y387.3794 Z2.5000
G1 X-149.2283 Y387.3794 Z-0.5000 F600.00
G2 X-132.7216 Y436.9342 Z-0.5000 I14.7283 J22.6206 F1800.00
G2 X-136.2784 Y383.0658 Z-0.5000 I-1.7784 J-26.9342 F1800.00
G2 X-149.2283 Y387.3794 Z-0.5000 I1.7784 J26.9342 F1800.00
G0 X-149.2283 Y387.3794 Z5.0000
G0 X-143.7727 Y395.7584 Z5.0000
G0 X-143.7727 Y395.7584 Z2.5000
G1 X-143.7727 Y395.7584 Z-0.5000 F600.00
G2 X-133.2449 Y426.9479 Z-0.5000 I9.2727 J14.2416 F1800.00
G2 X-135.7551 Y393.0521 Z-0.5000 I-1.2551 J-16.9479 F1800.00
G2 X-143.7727 Y395.7584 Z-0.5000 I1.2551 J16.9479 F1800.00
G0 X-143.7727 Y395.7584 Z5.0000
G0 X-124.4012 Y444.8886 Z5.0000
G0 X-124.4012 Y444.8886 Z2.5000
G1 X-124.4012 Y444.8886 Z-0.5000 F600.00
G2 X-112.7216 Y496.9342 Z-0.5000 I9.9012 J25.1114 F1800.00
G2 X-116.2784 Y443.0658 Z-0.5000 I-1.7784 J-26.9342 F1800.00
G2 X-124.4012 Y444.8886 Z-0.5000 I1.7784 J26.9342 F1800.00
G0 X-124.4012 Y444.8886 Z5.0000
G0 X-120.7336 Y454.1902 Z5.0000
G0 X-120.7336 Y454.1902 Z2.5000
G1 X-120.7336 Y454.1902 Z-0.5000 F600.00
G2 X-113.2449 Y486.9479 Z-0.5000 I6.2336 J15.8098 F1800.00
G2 X-115.7551 Y453.0521 Z-0.5000 I-1.2551 J-16.9479 F1800.00
G2 X-120.7336 Y454.1902 Z-0.5000 I1.2551 J16.9479 F1800.00
G0 X-120.7336 Y454.1902 Z5.0000
G0 X-180.5240 Y458.6760 Z5.0000
G0 X-180.5240 Y458.6760 Z2.5000
G1 X-180.5240 Y458.6760 Z-0.5000 F600.00
G3 X-200.0000 Y424.0507 Z-0.5000 I45.8394 J-48.5739 F1800.00
G1 X-200.0000 Y460.0000 Z-0.5000 F1800.00
G1 X-180.7394 Y460.0000 Z-0.5000 F1800.00
G3 X-180.5240 Y458.6760 Z-0.5000 I27.0272 J3.7189 F1800.00
G0 X-180.5240 Y458.6760 Z5.0000
G0 X-220.0000 Y218.2571 Z5.0000
G0 X-220.0000 Y218.2571 Z2.5000
G1 X-220.0000 Y218.2571 Z-0.5000 F600.00
G3 X-197.7293 Y189.1419 Z-0.5000 I45.4601 J11.6980 F1800.00
G1 X-197.4792 Y189.0074 Z-0.5000 F1800.00
G3 X-177.7293 Y129.1419 Z-0.5000 I42.9995 J-19.0048 F1800.00
G1 X-177.4792 Y129.0074 Z-0.5000 F1800.00
G3 X-157.7293 Y69.1419 Z-0.5000 I42.9995 J-19.0048 F1800.00
G1 X-157.4792 Y69.0074 Z-0.5000 F1800.00
G3 X-161.4918 Y50.0000 Z-0.5000 I43.0607 J-19.0178 F1800.00
G1 X-220.0000 Y50.0000 Z-0.5000 F1800.00
G1 X-220.0000 Y218.2571 Z-0.5000 F1800.00
G0 X-220.0000 Y218.2571 Z5.0000
G0 X-210.0000 Y185.4160 Z5.0000
G0 X-210.0000 Y185.4160 Z2.5000
G1 X-210.0000 Y185.4160 Z-0.5000 F600.00
G1 X-209.4800 Y185.0057 Z-0.5000 F1800.00
G3 X-210.0000 Y182.9666 Z-0.5000 I58.6101 J-16.0311 F1800.00
G1 X-210.0000 Y185.4160 Z-0.5000 F1800.00
G0 X-210.0000 Y185.4160 Z5.0000
G0 X-210.0000 Y157.0492 Z5.0000
G0 X-210.0000 Y157.0492 Z2.5000
G1 X-210.0000 Y157.0492 Z-0.5000 F600.00
G3 X-189.4800 Y125.0057 Z-0.5000 I55.4996 J12.9488 F1800.00
G3 X-169.4800 Y65.0057 Z-0.5000 I54.9352 J-15.0216 F1800.00
G3 X-170.6022 Y60.0000 Z-0.5000 I47.4732 J-13.2707 F1800.00
G1 X-210.0000 Y60.0000 Z-0.5000 F1800.00
G1 X-210.0000 Y157.0492 Z-0.5000 F1800.00
G0 X-210.0000 Y157.0492 Z5.0000
G0 X-180.7867 Y163.8660 Z5.0000
G0 X-180.7867 Y163.8660 Z2.5000
G1 X-180.7867 Y163.8660 Z-0.5000 F600.00
G2 X-152.7216 Y196.9342 Z-0.5000 I26.2867 J6.1340 F1800.00
G2 X-156.2784 Y143.0658 Z-0.5000 I-1.7784 J-26.9342 F1800.00
G2 X-180.7867 Y163.8660 Z-0.5000 I1.7784 J26.9342 F1800.00
G0 X-180.7867 Y163.8660 Z5.0000
G0 X-171.0497 Y166.1381 Z5.0000
G0 X-171.0497 Y166.1381 Z2.5000
G1 X-171.0497 Y166.1381 Z-0.5000 F600.00
G2 X-153.2449 Y186.9479 Z-0.5000 I16.5497 J3.8619 F1800.00
G2 X-155.7551 Y153.0521 Z-0.5000 I-1.2551 J-16.9479 F1800.00
G2 X-171.0497 Y166.1381 Z-0.5000 I1.2551 J16.9479 F1800.00
G0 X-171.0497 Y166.1381 Z5.0000
G0 X-149.2278 Y132.6210 Z5.0000
G0 X-149.2278 Y132.6210 Z2.5000
G1 X-149.2278 Y132.6210 Z-0.5000 F600.00
G2 X-132.7216 Y136.9342 Z-0.5000 I14.7278 J-22.6210 F1800.00
G2 X-136.2784 Y83.0658 Z-0.5000 I-1.7784 J-26.9342 F1800.00
G2 X-149.2278 Y132.6210 Z-0.5000 I1.7784 J26.9342 F1800.00
G0 X-149.2278 Y132.6210 Z5.0000
G0 X-143.7724 Y124.2419 Z5.0000
G0 X-143.7724 Y124.2419 Z2.5000
G1 X-143.7724 Y124.2419 Z-0.5000 F600.00
G2 X-133.2449 Y126.9479 Z-0.5000 I9.2724 J-14.2419 F1800.00
G2 X-135.7551 Y93.0521 Z-0.5000 I-1.2551 J-16.9479 F1800.00
G2 X-143.7724 Y124.2419 Z-0.5000 I1.2551 J16.9479 F1800.00
G0 X-143.7724 Y124.2419 Z5.0000
G0 X-120.7336 Y65.8098 Z5.0000
G0 X-120.7336 Y65.8098 Z2.5000
G1 X-120.7336 Y65.8098 Z-0.5000 F600.00
G2 X-113.2449 Y66.9479 Z-0.5000 I6.2336 J-15.8098 F1800.00
G2 X-115.7551 Y33.0521 Z-0.5000 I-1.2551 J-16.9479 F1800.00
G2 X-120.7336 Y65.8098 Z-0.5000 I1.2551 J16.9479 F1800.00
G0 X-120.7336 Y65.8098 Z5.0000
G0 X-188.2448 Y70.0000 Z5.0000
G0 X-188.2448 Y70.0000 Z2.5000
G1 X-188.2448 Y70.0000 Z-0.5000 F600.00
G1 X-200.0000 Y70.0000 Z-0.5000 F1800.00
G1 X-200.0000 Y95.9467 Z-0.5000 F1800.00
G3 X-188.2448 Y70.0000 Z-0.5000 I65.2812 J13.9395 F1800.00
G0 X-188.2448 Y70.0000 Z5.0000
G0 X97.5426 Y51.1202 Z5.0000
G0 X97.5426 Y51.1202 Z2.5000
G1 X97.5426 Y51.1202 Z-0.5000 F600.00
G2 X115.7551 Y66.9479 Z-0.5000 I16.9574 J-1.1202 F1800.00
G2 X113.2449 Y33.0521 Z-0.5000 I-1.2551 J-16.9479 F1800.00
G2 X97.5426 Y51.1202 Z-0.5000 I1.2551 J16.9479 F1800.00
G0 X97.5426 Y51.1202 Z5.0000
G0 X120.1498 Y87.1376 Z5.0000
G0 X120.1498 Y87.1376 Z2.5000
G1 X120.1498 Y87.1376 Z-0.5000 F600.00
G2 X136.2784 Y136.9342 Z-0.5000 I14.3502 J22.8624 F1800.00
G2 X132.7216 Y83.0658 Z-0.5000 I-1.7784 J-26.9342 F1800.00
G2 X120.1498 Y87.1376 Z-0.5000 I1.7784 J26.9342 F1800.00
G0 X120.1498 Y87.1376 Z5.0000
G0 X125.4653 Y95.6062 Z5.0000
G0 X125.4653 Y95.6062 Z2.5000
G1 X125.4653 Y95.6062 Z-0.5000 F600.00
G2 X135.7551 Y126.9479 Z-0.5000 I9.0347 J14.3938 F1800.00
G2 X133.2449 Y93.0521 Z-0.5000 I-1.2551 J-16.9479 F1800.00
G2 X125.4653 Y95.6062 Z-0.5000 I1.2551 J16.9479 F1800.00
G0 X125.4653 Y95.6062 Z5.0000
G0 X157.4701 Y69.0157 Z5.0000
G0 X157.4701 Y69.0157 Z2.5000
G1 X157.4701 Y69.0157 Z-0.5000 F600.00
G3 X177.4701 Y129.0157 Z-0.5000 I-22.9461 J40.9820 F1800.00
G3 X197.4701 Y189.0157 Z-0.5000 I-22.9461 J40.9820 F1800.00
G3 X220.0000 Y218.2594 Z-0.5000 I-22.9078 J40.9492 F1800.00
G1 X220.0000 Y50.0000 Z-0.5000 F1800.00
G1 X161.4918 Y50.0000 Z-0.5000 F1800.00
G3 X157.4701 Y69.0157 Z-0.5000 I-46.9488 J0.0036 F1800.00
G0 X157.4701 Y69.0157 Z5.0000
G0 X169.4785 Y65.0116 Z5.0000
G0 X169.4785 Y65.0116 Z2.5000
G1 X169.4785 Y65.0116 Z-0.5000 F600.00
G3 X189.4785 Y125.0116 Z-0.5000 I-34.9260 J44.9753 F1800.00
G3 X210.0000 Y157.0334 Z-0.5000 I-34.9561 J44.9886 F1800.00
G1 X210.0000 Y60.0000 Z-0.5000 F1800.00
G1 X170.6076 Y60.0000 Z-0.5000 F1800.00
G3 X169.4785 Y65.0116 Z-0.5000 I-49.2881 J-8.4719 F1800.00
G0 X169.4785 Y65.0116 Z5.0000
G0 X188.2408 Y70.0000 Z5.0000
G0 X188.2408 Y70.0000 Z2.5000
G1 X188.2408 Y70.0000 Z-0.5000 F600.00
G3 X200.0000 Y95.9493 Z-0.5000 I-53.4631 J39.8665 F1800.00
G1 X200.0000 Y70.0000 Z-0.5000 F1800.00
G1 X188.2408 Y70.0000 Z-0.5000 F1800.00
G0 X188.2408 Y70.0000 Z5.0000
G0 X163.1296 Y144.4237 Z5.0000
G0 X163.1296 Y144.4237 Z2.5000
G1 X163.1296 Y144.4237 Z-0.5000 F600.00
G2 X152.7216 Y143.0658 Z-0.5000 I-8.6296 J25.5763 F1800.00
G2 X127.5658 Y171.7784 Z-0.5000 I1.7784 J26.9342 F1800.00
G2 X156.2784 Y196.9342 Z-0.5000 I26.9342 J-1.7784 F1800.00
G2 X163.1296 Y144.4237 Z-0.5000 I-1.7784 J-26.9342 F1800.00
G0 X163.1296 Y144.4237 Z5.0000
G0 X159.9331 Y153.8975 Z5.0000
G0 X159.9331 Y153.8975 Z2.5000
G1 X159.9331 Y153.8975 Z-0.5000 F600.00
G2 X153.2449 Y153.0521 Z-0.5000 I-5.4331 J16.1025 F1800.00
G2 X137.5521 Y171.2551 Z-0.5000 I1.2551 J16.9479 F1800.00
G2 X155.7551 Y186.9479 Z-0.5000 I16.9479 J-1.2551 F1800.00
G2 X159.9331 Y153.8975 Z-0.5000 I-1.2551 J-16.9479 F1800.00
G0 X159.9331 Y153.8975 Z5.0000
G0 X169.4254 Y203.4884 Z5.0000
G0 X169.4254 Y203.4884 Z2.5000
G1 X169.4254 Y203.4884 Z-0.5000 F600.00
G2 X176.2784 Y256.9342 Z-0.5000 I5.0746 J26.5116 F1800.00
G2 X172.7216 Y203.0658 Z-0.5000 I-1.7784 J-26.9342 F1800.00
G2 X169.4254 Y203.4884 Z-0.5000 I1.7784 J26.9342 F1800.00
G0 X169.4254 Y203.4884 Z5.0000
G0 X171.3051 Y213.3087 Z5.0000
G0 X171.3051 Y213.3087 Z2.5000
G1 X171.3051 Y213.3087 Z-0.5000 F600.00
G2 X175.7551 Y246.9479 Z-0.5000 I3.1949 J16.6913 F1800.00
G2 X173.2449 Y213.0521 Z-0.5000 I-1.2551 J-16.9479 F1800.00
G2 X171.3051 Y213.3087 Z-0.5000 I1.2551 J16.9479 F1800.00
G0 X171.3051 Y213.3087 Z5.0000
G0 X209.4785 Y185.0116 Z5.0000
G0 X209.4785 Y185.0116 Z2.5000
G1 X209.4785 Y185.0116 Z-0.5000 F600.00
G1 X210.0000 Y185.4170 Z-0.5000 F1800.00
G1 X210.0000 Y182.9508 Z-0.5000 F1800.00
G3 X209.4785 Y185.0116 Z-0.5000 I-52.0740 J-12.0824 F1800.00
G0 X209.4785 Y185.0116 Z5.0000
G0 X220.0000 Y241.7429 Z5.0000
G0 X220.0000 Y241.7429 Z2.5000
G1 X220.0000 Y241.7429 Z-0.5000 F600.00
G3 X210.6655 Y259.9989 Z-0.5000 I-45.4118 J-11.7052 F1800.00
G3 X220.0000 Y278.2594 Z-0.5000 I-36.0930 J29.9663 F1800.00
G1 X220.0000 Y241.7429 Z-0.5000 F1800.00
G0 X220.0000 Y241.7429 Z5.0000
G0 X193.0176 Y270.3603 Z5.0000
G0 X193.0176 Y270.3603 Z2.5000
G1 X193.0176 Y270.3603 Z-0.5000 F600.00
G2 X172.7216 Y263.0658 Z-0.5000 I-18.5176 J19.6397 F1800.00
G2 X147.5658 Y291.7784 Z-0.5000 I1.7784 J26.9342 F1800.00
G2 X176.2784 Y316.9342 Z-0.5000 I26.9342 J-1.7784 F1800.00
G2 X193.0176 Y270.3603 Z-0.5000 I-1.7784 J-26.9342 F1800.00
G0 X193.0176 Y270.3603 Z5.0000
G0 X186.1584 Y277.6351 Z5.0000
G0 X186.1584 Y277.6351 Z2.5000
G1 X186.1584 Y277.6351 Z-0.5000 F600.00
G2 X173.2449 Y273.0521 Z-0.5000 I-11.6584 J12.3649 F1800.00
G2 X157.5521 Y291.2551 Z-0.5000 I1.2551 J16.9479 F1800.00
G2 X175.7551 Y306.9479 Z-0.5000 I16.9479 J-1.2551 F1800.00
G2 X186.1584 Y277.6351 Z-0.5000 I-1.2551 J-16.9479 F1800.00
G0 X186.1584 Y277.6351 Z5.0000
G0 X165.3189 Y325.2701 Z5.0000
G0 X165.3189 Y325.2701 Z2.5000
G1 X165.3189 Y325.2701 Z-0.5000 F600.00
G2 X152.7216 Y323.0658 Z-0.5000 I-10.8189 J24.7299 F1800.00
G2 X127.5658 Y351.7784 Z-0.5000 I1.7784 J26.9342 F1800.00
G2 X156.2784 Y376.9342 Z-0.5000 I26.9342 J-1.7784 F1800.00
G2 X165.3189 Y325.2701 Z-0.5000 I-1.7784 J-26.9342 F1800.00
G0 X165.3189 Y325.2701 Z5.0000
G0 X161.3114 Y334.4304 Z5.0000
G0 X161.3114 Y334.4304 Z2.5000
G1 X161.3114 Y334.4304 Z-0.5000 F600.00
G2 X153.2449 Y333.0521 Z-0.5000 I-6.8114 J15.5696 F1800.00
G2 X137.5521 Y351.2551 Z-0.5000 I1.2551 J16.9479 F1800.00
G2 X155.7551 Y366.9479 Z-0.5000 I16.9479 J-1.2551 F1800.00
G2 X161.3114 Y334.4304 Z-0.5000 I-1.2551 J-16.9479 F1800.00
G0 X161.3114 Y334.4304 Z5.0000
G0 X209.4800 Y334.9943 Z5.0000
G0 X209.4800 Y334.9943 Z2.5000
G1 X209.4800 Y334.9943 Z-0.5000 F600.00
G3 X210.0000 Y337.0334 Z-0.5000 I-58.6103 J16.0312 F1800.00
G1 X210.0000 Y334.5840 Z-0.5000 F1800.00
G1 X209.4800 Y334.9943 Z-0.5000 F1800.00
G0 Z5.0000
(finish operation: Flatten_Center)
(begin postamble)
M5
G17 G90
; M2
