(Exported by FreeCAD)
(Post Processor: grbl_post)
(Output Time:2020-01-05 11:51:10.443664)
(begin preamble)
G17 G90
G21
(begin operation: T4: 2FluteWoodMill)
(Path: T4: 2FluteWoodMill)
(T4: 2FluteWoodMill)
(begin toolchange)
; M6 T4
M3 S3000.0000
(finish operation: T4: 2FluteWoodMill)
(begin operation: Screw_Holes)
(Path: Screw_Holes)
(Screw_Holes)
(Compensated Tool Path. Diameter: 3.0)
G0 Z5.0000
G0 X71.0574 Y1.0574
G0 Z3.0000
G1 X71.0574 Y1.0574 Z-0.5000 F600.00
G2 X70.4621 Y-1.4222 Z-0.5000 I-1.0574 J-1.0574 F1200.00
G2 X69.5379 Y1.4222 Z-0.5000 I-0.4621 J1.4222 F1200.00
G2 X71.0574 Y1.0574 Z-0.5000 I0.4621 J-1.4222 F1200.00
G1 X71.0574 Y1.0574 Z-1.0000 F600.00
G2 X70.4621 Y-1.4222 Z-1.0000 I-1.0574 J-1.0574 F1200.00
G2 X69.5379 Y1.4222 Z-1.0000 I-0.4621 J1.4222 F1200.00
G2 X71.0574 Y1.0574 Z-1.0000 I0.4621 J-1.4222 F1200.00
G1 X71.0574 Y1.0574 Z-1.5000 F600.00
G2 X70.4621 Y-1.4222 Z-1.5000 I-1.0574 J-1.0574 F1200.00
G2 X69.5379 Y1.4222 Z-1.5000 I-0.4621 J1.4222 F1200.00
G2 X71.0574 Y1.0574 Z-1.5000 I0.4621 J-1.4222 F1200.00
G1 X71.0574 Y1.0574 Z-2.0000 F600.00
G2 X70.4621 Y-1.4222 Z-2.0000 I-1.0574 J-1.0574 F1200.00
G2 X69.5379 Y1.4222 Z-2.0000 I-0.4621 J1.4222 F1200.00
G2 X71.0574 Y1.0574 Z-2.0000 I0.4621 J-1.4222 F1200.00
G1 X71.0574 Y1.0574 Z-2.5000 F600.00
G2 X70.4621 Y-1.4222 Z-2.5000 I-1.0574 J-1.0574 F1200.00
G2 X69.5379 Y1.4222 Z-2.5000 I-0.4621 J1.4222 F1200.00
G2 X71.0574 Y1.0574 Z-2.5000 I0.4621 J-1.4222 F1200.00
G1 X71.0574 Y1.0574 Z-3.0000 F600.00
G2 X70.4621 Y-1.4222 Z-3.0000 I-1.0574 J-1.0574 F1200.00
G2 X69.5379 Y1.4222 Z-3.0000 I-0.4621 J1.4222 F1200.00
G2 X71.0574 Y1.0574 Z-3.0000 I0.4621 J-1.4222 F1200.00
G1 X71.0574 Y1.0574 Z-3.5000 F600.00
G2 X70.4621 Y-1.4222 Z-3.5000 I-1.0574 J-1.0574 F1200.00
G2 X69.5379 Y1.4222 Z-3.5000 I-0.4621 J1.4222 F1200.00
G2 X71.0574 Y1.0574 Z-3.5000 I0.4621 J-1.4222 F1200.00
G1 X71.0574 Y1.0574 Z-4.0000 F600.00
G2 X70.4621 Y-1.4222 Z-4.0000 I-1.0574 J-1.0574 F1200.00
G2 X69.5379 Y1.4222 Z-4.0000 I-0.4621 J1.4222 F1200.00
G2 X71.0574 Y1.0574 Z-4.0000 I0.4621 J-1.4222 F1200.00
G1 X71.0574 Y1.0574 Z-4.5000 F600.00
G2 X70.4621 Y-1.4222 Z-4.5000 I-1.0574 J-1.0574 F1200.00
G2 X69.5379 Y1.4222 Z-4.5000 I-0.4621 J1.4222 F1200.00
G2 X71.0574 Y1.0574 Z-4.5000 I0.4621 J-1.4222 F1200.00
G1 X71.0574 Y1.0574 Z-5.0000 F600.00
G2 X70.4621 Y-1.4222 Z-5.0000 I-1.0574 J-1.0574 F1200.00
G2 X69.5379 Y1.4222 Z-5.0000 I-0.4621 J1.4222 F1200.00
G2 X71.0574 Y1.0574 Z-5.0000 I0.4621 J-1.4222 F1200.00
G1 X71.0574 Y1.0574 Z-5.5000 F600.00
G2 X70.4621 Y-1.4222 Z-5.5000 I-1.0574 J-1.0574 F1200.00
G2 X69.5379 Y1.4222 Z-5.5000 I-0.4621 J1.4222 F1200.00
G2 X71.0574 Y1.0574 Z-5.5000 I0.4621 J-1.4222 F1200.00
G1 X71.0574 Y1.0574 Z-6.0000 F600.00
G2 X70.4621 Y-1.4222 Z-6.0000 I-1.0574 J-1.0574 F1200.00
G2 X69.5379 Y1.4222 Z-6.0000 I-0.4621 J1.4222 F1200.00
G2 X71.0574 Y1.0574 Z-6.0000 I0.4621 J-1.4222 F1200.00
G1 X71.0574 Y1.0574 Z-6.5000 F600.00
G2 X70.4621 Y-1.4222 Z-6.5000 I-1.0574 J-1.0574 F1200.00
G2 X69.5379 Y1.4222 Z-6.5000 I-0.4621 J1.4222 F1200.00
G2 X71.0574 Y1.0574 Z-6.5000 I0.4621 J-1.4222 F1200.00
G1 X71.0574 Y1.0574 Z-7.0000 F600.00
G2 X70.4621 Y-1.4222 Z-7.0000 I-1.0574 J-1.0574 F1200.00
G2 X69.5379 Y1.4222 Z-7.0000 I-0.4621 J1.4222 F1200.00
G2 X71.0574 Y1.0574 Z-7.0000 I0.4621 J-1.4222 F1200.00
G1 X71.0574 Y1.0574 Z-7.5000 F600.00
G2 X70.4621 Y-1.4222 Z-7.5000 I-1.0574 J-1.0574 F1200.00
G2 X69.5379 Y1.4222 Z-7.5000 I-0.4621 J1.4222 F1200.00
G2 X71.0574 Y1.0574 Z-7.5000 I0.4621 J-1.4222 F1200.00
G1 X71.0574 Y1.0574 Z-8.0000 F600.00
G2 X70.4621 Y-1.4222 Z-8.0000 I-1.0574 J-1.0574 F1200.00
G2 X69.5379 Y1.4222 Z-8.0000 I-0.4621 J1.4222 F1200.00
G2 X71.0574 Y1.0574 Z-8.0000 I0.4621 J-1.4222 F1200.00
G1 X71.0574 Y1.0574 Z-8.5000 F600.00
G2 X70.4621 Y-1.4222 Z-8.5000 I-1.0574 J-1.0574 F1200.00
G2 X69.5379 Y1.4222 Z-8.5000 I-0.4621 J1.4222 F1200.00
G2 X71.0574 Y1.0574 Z-8.5000 I0.4621 J-1.4222 F1200.00
G1 X71.0574 Y1.0574 Z-9.0000 F600.00
G2 X70.4621 Y-1.4222 Z-9.0000 I-1.0574 J-1.0574 F1200.00
G2 X69.5379 Y1.4222 Z-9.0000 I-0.4621 J1.4222 F1200.00
G2 X71.0574 Y1.0574 Z-9.0000 I0.4621 J-1.4222 F1200.00
G1 X71.0574 Y1.0574 Z-9.5000 F600.00
G2 X70.4621 Y-1.4222 Z-9.5000 I-1.0574 J-1.0574 F1200.00
G2 X69.5379 Y1.4222 Z-9.5000 I-0.4621 J1.4222 F1200.00
G2 X71.0574 Y1.0574 Z-9.5000 I0.4621 J-1.4222 F1200.00
G1 X71.0574 Y1.0574 Z-10.0000 F600.00
G2 X70.4621 Y-1.4222 Z-10.0000 I-1.0574 J-1.0574 F1200.00
G2 X69.5379 Y1.4222 Z-10.0000 I-0.4621 J1.4222 F1200.00
G2 X71.0574 Y1.0574 Z-10.0000 I0.4621 J-1.4222 F1200.00
G1 X71.0574 Y1.0574 Z-10.5000 F600.00
G2 X70.4621 Y-1.4222 Z-10.5000 I-1.0574 J-1.0574 F1200.00
G2 X69.5379 Y1.4222 Z-10.5000 I-0.4621 J1.4222 F1200.00
G2 X71.0574 Y1.0574 Z-10.5000 I0.4621 J-1.4222 F1200.00
G1 X71.0574 Y1.0574 Z-11.0000 F600.00
G2 X70.4621 Y-1.4222 Z-11.0000 I-1.0574 J-1.0574 F1200.00
G2 X69.5379 Y1.4222 Z-11.0000 I-0.4621 J1.4222 F1200.00
G2 X71.0574 Y1.0574 Z-11.0000 I0.4621 J-1.4222 F1200.00
G1 X71.0574 Y1.0574 Z-11.5000 F600.00
G2 X70.4621 Y-1.4222 Z-11.5000 I-1.0574 J-1.0574 F1200.00
G2 X69.5379 Y1.4222 Z-11.5000 I-0.4621 J1.4222 F1200.00
G2 X71.0574 Y1.0574 Z-11.5000 I0.4621 J-1.4222 F1200.00
G1 X71.0574 Y1.0574 Z-12.0000 F600.00
G2 X70.4621 Y-1.4222 Z-12.0000 I-1.0574 J-1.0574 F1200.00
G2 X69.5379 Y1.4222 Z-12.0000 I-0.4621 J1.4222 F1200.00
G2 X71.0574 Y1.0574 Z-12.0000 I0.4621 J-1.4222 F1200.00
G0 Z5.0000
G0 X211.0574 Y1.0574
G0 Z3.0000
G1 X211.0574 Y1.0574 Z-0.5000 F600.00
G2 X210.4621 Y-1.4222 Z-0.5000 I-1.0574 J-1.0574 F1200.00
G2 X209.5379 Y1.4222 Z-0.5000 I-0.4621 J1.4222 F1200.00
G2 X211.0574 Y1.0574 Z-0.5000 I0.4621 J-1.4222 F1200.00
G1 X211.0574 Y1.0574 Z-1.0000 F600.00
G2 X210.4621 Y-1.4222 Z-1.0000 I-1.0574 J-1.0574 F1200.00
G2 X209.5379 Y1.4222 Z-1.0000 I-0.4621 J1.4222 F1200.00
G2 X211.0574 Y1.0574 Z-1.0000 I0.4621 J-1.4222 F1200.00
G1 X211.0574 Y1.0574 Z-1.5000 F600.00
G2 X210.4621 Y-1.4222 Z-1.5000 I-1.0574 J-1.0574 F1200.00
G2 X209.5379 Y1.4222 Z-1.5000 I-0.4621 J1.4222 F1200.00
G2 X211.0574 Y1.0574 Z-1.5000 I0.4621 J-1.4222 F1200.00
G1 X211.0574 Y1.0574 Z-2.0000 F600.00
G2 X210.4621 Y-1.4222 Z-2.0000 I-1.0574 J-1.0574 F1200.00
G2 X209.5379 Y1.4222 Z-2.0000 I-0.4621 J1.4222 F1200.00
G2 X211.0574 Y1.0574 Z-2.0000 I0.4621 J-1.4222 F1200.00
G1 X211.0574 Y1.0574 Z-2.5000 F600.00
G2 X210.4621 Y-1.4222 Z-2.5000 I-1.0574 J-1.0574 F1200.00
G2 X209.5379 Y1.4222 Z-2.5000 I-0.4621 J1.4222 F1200.00
G2 X211.0574 Y1.0574 Z-2.5000 I0.4621 J-1.4222 F1200.00
G1 X211.0574 Y1.0574 Z-3.0000 F600.00
G2 X210.4621 Y-1.4222 Z-3.0000 I-1.0574 J-1.0574 F1200.00
G2 X209.5379 Y1.4222 Z-3.0000 I-0.4621 J1.4222 F1200.00
G2 X211.0574 Y1.0574 Z-3.0000 I0.4621 J-1.4222 F1200.00
G1 X211.0574 Y1.0574 Z-3.5000 F600.00
G2 X210.4621 Y-1.4222 Z-3.5000 I-1.0574 J-1.0574 F1200.00
G2 X209.5379 Y1.4222 Z-3.5000 I-0.4621 J1.4222 F1200.00
G2 X211.0574 Y1.0574 Z-3.5000 I0.4621 J-1.4222 F1200.00
G1 X211.0574 Y1.0574 Z-4.0000 F600.00
G2 X210.4621 Y-1.4222 Z-4.0000 I-1.0574 J-1.0574 F1200.00
G2 X209.5379 Y1.4222 Z-4.0000 I-0.4621 J1.4222 F1200.00
G2 X211.0574 Y1.0574 Z-4.0000 I0.4621 J-1.4222 F1200.00
G1 X211.0574 Y1.0574 Z-4.5000 F600.00
G2 X210.4621 Y-1.4222 Z-4.5000 I-1.0574 J-1.0574 F1200.00
G2 X209.5379 Y1.4222 Z-4.5000 I-0.4621 J1.4222 F1200.00
G2 X211.0574 Y1.0574 Z-4.5000 I0.4621 J-1.4222 F1200.00
G1 X211.0574 Y1.0574 Z-5.0000 F600.00
G2 X210.4621 Y-1.4222 Z-5.0000 I-1.0574 J-1.0574 F1200.00
G2 X209.5379 Y1.4222 Z-5.0000 I-0.4621 J1.4222 F1200.00
G2 X211.0574 Y1.0574 Z-5.0000 I0.4621 J-1.4222 F1200.00
G1 X211.0574 Y1.0574 Z-5.5000 F600.00
G2 X210.4621 Y-1.4222 Z-5.5000 I-1.0574 J-1.0574 F1200.00
G2 X209.5379 Y1.4222 Z-5.5000 I-0.4621 J1.4222 F1200.00
G2 X211.0574 Y1.0574 Z-5.5000 I0.4621 J-1.4222 F1200.00
G1 X211.0574 Y1.0574 Z-6.0000 F600.00
G2 X210.4621 Y-1.4222 Z-6.0000 I-1.0574 J-1.0574 F1200.00
G2 X209.5379 Y1.4222 Z-6.0000 I-0.4621 J1.4222 F1200.00
G2 X211.0574 Y1.0574 Z-6.0000 I0.4621 J-1.4222 F1200.00
G1 X211.0574 Y1.0574 Z-6.5000 F600.00
G2 X210.4621 Y-1.4222 Z-6.5000 I-1.0574 J-1.0574 F1200.00
G2 X209.5379 Y1.4222 Z-6.5000 I-0.4621 J1.4222 F1200.00
G2 X211.0574 Y1.0574 Z-6.5000 I0.4621 J-1.4222 F1200.00
G1 X211.0574 Y1.0574 Z-7.0000 F600.00
G2 X210.4621 Y-1.4222 Z-7.0000 I-1.0574 J-1.0574 F1200.00
G2 X209.5379 Y1.4222 Z-7.0000 I-0.4621 J1.4222 F1200.00
G2 X211.0574 Y1.0574 Z-7.0000 I0.4621 J-1.4222 F1200.00
G1 X211.0574 Y1.0574 Z-7.5000 F600.00
G2 X210.4621 Y-1.4222 Z-7.5000 I-1.0574 J-1.0574 F1200.00
G2 X209.5379 Y1.4222 Z-7.5000 I-0.4621 J1.4222 F1200.00
G2 X211.0574 Y1.0574 Z-7.5000 I0.4621 J-1.4222 F1200.00
G1 X211.0574 Y1.0574 Z-8.0000 F600.00
G2 X210.4621 Y-1.4222 Z-8.0000 I-1.0574 J-1.0574 F1200.00
G2 X209.5379 Y1.4222 Z-8.0000 I-0.4621 J1.4222 F1200.00
G2 X211.0574 Y1.0574 Z-8.0000 I0.4621 J-1.4222 F1200.00
G1 X211.0574 Y1.0574 Z-8.5000 F600.00
G2 X210.4621 Y-1.4222 Z-8.5000 I-1.0574 J-1.0574 F1200.00
G2 X209.5379 Y1.4222 Z-8.5000 I-0.4621 J1.4222 F1200.00
G2 X211.0574 Y1.0574 Z-8.5000 I0.4621 J-1.4222 F1200.00
G1 X211.0574 Y1.0574 Z-9.0000 F600.00
G2 X210.4621 Y-1.4222 Z-9.0000 I-1.0574 J-1.0574 F1200.00
G2 X209.5379 Y1.4222 Z-9.0000 I-0.4621 J1.4222 F1200.00
G2 X211.0574 Y1.0574 Z-9.0000 I0.4621 J-1.4222 F1200.00
G1 X211.0574 Y1.0574 Z-9.5000 F600.00
G2 X210.4621 Y-1.4222 Z-9.5000 I-1.0574 J-1.0574 F1200.00
G2 X209.5379 Y1.4222 Z-9.5000 I-0.4621 J1.4222 F1200.00
G2 X211.0574 Y1.0574 Z-9.5000 I0.4621 J-1.4222 F1200.00
G1 X211.0574 Y1.0574 Z-10.0000 F600.00
G2 X210.4621 Y-1.4222 Z-10.0000 I-1.0574 J-1.0574 F1200.00
G2 X209.5379 Y1.4222 Z-10.0000 I-0.4621 J1.4222 F1200.00
G2 X211.0574 Y1.0574 Z-10.0000 I0.4621 J-1.4222 F1200.00
G1 X211.0574 Y1.0574 Z-10.5000 F600.00
G2 X210.4621 Y-1.4222 Z-10.5000 I-1.0574 J-1.0574 F1200.00
G2 X209.5379 Y1.4222 Z-10.5000 I-0.4621 J1.4222 F1200.00
G2 X211.0574 Y1.0574 Z-10.5000 I0.4621 J-1.4222 F1200.00
G1 X211.0574 Y1.0574 Z-11.0000 F600.00
G2 X210.4621 Y-1.4222 Z-11.0000 I-1.0574 J-1.0574 F1200.00
G2 X209.5379 Y1.4222 Z-11.0000 I-0.4621 J1.4222 F1200.00
G2 X211.0574 Y1.0574 Z-11.0000 I0.4621 J-1.4222 F1200.00
G1 X211.0574 Y1.0574 Z-11.5000 F600.00
G2 X210.4621 Y-1.4222 Z-11.5000 I-1.0574 J-1.0574 F1200.00
G2 X209.5379 Y1.4222 Z-11.5000 I-0.4621 J1.4222 F1200.00
G2 X211.0574 Y1.0574 Z-11.5000 I0.4621 J-1.4222 F1200.00
G1 X211.0574 Y1.0574 Z-12.0000 F600.00
G2 X210.4621 Y-1.4222 Z-12.0000 I-1.0574 J-1.0574 F1200.00
G2 X209.5379 Y1.4222 Z-12.0000 I-0.4621 J1.4222 F1200.00
G2 X211.0574 Y1.0574 Z-12.0000 I0.4621 J-1.4222 F1200.00
G0 Z5.0000
G0 X115.5574 Y51.0574
G0 Z3.0000
G1 X115.5574 Y51.0574 Z-0.5000 F600.00
G2 X114.9621 Y48.5778 Z-0.5000 I-1.0574 J-1.0574 F1200.00
G2 X114.0379 Y51.4222 Z-0.5000 I-0.4621 J1.4222 F1200.00
G2 X115.5574 Y51.0574 Z-0.5000 I0.4621 J-1.4222 F1200.00
G1 X115.5574 Y51.0574 Z-1.0000 F600.00
G2 X114.9621 Y48.5778 Z-1.0000 I-1.0574 J-1.0574 F1200.00
G2 X114.0379 Y51.4222 Z-1.0000 I-0.4621 J1.4222 F1200.00
G2 X115.5574 Y51.0574 Z-1.0000 I0.4621 J-1.4222 F1200.00
G1 X115.5574 Y51.0574 Z-1.5000 F600.00
G2 X114.9621 Y48.5778 Z-1.5000 I-1.0574 J-1.0574 F1200.00
G2 X114.0379 Y51.4222 Z-1.5000 I-0.4621 J1.4222 F1200.00
G2 X115.5574 Y51.0574 Z-1.5000 I0.4621 J-1.4222 F1200.00
G1 X115.5574 Y51.0574 Z-2.0000 F600.00
G2 X114.9621 Y48.5778 Z-2.0000 I-1.0574 J-1.0574 F1200.00
G2 X114.0379 Y51.4222 Z-2.0000 I-0.4621 J1.4222 F1200.00
G2 X115.5574 Y51.0574 Z-2.0000 I0.4621 J-1.4222 F1200.00
G1 X115.5574 Y51.0574 Z-2.5000 F600.00
G2 X114.9621 Y48.5778 Z-2.5000 I-1.0574 J-1.0574 F1200.00
G2 X114.0379 Y51.4222 Z-2.5000 I-0.4621 J1.4222 F1200.00
G2 X115.5574 Y51.0574 Z-2.5000 I0.4621 J-1.4222 F1200.00
G1 X115.5574 Y51.0574 Z-3.0000 F600.00
G2 X114.9621 Y48.5778 Z-3.0000 I-1.0574 J-1.0574 F1200.00
G2 X114.0379 Y51.4222 Z-3.0000 I-0.4621 J1.4222 F1200.00
G2 X115.5574 Y51.0574 Z-3.0000 I0.4621 J-1.4222 F1200.00
G1 X115.5574 Y51.0574 Z-3.5000 F600.00
G2 X114.9621 Y48.5778 Z-3.5000 I-1.0574 J-1.0574 F1200.00
G2 X114.0379 Y51.4222 Z-3.5000 I-0.4621 J1.4222 F1200.00
G2 X115.5574 Y51.0574 Z-3.5000 I0.4621 J-1.4222 F1200.00
G1 X115.5574 Y51.0574 Z-4.0000 F600.00
G2 X114.9621 Y48.5778 Z-4.0000 I-1.0574 J-1.0574 F1200.00
G2 X114.0379 Y51.4222 Z-4.0000 I-0.4621 J1.4222 F1200.00
G2 X115.5574 Y51.0574 Z-4.0000 I0.4621 J-1.4222 F1200.00
G1 X115.5574 Y51.0574 Z-4.5000 F600.00
G2 X114.9621 Y48.5778 Z-4.5000 I-1.0574 J-1.0574 F1200.00
G2 X114.0379 Y51.4222 Z-4.5000 I-0.4621 J1.4222 F1200.00
G2 X115.5574 Y51.0574 Z-4.5000 I0.4621 J-1.4222 F1200.00
G1 X115.5574 Y51.0574 Z-5.0000 F600.00
G2 X114.9621 Y48.5778 Z-5.0000 I-1.0574 J-1.0574 F1200.00
G2 X114.0379 Y51.4222 Z-5.0000 I-0.4621 J1.4222 F1200.00
G2 X115.5574 Y51.0574 Z-5.0000 I0.4621 J-1.4222 F1200.00
G1 X115.5574 Y51.0574 Z-5.5000 F600.00
G2 X114.9621 Y48.5778 Z-5.5000 I-1.0574 J-1.0574 F1200.00
G2 X114.0379 Y51.4222 Z-5.5000 I-0.4621 J1.4222 F1200.00
G2 X115.5574 Y51.0574 Z-5.5000 I0.4621 J-1.4222 F1200.00
G1 X115.5574 Y51.0574 Z-6.0000 F600.00
G2 X114.9621 Y48.5778 Z-6.0000 I-1.0574 J-1.0574 F1200.00
G2 X114.0379 Y51.4222 Z-6.0000 I-0.4621 J1.4222 F1200.00
G2 X115.5574 Y51.0574 Z-6.0000 I0.4621 J-1.4222 F1200.00
G1 X115.5574 Y51.0574 Z-6.5000 F600.00
G2 X114.9621 Y48.5778 Z-6.5000 I-1.0574 J-1.0574 F1200.00
G2 X114.0379 Y51.4222 Z-6.5000 I-0.4621 J1.4222 F1200.00
G2 X115.5574 Y51.0574 Z-6.5000 I0.4621 J-1.4222 F1200.00
G1 X115.5574 Y51.0574 Z-7.0000 F600.00
G2 X114.9621 Y48.5778 Z-7.0000 I-1.0574 J-1.0574 F1200.00
G2 X114.0379 Y51.4222 Z-7.0000 I-0.4621 J1.4222 F1200.00
G2 X115.5574 Y51.0574 Z-7.0000 I0.4621 J-1.4222 F1200.00
G1 X115.5574 Y51.0574 Z-7.5000 F600.00
G2 X114.9621 Y48.5778 Z-7.5000 I-1.0574 J-1.0574 F1200.00
G2 X114.0379 Y51.4222 Z-7.5000 I-0.4621 J1.4222 F1200.00
G2 X115.5574 Y51.0574 Z-7.5000 I0.4621 J-1.4222 F1200.00
G1 X115.5574 Y51.0574 Z-8.0000 F600.00
G2 X114.9621 Y48.5778 Z-8.0000 I-1.0574 J-1.0574 F1200.00
G2 X114.0379 Y51.4222 Z-8.0000 I-0.4621 J1.4222 F1200.00
G2 X115.5574 Y51.0574 Z-8.0000 I0.4621 J-1.4222 F1200.00
G1 X115.5574 Y51.0574 Z-8.5000 F600.00
G2 X114.9621 Y48.5778 Z-8.5000 I-1.0574 J-1.0574 F1200.00
G2 X114.0379 Y51.4222 Z-8.5000 I-0.4621 J1.4222 F1200.00
G2 X115.5574 Y51.0574 Z-8.5000 I0.4621 J-1.4222 F1200.00
G1 X115.5574 Y51.0574 Z-9.0000 F600.00
G2 X114.9621 Y48.5778 Z-9.0000 I-1.0574 J-1.0574 F1200.00
G2 X114.0379 Y51.4222 Z-9.0000 I-0.4621 J1.4222 F1200.00
G2 X115.5574 Y51.0574 Z-9.0000 I0.4621 J-1.4222 F1200.00
G1 X115.5574 Y51.0574 Z-9.5000 F600.00
G2 X114.9621 Y48.5778 Z-9.5000 I-1.0574 J-1.0574 F1200.00
G2 X114.0379 Y51.4222 Z-9.5000 I-0.4621 J1.4222 F1200.00
G2 X115.5574 Y51.0574 Z-9.5000 I0.4621 J-1.4222 F1200.00
G1 X115.5574 Y51.0574 Z-10.0000 F600.00
G2 X114.9621 Y48.5778 Z-10.0000 I-1.0574 J-1.0574 F1200.00
G2 X114.0379 Y51.4222 Z-10.0000 I-0.4621 J1.4222 F1200.00
G2 X115.5574 Y51.0574 Z-10.0000 I0.4621 J-1.4222 F1200.00
G1 X115.5574 Y51.0574 Z-10.5000 F600.00
G2 X114.9621 Y48.5778 Z-10.5000 I-1.0574 J-1.0574 F1200.00
G2 X114.0379 Y51.4222 Z-10.5000 I-0.4621 J1.4222 F1200.00
G2 X115.5574 Y51.0574 Z-10.5000 I0.4621 J-1.4222 F1200.00
G1 X115.5574 Y51.0574 Z-11.0000 F600.00
G2 X114.9621 Y48.5778 Z-11.0000 I-1.0574 J-1.0574 F1200.00
G2 X114.0379 Y51.4222 Z-11.0000 I-0.4621 J1.4222 F1200.00
G2 X115.5574 Y51.0574 Z-11.0000 I0.4621 J-1.4222 F1200.00
G1 X115.5574 Y51.0574 Z-11.5000 F600.00
G2 X114.9621 Y48.5778 Z-11.5000 I-1.0574 J-1.0574 F1200.00
G2 X114.0379 Y51.4222 Z-11.5000 I-0.4621 J1.4222 F1200.00
G2 X115.5574 Y51.0574 Z-11.5000 I0.4621 J-1.4222 F1200.00
G1 X115.5574 Y51.0574 Z-12.0000 F600.00
G2 X114.9621 Y48.5778 Z-12.0000 I-1.0574 J-1.0574 F1200.00
G2 X114.0379 Y51.4222 Z-12.0000 I-0.4621 J1.4222 F1200.00
G2 X115.5574 Y51.0574 Z-12.0000 I0.4621 J-1.4222 F1200.00
G0 Z5.0000
G0 X-113.4426 Y51.0574
G0 Z3.0000
G1 X-113.4426 Y51.0574 Z-0.5000 F600.00
G2 X-114.0379 Y48.5778 Z-0.5000 I-1.0574 J-1.0574 F1200.00
G2 X-114.9621 Y51.4222 Z-0.5000 I-0.4621 J1.4222 F1200.00
G2 X-113.4426 Y51.0574 Z-0.5000 I0.4621 J-1.4222 F1200.00
G1 X-113.4426 Y51.0574 Z-1.0000 F600.00
G2 X-114.0379 Y48.5778 Z-1.0000 I-1.0574 J-1.0574 F1200.00
G2 X-114.9621 Y51.4222 Z-1.0000 I-0.4621 J1.4222 F1200.00
G2 X-113.4426 Y51.0574 Z-1.0000 I0.4621 J-1.4222 F1200.00
G1 X-113.4426 Y51.0574 Z-1.5000 F600.00
G2 X-114.0379 Y48.5778 Z-1.5000 I-1.0574 J-1.0574 F1200.00
G2 X-114.9621 Y51.4222 Z-1.5000 I-0.4621 J1.4222 F1200.00
G2 X-113.4426 Y51.0574 Z-1.5000 I0.4621 J-1.4222 F1200.00
G1 X-113.4426 Y51.0574 Z-2.0000 F600.00
G2 X-114.0379 Y48.5778 Z-2.0000 I-1.0574 J-1.0574 F1200.00
G2 X-114.9621 Y51.4222 Z-2.0000 I-0.4621 J1.4222 F1200.00
G2 X-113.4426 Y51.0574 Z-2.0000 I0.4621 J-1.4222 F1200.00
G1 X-113.4426 Y51.0574 Z-2.5000 F600.00
G2 X-114.0379 Y48.5778 Z-2.5000 I-1.0574 J-1.0574 F1200.00
G2 X-114.9621 Y51.4222 Z-2.5000 I-0.4621 J1.4222 F1200.00
G2 X-113.4426 Y51.0574 Z-2.5000 I0.4621 J-1.4222 F1200.00
G1 X-113.4426 Y51.0574 Z-3.0000 F600.00
G2 X-114.0379 Y48.5778 Z-3.0000 I-1.0574 J-1.0574 F1200.00
G2 X-114.9621 Y51.4222 Z-3.0000 I-0.4621 J1.4222 F1200.00
G2 X-113.4426 Y51.0574 Z-3.0000 I0.4621 J-1.4222 F1200.00
G1 X-113.4426 Y51.0574 Z-3.5000 F600.00
G2 X-114.0379 Y48.5778 Z-3.5000 I-1.0574 J-1.0574 F1200.00
G2 X-114.9621 Y51.4222 Z-3.5000 I-0.4621 J1.4222 F1200.00
G2 X-113.4426 Y51.0574 Z-3.5000 I0.4621 J-1.4222 F1200.00
G1 X-113.4426 Y51.0574 Z-4.0000 F600.00
G2 X-114.0379 Y48.5778 Z-4.0000 I-1.0574 J-1.0574 F1200.00
G2 X-114.9621 Y51.4222 Z-4.0000 I-0.4621 J1.4222 F1200.00
G2 X-113.4426 Y51.0574 Z-4.0000 I0.4621 J-1.4222 F1200.00
G1 X-113.4426 Y51.0574 Z-4.5000 F600.00
G2 X-114.0379 Y48.5778 Z-4.5000 I-1.0574 J-1.0574 F1200.00
G2 X-114.9621 Y51.4222 Z-4.5000 I-0.4621 J1.4222 F1200.00
G2 X-113.4426 Y51.0574 Z-4.5000 I0.4621 J-1.4222 F1200.00
G1 X-113.4426 Y51.0574 Z-5.0000 F600.00
G2 X-114.0379 Y48.5778 Z-5.0000 I-1.0574 J-1.0574 F1200.00
G2 X-114.9621 Y51.4222 Z-5.0000 I-0.4621 J1.4222 F1200.00
G2 X-113.4426 Y51.0574 Z-5.0000 I0.4621 J-1.4222 F1200.00
G1 X-113.4426 Y51.0574 Z-5.5000 F600.00
G2 X-114.0379 Y48.5778 Z-5.5000 I-1.0574 J-1.0574 F1200.00
G2 X-114.9621 Y51.4222 Z-5.5000 I-0.4621 J1.4222 F1200.00
G2 X-113.4426 Y51.0574 Z-5.5000 I0.4621 J-1.4222 F1200.00
G1 X-113.4426 Y51.0574 Z-6.0000 F600.00
G2 X-114.0379 Y48.5778 Z-6.0000 I-1.0574 J-1.0574 F1200.00
G2 X-114.9621 Y51.4222 Z-6.0000 I-0.4621 J1.4222 F1200.00
G2 X-113.4426 Y51.0574 Z-6.0000 I0.4621 J-1.4222 F1200.00
G1 X-113.4426 Y51.0574 Z-6.5000 F600.00
G2 X-114.0379 Y48.5778 Z-6.5000 I-1.0574 J-1.0574 F1200.00
G2 X-114.9621 Y51.4222 Z-6.5000 I-0.4621 J1.4222 F1200.00
G2 X-113.4426 Y51.0574 Z-6.5000 I0.4621 J-1.4222 F1200.00
G1 X-113.4426 Y51.0574 Z-7.0000 F600.00
G2 X-114.0379 Y48.5778 Z-7.0000 I-1.0574 J-1.0574 F1200.00
G2 X-114.9621 Y51.4222 Z-7.0000 I-0.4621 J1.4222 F1200.00
G2 X-113.4426 Y51.0574 Z-7.0000 I0.4621 J-1.4222 F1200.00
G1 X-113.4426 Y51.0574 Z-7.5000 F600.00
G2 X-114.0379 Y48.5778 Z-7.5000 I-1.0574 J-1.0574 F1200.00
G2 X-114.9621 Y51.4222 Z-7.5000 I-0.4621 J1.4222 F1200.00
G2 X-113.4426 Y51.0574 Z-7.5000 I0.4621 J-1.4222 F1200.00
G1 X-113.4426 Y51.0574 Z-8.0000 F600.00
G2 X-114.0379 Y48.5778 Z-8.0000 I-1.0574 J-1.0574 F1200.00
G2 X-114.9621 Y51.4222 Z-8.0000 I-0.4621 J1.4222 F1200.00
G2 X-113.4426 Y51.0574 Z-8.0000 I0.4621 J-1.4222 F1200.00
G1 X-113.4426 Y51.0574 Z-8.5000 F600.00
G2 X-114.0379 Y48.5778 Z-8.5000 I-1.0574 J-1.0574 F1200.00
G2 X-114.9621 Y51.4222 Z-8.5000 I-0.4621 J1.4222 F1200.00
G2 X-113.4426 Y51.0574 Z-8.5000 I0.4621 J-1.4222 F1200.00
G1 X-113.4426 Y51.0574 Z-9.0000 F600.00
G2 X-114.0379 Y48.5778 Z-9.0000 I-1.0574 J-1.0574 F1200.00
G2 X-114.9621 Y51.4222 Z-9.0000 I-0.4621 J1.4222 F1200.00
G2 X-113.4426 Y51.0574 Z-9.0000 I0.4621 J-1.4222 F1200.00
G1 X-113.4426 Y51.0574 Z-9.5000 F600.00
G2 X-114.0379 Y48.5778 Z-9.5000 I-1.0574 J-1.0574 F1200.00
G2 X-114.9621 Y51.4222 Z-9.5000 I-0.4621 J1.4222 F1200.00
G2 X-113.4426 Y51.0574 Z-9.5000 I0.4621 J-1.4222 F1200.00
G1 X-113.4426 Y51.0574 Z-10.0000 F600.00
G2 X-114.0379 Y48.5778 Z-10.0000 I-1.0574 J-1.0574 F1200.00
G2 X-114.9621 Y51.4222 Z-10.0000 I-0.4621 J1.4222 F1200.00
G2 X-113.4426 Y51.0574 Z-10.0000 I0.4621 J-1.4222 F1200.00
G1 X-113.4426 Y51.0574 Z-10.5000 F600.00
G2 X-114.0379 Y48.5778 Z-10.5000 I-1.0574 J-1.0574 F1200.00
G2 X-114.9621 Y51.4222 Z-10.5000 I-0.4621 J1.4222 F1200.00
G2 X-113.4426 Y51.0574 Z-10.5000 I0.4621 J-1.4222 F1200.00
G1 X-113.4426 Y51.0574 Z-11.0000 F600.00
G2 X-114.0379 Y48.5778 Z-11.0000 I-1.0574 J-1.0574 F1200.00
G2 X-114.9621 Y51.4222 Z-11.0000 I-0.4621 J1.4222 F1200.00
G2 X-113.4426 Y51.0574 Z-11.0000 I0.4621 J-1.4222 F1200.00
G1 X-113.4426 Y51.0574 Z-11.5000 F600.00
G2 X-114.0379 Y48.5778 Z-11.5000 I-1.0574 J-1.0574 F1200.00
G2 X-114.9621 Y51.4222 Z-11.5000 I-0.4621 J1.4222 F1200.00
G2 X-113.4426 Y51.0574 Z-11.5000 I0.4621 J-1.4222 F1200.00
G1 X-113.4426 Y51.0574 Z-12.0000 F600.00
G2 X-114.0379 Y48.5778 Z-12.0000 I-1.0574 J-1.0574 F1200.00
G2 X-114.9621 Y51.4222 Z-12.0000 I-0.4621 J1.4222 F1200.00
G2 X-113.4426 Y51.0574 Z-12.0000 I0.4621 J-1.4222 F1200.00
G0 Z5.0000
G0 X-133.4426 Y111.0574
G0 Z3.0000
G1 X-133.4426 Y111.0574 Z-0.5000 F600.00
G2 X-133.0778 Y110.4621 Z-0.5000 I-1.0574 J-1.0574 F1200.00
G2 X-135.9222 Y109.5379 Z-0.5000 I-1.4222 J-0.4621 F1200.00
G2 X-133.4426 Y111.0574 Z-0.5000 I1.4222 J0.4621 F1200.00
G1 X-133.4426 Y111.0574 Z-1.0000 F600.00
G2 X-133.0778 Y110.4621 Z-1.0000 I-1.0574 J-1.0574 F1200.00
G2 X-135.9222 Y109.5379 Z-1.0000 I-1.4222 J-0.4621 F1200.00
G2 X-133.4426 Y111.0574 Z-1.0000 I1.4222 J0.4621 F1200.00
G1 X-133.4426 Y111.0574 Z-1.5000 F600.00
G2 X-133.0778 Y110.4621 Z-1.5000 I-1.0574 J-1.0574 F1200.00
G2 X-135.9222 Y109.5379 Z-1.5000 I-1.4222 J-0.4621 F1200.00
G2 X-133.4426 Y111.0574 Z-1.5000 I1.4222 J0.4621 F1200.00
G1 X-133.4426 Y111.0574 Z-2.0000 F600.00
G2 X-133.0778 Y110.4621 Z-2.0000 I-1.0574 J-1.0574 F1200.00
G2 X-135.9222 Y109.5379 Z-2.0000 I-1.4222 J-0.4621 F1200.00
G2 X-133.4426 Y111.0574 Z-2.0000 I1.4222 J0.4621 F1200.00
G1 X-133.4426 Y111.0574 Z-2.5000 F600.00
G2 X-133.0778 Y110.4621 Z-2.5000 I-1.0574 J-1.0574 F1200.00
G2 X-135.9222 Y109.5379 Z-2.5000 I-1.4222 J-0.4621 F1200.00
G2 X-133.4426 Y111.0574 Z-2.5000 I1.4222 J0.4621 F1200.00
G1 X-133.4426 Y111.0574 Z-3.0000 F600.00
G2 X-133.0778 Y110.4621 Z-3.0000 I-1.0574 J-1.0574 F1200.00
G2 X-135.9222 Y109.5379 Z-3.0000 I-1.4222 J-0.4621 F1200.00
G2 X-133.4426 Y111.0574 Z-3.0000 I1.4222 J0.4621 F1200.00
G1 X-133.4426 Y111.0574 Z-3.5000 F600.00
G2 X-133.0778 Y110.4621 Z-3.5000 I-1.0574 J-1.0574 F1200.00
G2 X-135.9222 Y109.5379 Z-3.5000 I-1.4222 J-0.4621 F1200.00
G2 X-133.4426 Y111.0574 Z-3.5000 I1.4222 J0.4621 F1200.00
G1 X-133.4426 Y111.0574 Z-4.0000 F600.00
G2 X-133.0778 Y110.4621 Z-4.0000 I-1.0574 J-1.0574 F1200.00
G2 X-135.9222 Y109.5379 Z-4.0000 I-1.4222 J-0.4621 F1200.00
G2 X-133.4426 Y111.0574 Z-4.0000 I1.4222 J0.4621 F1200.00
G1 X-133.4426 Y111.0574 Z-4.5000 F600.00
G2 X-133.0778 Y110.4621 Z-4.5000 I-1.0574 J-1.0574 F1200.00
G2 X-135.9222 Y109.5379 Z-4.5000 I-1.4222 J-0.4621 F1200.00
G2 X-133.4426 Y111.0574 Z-4.5000 I1.4222 J0.4621 F1200.00
G1 X-133.4426 Y111.0574 Z-5.0000 F600.00
G2 X-133.0778 Y110.4621 Z-5.0000 I-1.0574 J-1.0574 F1200.00
G2 X-135.9222 Y109.5379 Z-5.0000 I-1.4222 J-0.4621 F1200.00
G2 X-133.4426 Y111.0574 Z-5.0000 I1.4222 J0.4621 F1200.00
G1 X-133.4426 Y111.0574 Z-5.5000 F600.00
G2 X-133.0778 Y110.4621 Z-5.5000 I-1.0574 J-1.0574 F1200.00
G2 X-135.9222 Y109.5379 Z-5.5000 I-1.4222 J-0.4621 F1200.00
G2 X-133.4426 Y111.0574 Z-5.5000 I1.4222 J0.4621 F1200.00
G1 X-133.4426 Y111.0574 Z-6.0000 F600.00
G2 X-133.0778 Y110.4621 Z-6.0000 I-1.0574 J-1.0574 F1200.00
G2 X-135.9222 Y109.5379 Z-6.0000 I-1.4222 J-0.4621 F1200.00
G2 X-133.4426 Y111.0574 Z-6.0000 I1.4222 J0.4621 F1200.00
G1 X-133.4426 Y111.0574 Z-6.5000 F600.00
G2 X-133.0778 Y110.4621 Z-6.5000 I-1.0574 J-1.0574 F1200.00
G2 X-135.9222 Y109.5379 Z-6.5000 I-1.4222 J-0.4621 F1200.00
G2 X-133.4426 Y111.0574 Z-6.5000 I1.4222 J0.4621 F1200.00
G1 X-133.4426 Y111.0574 Z-7.0000 F600.00
G2 X-133.0778 Y110.4621 Z-7.0000 I-1.0574 J-1.0574 F1200.00
G2 X-135.9222 Y109.5379 Z-7.0000 I-1.4222 J-0.4621 F1200.00
G2 X-133.4426 Y111.0574 Z-7.0000 I1.4222 J0.4621 F1200.00
G1 X-133.4426 Y111.0574 Z-7.5000 F600.00
G2 X-133.0778 Y110.4621 Z-7.5000 I-1.0574 J-1.0574 F1200.00
G2 X-135.9222 Y109.5379 Z-7.5000 I-1.4222 J-0.4621 F1200.00
G2 X-133.4426 Y111.0574 Z-7.5000 I1.4222 J0.4621 F1200.00
G1 X-133.4426 Y111.0574 Z-8.0000 F600.00
G2 X-133.0778 Y110.4621 Z-8.0000 I-1.0574 J-1.0574 F1200.00
G2 X-135.9222 Y109.5379 Z-8.0000 I-1.4222 J-0.4621 F1200.00
G2 X-133.4426 Y111.0574 Z-8.0000 I1.4222 J0.4621 F1200.00
G1 X-133.4426 Y111.0574 Z-8.5000 F600.00
G2 X-133.0778 Y110.4621 Z-8.5000 I-1.0574 J-1.0574 F1200.00
G2 X-135.9222 Y109.5379 Z-8.5000 I-1.4222 J-0.4621 F1200.00
G2 X-133.4426 Y111.0574 Z-8.5000 I1.4222 J0.4621 F1200.00
G1 X-133.4426 Y111.0574 Z-9.0000 F600.00
G2 X-133.0778 Y110.4621 Z-9.0000 I-1.0574 J-1.0574 F1200.00
G2 X-135.9222 Y109.5379 Z-9.0000 I-1.4222 J-0.4621 F1200.00
G2 X-133.4426 Y111.0574 Z-9.0000 I1.4222 J0.4621 F1200.00
G1 X-133.4426 Y111.0574 Z-9.5000 F600.00
G2 X-133.0778 Y110.4621 Z-9.5000 I-1.0574 J-1.0574 F1200.00
G2 X-135.9222 Y109.5379 Z-9.5000 I-1.4222 J-0.4621 F1200.00
G2 X-133.4426 Y111.0574 Z-9.5000 I1.4222 J0.4621 F1200.00
G1 X-133.4426 Y111.0574 Z-10.0000 F600.00
G2 X-133.0778 Y110.4621 Z-10.0000 I-1.0574 J-1.0574 F1200.00
G2 X-135.9222 Y109.5379 Z-10.0000 I-1.4222 J-0.4621 F1200.00
G2 X-133.4426 Y111.0574 Z-10.0000 I1.4222 J0.4621 F1200.00
G1 X-133.4426 Y111.0574 Z-10.5000 F600.00
G2 X-133.0778 Y110.4621 Z-10.5000 I-1.0574 J-1.0574 F1200.00
G2 X-135.9222 Y109.5379 Z-10.5000 I-1.4222 J-0.4621 F1200.00
G2 X-133.4426 Y111.0574 Z-10.5000 I1.4222 J0.4621 F1200.00
G1 X-133.4426 Y111.0574 Z-11.0000 F600.00
G2 X-133.0778 Y110.4621 Z-11.0000 I-1.0574 J-1.0574 F1200.00
G2 X-135.9222 Y109.5379 Z-11.0000 I-1.4222 J-0.4621 F1200.00
G2 X-133.4426 Y111.0574 Z-11.0000 I1.4222 J0.4621 F1200.00
G1 X-133.4426 Y111.0574 Z-11.5000 F600.00
G2 X-133.0778 Y110.4621 Z-11.5000 I-1.0574 J-1.0574 F1200.00
G2 X-135.9222 Y109.5379 Z-11.5000 I-1.4222 J-0.4621 F1200.00
G2 X-133.4426 Y111.0574 Z-11.5000 I1.4222 J0.4621 F1200.00
G1 X-133.4426 Y111.0574 Z-12.0000 F600.00
G2 X-133.0778 Y110.4621 Z-12.0000 I-1.0574 J-1.0574 F1200.00
G2 X-135.9222 Y109.5379 Z-12.0000 I-1.4222 J-0.4621 F1200.00
G2 X-133.4426 Y111.0574 Z-12.0000 I1.4222 J0.4621 F1200.00
G0 Z5.0000
G0 X-153.4426 Y171.0574
G0 Z3.0000
G1 X-153.4426 Y171.0574 Z-0.5000 F600.00
G2 X-154.0379 Y168.5778 Z-0.5000 I-1.0574 J-1.0574 F1200.00
G2 X-154.9621 Y171.4222 Z-0.5000 I-0.4621 J1.4222 F1200.00
G2 X-153.4426 Y171.0574 Z-0.5000 I0.4621 J-1.4222 F1200.00
G1 X-153.4426 Y171.0574 Z-1.0000 F600.00
G2 X-154.0379 Y168.5778 Z-1.0000 I-1.0574 J-1.0574 F1200.00
G2 X-154.9621 Y171.4222 Z-1.0000 I-0.4621 J1.4222 F1200.00
G2 X-153.4426 Y171.0574 Z-1.0000 I0.4621 J-1.4222 F1200.00
G1 X-153.4426 Y171.0574 Z-1.5000 F600.00
G2 X-154.0379 Y168.5778 Z-1.5000 I-1.0574 J-1.0574 F1200.00
G2 X-154.9621 Y171.4222 Z-1.5000 I-0.4621 J1.4222 F1200.00
G2 X-153.4426 Y171.0574 Z-1.5000 I0.4621 J-1.4222 F1200.00
G1 X-153.4426 Y171.0574 Z-2.0000 F600.00
G2 X-154.0379 Y168.5778 Z-2.0000 I-1.0574 J-1.0574 F1200.00
G2 X-154.9621 Y171.4222 Z-2.0000 I-0.4621 J1.4222 F1200.00
G2 X-153.4426 Y171.0574 Z-2.0000 I0.4621 J-1.4222 F1200.00
G1 X-153.4426 Y171.0574 Z-2.5000 F600.00
G2 X-154.0379 Y168.5778 Z-2.5000 I-1.0574 J-1.0574 F1200.00
G2 X-154.9621 Y171.4222 Z-2.5000 I-0.4621 J1.4222 F1200.00
G2 X-153.4426 Y171.0574 Z-2.5000 I0.4621 J-1.4222 F1200.00
G1 X-153.4426 Y171.0574 Z-3.0000 F600.00
G2 X-154.0379 Y168.5778 Z-3.0000 I-1.0574 J-1.0574 F1200.00
G2 X-154.9621 Y171.4222 Z-3.0000 I-0.4621 J1.4222 F1200.00
G2 X-153.4426 Y171.0574 Z-3.0000 I0.4621 J-1.4222 F1200.00
G1 X-153.4426 Y171.0574 Z-3.5000 F600.00
G2 X-154.0379 Y168.5778 Z-3.5000 I-1.0574 J-1.0574 F1200.00
G2 X-154.9621 Y171.4222 Z-3.5000 I-0.4621 J1.4222 F1200.00
G2 X-153.4426 Y171.0574 Z-3.5000 I0.4621 J-1.4222 F1200.00
G1 X-153.4426 Y171.0574 Z-4.0000 F600.00
G2 X-154.0379 Y168.5778 Z-4.0000 I-1.0574 J-1.0574 F1200.00
G2 X-154.9621 Y171.4222 Z-4.0000 I-0.4621 J1.4222 F1200.00
G2 X-153.4426 Y171.0574 Z-4.0000 I0.4621 J-1.4222 F1200.00
G1 X-153.4426 Y171.0574 Z-4.5000 F600.00
G2 X-154.0379 Y168.5778 Z-4.5000 I-1.0574 J-1.0574 F1200.00
G2 X-154.9621 Y171.4222 Z-4.5000 I-0.4621 J1.4222 F1200.00
G2 X-153.4426 Y171.0574 Z-4.5000 I0.4621 J-1.4222 F1200.00
G1 X-153.4426 Y171.0574 Z-5.0000 F600.00
G2 X-154.0379 Y168.5778 Z-5.0000 I-1.0574 J-1.0574 F1200.00
G2 X-154.9621 Y171.4222 Z-5.0000 I-0.4621 J1.4222 F1200.00
G2 X-153.4426 Y171.0574 Z-5.0000 I0.4621 J-1.4222 F1200.00
G1 X-153.4426 Y171.0574 Z-5.5000 F600.00
G2 X-154.0379 Y168.5778 Z-5.5000 I-1.0574 J-1.0574 F1200.00
G2 X-154.9621 Y171.4222 Z-5.5000 I-0.4621 J1.4222 F1200.00
G2 X-153.4426 Y171.0574 Z-5.5000 I0.4621 J-1.4222 F1200.00
G1 X-153.4426 Y171.0574 Z-6.0000 F600.00
G2 X-154.0379 Y168.5778 Z-6.0000 I-1.0574 J-1.0574 F1200.00
G2 X-154.9621 Y171.4222 Z-6.0000 I-0.4621 J1.4222 F1200.00
G2 X-153.4426 Y171.0574 Z-6.0000 I0.4621 J-1.4222 F1200.00
G1 X-153.4426 Y171.0574 Z-6.5000 F600.00
G2 X-154.0379 Y168.5778 Z-6.5000 I-1.0574 J-1.0574 F1200.00
G2 X-154.9621 Y171.4222 Z-6.5000 I-0.4621 J1.4222 F1200.00
G2 X-153.4426 Y171.0574 Z-6.5000 I0.4621 J-1.4222 F1200.00
G1 X-153.4426 Y171.0574 Z-7.0000 F600.00
G2 X-154.0379 Y168.5778 Z-7.0000 I-1.0574 J-1.0574 F1200.00
G2 X-154.9621 Y171.4222 Z-7.0000 I-0.4621 J1.4222 F1200.00
G2 X-153.4426 Y171.0574 Z-7.0000 I0.4621 J-1.4222 F1200.00
G1 X-153.4426 Y171.0574 Z-7.5000 F600.00
G2 X-154.0379 Y168.5778 Z-7.5000 I-1.0574 J-1.0574 F1200.00
G2 X-154.9621 Y171.4222 Z-7.5000 I-0.4621 J1.4222 F1200.00
G2 X-153.4426 Y171.0574 Z-7.5000 I0.4621 J-1.4222 F1200.00
G1 X-153.4426 Y171.0574 Z-8.0000 F600.00
G2 X-154.0379 Y168.5778 Z-8.0000 I-1.0574 J-1.0574 F1200.00
G2 X-154.9621 Y171.4222 Z-8.0000 I-0.4621 J1.4222 F1200.00
G2 X-153.4426 Y171.0574 Z-8.0000 I0.4621 J-1.4222 F1200.00
G1 X-153.4426 Y171.0574 Z-8.5000 F600.00
G2 X-154.0379 Y168.5778 Z-8.5000 I-1.0574 J-1.0574 F1200.00
G2 X-154.9621 Y171.4222 Z-8.5000 I-0.4621 J1.4222 F1200.00
G2 X-153.4426 Y171.0574 Z-8.5000 I0.4621 J-1.4222 F1200.00
G1 X-153.4426 Y171.0574 Z-9.0000 F600.00
G2 X-154.0379 Y168.5778 Z-9.0000 I-1.0574 J-1.0574 F1200.00
G2 X-154.9621 Y171.4222 Z-9.0000 I-0.4621 J1.4222 F1200.00
G2 X-153.4426 Y171.0574 Z-9.0000 I0.4621 J-1.4222 F1200.00
G1 X-153.4426 Y171.0574 Z-9.5000 F600.00
G2 X-154.0379 Y168.5778 Z-9.5000 I-1.0574 J-1.0574 F1200.00
G2 X-154.9621 Y171.4222 Z-9.5000 I-0.4621 J1.4222 F1200.00
G2 X-153.4426 Y171.0574 Z-9.5000 I0.4621 J-1.4222 F1200.00
G1 X-153.4426 Y171.0574 Z-10.0000 F600.00
G2 X-154.0379 Y168.5778 Z-10.0000 I-1.0574 J-1.0574 F1200.00
G2 X-154.9621 Y171.4222 Z-10.0000 I-0.4621 J1.4222 F1200.00
G2 X-153.4426 Y171.0574 Z-10.0000 I0.4621 J-1.4222 F1200.00
G1 X-153.4426 Y171.0574 Z-10.5000 F600.00
G2 X-154.0379 Y168.5778 Z-10.5000 I-1.0574 J-1.0574 F1200.00
G2 X-154.9621 Y171.4222 Z-10.5000 I-0.4621 J1.4222 F1200.00
G2 X-153.4426 Y171.0574 Z-10.5000 I0.4621 J-1.4222 F1200.00
G1 X-153.4426 Y171.0574 Z-11.0000 F600.00
G2 X-154.0379 Y168.5778 Z-11.0000 I-1.0574 J-1.0574 F1200.00
G2 X-154.9621 Y171.4222 Z-11.0000 I-0.4621 J1.4222 F1200.00
G2 X-153.4426 Y171.0574 Z-11.0000 I0.4621 J-1.4222 F1200.00
G1 X-153.4426 Y171.0574 Z-11.5000 F600.00
G2 X-154.0379 Y168.5778 Z-11.5000 I-1.0574 J-1.0574 F1200.00
G2 X-154.9621 Y171.4222 Z-11.5000 I-0.4621 J1.4222 F1200.00
G2 X-153.4426 Y171.0574 Z-11.5000 I0.4621 J-1.4222 F1200.00
G1 X-153.4426 Y171.0574 Z-12.0000 F600.00
G2 X-154.0379 Y168.5778 Z-12.0000 I-1.0574 J-1.0574 F1200.00
G2 X-154.9621 Y171.4222 Z-12.0000 I-0.4621 J1.4222 F1200.00
G2 X-153.4426 Y171.0574 Z-12.0000 I0.4621 J-1.4222 F1200.00
G0 Z5.0000
G0 X135.5574 Y111.0574
G0 Z3.0000
G1 X135.5574 Y111.0574 Z-0.5000 F600.00
G2 X135.9222 Y110.4621 Z-0.5000 I-1.0574 J-1.0574 F1200.00
G2 X133.0778 Y109.5379 Z-0.5000 I-1.4222 J-0.4621 F1200.00
G2 X135.5574 Y111.0574 Z-0.5000 I1.4222 J0.4621 F1200.00
G1 X135.5574 Y111.0574 Z-1.0000 F600.00
G2 X135.9222 Y110.4621 Z-1.0000 I-1.0574 J-1.0574 F1200.00
G2 X133.0778 Y109.5379 Z-1.0000 I-1.4222 J-0.4621 F1200.00
G2 X135.5574 Y111.0574 Z-1.0000 I1.4222 J0.4621 F1200.00
G1 X135.5574 Y111.0574 Z-1.5000 F600.00
G2 X135.9222 Y110.4621 Z-1.5000 I-1.0574 J-1.0574 F1200.00
G2 X133.0778 Y109.5379 Z-1.5000 I-1.4222 J-0.4621 F1200.00
G2 X135.5574 Y111.0574 Z-1.5000 I1.4222 J0.4621 F1200.00
G1 X135.5574 Y111.0574 Z-2.0000 F600.00
G2 X135.9222 Y110.4621 Z-2.0000 I-1.0574 J-1.0574 F1200.00
G2 X133.0778 Y109.5379 Z-2.0000 I-1.4222 J-0.4621 F1200.00
G2 X135.5574 Y111.0574 Z-2.0000 I1.4222 J0.4621 F1200.00
G1 X135.5574 Y111.0574 Z-2.5000 F600.00
G2 X135.9222 Y110.4621 Z-2.5000 I-1.0574 J-1.0574 F1200.00
G2 X133.0778 Y109.5379 Z-2.5000 I-1.4222 J-0.4621 F1200.00
G2 X135.5574 Y111.0574 Z-2.5000 I1.4222 J0.4621 F1200.00
G1 X135.5574 Y111.0574 Z-3.0000 F600.00
G2 X135.9222 Y110.4621 Z-3.0000 I-1.0574 J-1.0574 F1200.00
G2 X133.0778 Y109.5379 Z-3.0000 I-1.4222 J-0.4621 F1200.00
G2 X135.5574 Y111.0574 Z-3.0000 I1.4222 J0.4621 F1200.00
G1 X135.5574 Y111.0574 Z-3.5000 F600.00
G2 X135.9222 Y110.4621 Z-3.5000 I-1.0574 J-1.0574 F1200.00
G2 X133.0778 Y109.5379 Z-3.5000 I-1.4222 J-0.4621 F1200.00
G2 X135.5574 Y111.0574 Z-3.5000 I1.4222 J0.4621 F1200.00
G1 X135.5574 Y111.0574 Z-4.0000 F600.00
G2 X135.9222 Y110.4621 Z-4.0000 I-1.0574 J-1.0574 F1200.00
G2 X133.0778 Y109.5379 Z-4.0000 I-1.4222 J-0.4621 F1200.00
G2 X135.5574 Y111.0574 Z-4.0000 I1.4222 J0.4621 F1200.00
G1 X135.5574 Y111.0574 Z-4.5000 F600.00
G2 X135.9222 Y110.4621 Z-4.5000 I-1.0574 J-1.0574 F1200.00
G2 X133.0778 Y109.5379 Z-4.5000 I-1.4222 J-0.4621 F1200.00
G2 X135.5574 Y111.0574 Z-4.5000 I1.4222 J0.4621 F1200.00
G1 X135.5574 Y111.0574 Z-5.0000 F600.00
G2 X135.9222 Y110.4621 Z-5.0000 I-1.0574 J-1.0574 F1200.00
G2 X133.0778 Y109.5379 Z-5.0000 I-1.4222 J-0.4621 F1200.00
G2 X135.5574 Y111.0574 Z-5.0000 I1.4222 J0.4621 F1200.00
G1 X135.5574 Y111.0574 Z-5.5000 F600.00
G2 X135.9222 Y110.4621 Z-5.5000 I-1.0574 J-1.0574 F1200.00
G2 X133.0778 Y109.5379 Z-5.5000 I-1.4222 J-0.4621 F1200.00
G2 X135.5574 Y111.0574 Z-5.5000 I1.4222 J0.4621 F1200.00
G1 X135.5574 Y111.0574 Z-6.0000 F600.00
G2 X135.9222 Y110.4621 Z-6.0000 I-1.0574 J-1.0574 F1200.00
G2 X133.0778 Y109.5379 Z-6.0000 I-1.4222 J-0.4621 F1200.00
G2 X135.5574 Y111.0574 Z-6.0000 I1.4222 J0.4621 F1200.00
G1 X135.5574 Y111.0574 Z-6.5000 F600.00
G2 X135.9222 Y110.4621 Z-6.5000 I-1.0574 J-1.0574 F1200.00
G2 X133.0778 Y109.5379 Z-6.5000 I-1.4222 J-0.4621 F1200.00
G2 X135.5574 Y111.0574 Z-6.5000 I1.4222 J0.4621 F1200.00
G1 X135.5574 Y111.0574 Z-7.0000 F600.00
G2 X135.9222 Y110.4621 Z-7.0000 I-1.0574 J-1.0574 F1200.00
G2 X133.0778 Y109.5379 Z-7.0000 I-1.4222 J-0.4621 F1200.00
G2 X135.5574 Y111.0574 Z-7.0000 I1.4222 J0.4621 F1200.00
G1 X135.5574 Y111.0574 Z-7.5000 F600.00
G2 X135.9222 Y110.4621 Z-7.5000 I-1.0574 J-1.0574 F1200.00
G2 X133.0778 Y109.5379 Z-7.5000 I-1.4222 J-0.4621 F1200.00
G2 X135.5574 Y111.0574 Z-7.5000 I1.4222 J0.4621 F1200.00
G1 X135.5574 Y111.0574 Z-8.0000 F600.00
G2 X135.9222 Y110.4621 Z-8.0000 I-1.0574 J-1.0574 F1200.00
G2 X133.0778 Y109.5379 Z-8.0000 I-1.4222 J-0.4621 F1200.00
G2 X135.5574 Y111.0574 Z-8.0000 I1.4222 J0.4621 F1200.00
G1 X135.5574 Y111.0574 Z-8.5000 F600.00
G2 X135.9222 Y110.4621 Z-8.5000 I-1.0574 J-1.0574 F1200.00
G2 X133.0778 Y109.5379 Z-8.5000 I-1.4222 J-0.4621 F1200.00
G2 X135.5574 Y111.0574 Z-8.5000 I1.4222 J0.4621 F1200.00
G1 X135.5574 Y111.0574 Z-9.0000 F600.00
G2 X135.9222 Y110.4621 Z-9.0000 I-1.0574 J-1.0574 F1200.00
G2 X133.0778 Y109.5379 Z-9.0000 I-1.4222 J-0.4621 F1200.00
G2 X135.5574 Y111.0574 Z-9.0000 I1.4222 J0.4621 F1200.00
G1 X135.5574 Y111.0574 Z-9.5000 F600.00
G2 X135.9222 Y110.4621 Z-9.5000 I-1.0574 J-1.0574 F1200.00
G2 X133.0778 Y109.5379 Z-9.5000 I-1.4222 J-0.4621 F1200.00
G2 X135.5574 Y111.0574 Z-9.5000 I1.4222 J0.4621 F1200.00
G1 X135.5574 Y111.0574 Z-10.0000 F600.00
G2 X135.9222 Y110.4621 Z-10.0000 I-1.0574 J-1.0574 F1200.00
G2 X133.0778 Y109.5379 Z-10.0000 I-1.4222 J-0.4621 F1200.00
G2 X135.5574 Y111.0574 Z-10.0000 I1.4222 J0.4621 F1200.00
G1 X135.5574 Y111.0574 Z-10.5000 F600.00
G2 X135.9222 Y110.4621 Z-10.5000 I-1.0574 J-1.0574 F1200.00
G2 X133.0778 Y109.5379 Z-10.5000 I-1.4222 J-0.4621 F1200.00
G2 X135.5574 Y111.0574 Z-10.5000 I1.4222 J0.4621 F1200.00
G1 X135.5574 Y111.0574 Z-11.0000 F600.00
G2 X135.9222 Y110.4621 Z-11.0000 I-1.0574 J-1.0574 F1200.00
G2 X133.0778 Y109.5379 Z-11.0000 I-1.4222 J-0.4621 F1200.00
G2 X135.5574 Y111.0574 Z-11.0000 I1.4222 J0.4621 F1200.00
G1 X135.5574 Y111.0574 Z-11.5000 F600.00
G2 X135.9222 Y110.4621 Z-11.5000 I-1.0574 J-1.0574 F1200.00
G2 X133.0778 Y109.5379 Z-11.5000 I-1.4222 J-0.4621 F1200.00
G2 X135.5574 Y111.0574 Z-11.5000 I1.4222 J0.4621 F1200.00
G1 X135.5574 Y111.0574 Z-12.0000 F600.00
G2 X135.9222 Y110.4621 Z-12.0000 I-1.0574 J-1.0574 F1200.00
G2 X133.0778 Y109.5379 Z-12.0000 I-1.4222 J-0.4621 F1200.00
G2 X135.5574 Y111.0574 Z-12.0000 I1.4222 J0.4621 F1200.00
G0 Z5.0000
G0 X155.5574 Y171.0574
G0 Z3.0000
G1 X155.5574 Y171.0574 Z-0.5000 F600.00
G2 X154.9621 Y168.5778 Z-0.5000 I-1.0574 J-1.0574 F1200.00
G2 X154.0379 Y171.4222 Z-0.5000 I-0.4621 J1.4222 F1200.00
G2 X155.5574 Y171.0574 Z-0.5000 I0.4621 J-1.4222 F1200.00
G1 X155.5574 Y171.0574 Z-1.0000 F600.00
G2 X154.9621 Y168.5778 Z-1.0000 I-1.0574 J-1.0574 F1200.00
G2 X154.0379 Y171.4222 Z-1.0000 I-0.4621 J1.4222 F1200.00
G2 X155.5574 Y171.0574 Z-1.0000 I0.4621 J-1.4222 F1200.00
G1 X155.5574 Y171.0574 Z-1.5000 F600.00
G2 X154.9621 Y168.5778 Z-1.5000 I-1.0574 J-1.0574 F1200.00
G2 X154.0379 Y171.4222 Z-1.5000 I-0.4621 J1.4222 F1200.00
G2 X155.5574 Y171.0574 Z-1.5000 I0.4621 J-1.4222 F1200.00
G1 X155.5574 Y171.0574 Z-2.0000 F600.00
G2 X154.9621 Y168.5778 Z-2.0000 I-1.0574 J-1.0574 F1200.00
G2 X154.0379 Y171.4222 Z-2.0000 I-0.4621 J1.4222 F1200.00
G2 X155.5574 Y171.0574 Z-2.0000 I0.4621 J-1.4222 F1200.00
G1 X155.5574 Y171.0574 Z-2.5000 F600.00
G2 X154.9621 Y168.5778 Z-2.5000 I-1.0574 J-1.0574 F1200.00
G2 X154.0379 Y171.4222 Z-2.5000 I-0.4621 J1.4222 F1200.00
G2 X155.5574 Y171.0574 Z-2.5000 I0.4621 J-1.4222 F1200.00
G1 X155.5574 Y171.0574 Z-3.0000 F600.00
G2 X154.9621 Y168.5778 Z-3.0000 I-1.0574 J-1.0574 F1200.00
G2 X154.0379 Y171.4222 Z-3.0000 I-0.4621 J1.4222 F1200.00
G2 X155.5574 Y171.0574 Z-3.0000 I0.4621 J-1.4222 F1200.00
G1 X155.5574 Y171.0574 Z-3.5000 F600.00
G2 X154.9621 Y168.5778 Z-3.5000 I-1.0574 J-1.0574 F1200.00
G2 X154.0379 Y171.4222 Z-3.5000 I-0.4621 J1.4222 F1200.00
G2 X155.5574 Y171.0574 Z-3.5000 I0.4621 J-1.4222 F1200.00
G1 X155.5574 Y171.0574 Z-4.0000 F600.00
G2 X154.9621 Y168.5778 Z-4.0000 I-1.0574 J-1.0574 F1200.00
G2 X154.0379 Y171.4222 Z-4.0000 I-0.4621 J1.4222 F1200.00
G2 X155.5574 Y171.0574 Z-4.0000 I0.4621 J-1.4222 F1200.00
G1 X155.5574 Y171.0574 Z-4.5000 F600.00
G2 X154.9621 Y168.5778 Z-4.5000 I-1.0574 J-1.0574 F1200.00
G2 X154.0379 Y171.4222 Z-4.5000 I-0.4621 J1.4222 F1200.00
G2 X155.5574 Y171.0574 Z-4.5000 I0.4621 J-1.4222 F1200.00
G1 X155.5574 Y171.0574 Z-5.0000 F600.00
G2 X154.9621 Y168.5778 Z-5.0000 I-1.0574 J-1.0574 F1200.00
G2 X154.0379 Y171.4222 Z-5.0000 I-0.4621 J1.4222 F1200.00
G2 X155.5574 Y171.0574 Z-5.0000 I0.4621 J-1.4222 F1200.00
G1 X155.5574 Y171.0574 Z-5.5000 F600.00
G2 X154.9621 Y168.5778 Z-5.5000 I-1.0574 J-1.0574 F1200.00
G2 X154.0379 Y171.4222 Z-5.5000 I-0.4621 J1.4222 F1200.00
G2 X155.5574 Y171.0574 Z-5.5000 I0.4621 J-1.4222 F1200.00
G1 X155.5574 Y171.0574 Z-6.0000 F600.00
G2 X154.9621 Y168.5778 Z-6.0000 I-1.0574 J-1.0574 F1200.00
G2 X154.0379 Y171.4222 Z-6.0000 I-0.4621 J1.4222 F1200.00
G2 X155.5574 Y171.0574 Z-6.0000 I0.4621 J-1.4222 F1200.00
G1 X155.5574 Y171.0574 Z-6.5000 F600.00
G2 X154.9621 Y168.5778 Z-6.5000 I-1.0574 J-1.0574 F1200.00
G2 X154.0379 Y171.4222 Z-6.5000 I-0.4621 J1.4222 F1200.00
G2 X155.5574 Y171.0574 Z-6.5000 I0.4621 J-1.4222 F1200.00
G1 X155.5574 Y171.0574 Z-7.0000 F600.00
G2 X154.9621 Y168.5778 Z-7.0000 I-1.0574 J-1.0574 F1200.00
G2 X154.0379 Y171.4222 Z-7.0000 I-0.4621 J1.4222 F1200.00
G2 X155.5574 Y171.0574 Z-7.0000 I0.4621 J-1.4222 F1200.00
G1 X155.5574 Y171.0574 Z-7.5000 F600.00
G2 X154.9621 Y168.5778 Z-7.5000 I-1.0574 J-1.0574 F1200.00
G2 X154.0379 Y171.4222 Z-7.5000 I-0.4621 J1.4222 F1200.00
G2 X155.5574 Y171.0574 Z-7.5000 I0.4621 J-1.4222 F1200.00
G1 X155.5574 Y171.0574 Z-8.0000 F600.00
G2 X154.9621 Y168.5778 Z-8.0000 I-1.0574 J-1.0574 F1200.00
G2 X154.0379 Y171.4222 Z-8.0000 I-0.4621 J1.4222 F1200.00
G2 X155.5574 Y171.0574 Z-8.0000 I0.4621 J-1.4222 F1200.00
G1 X155.5574 Y171.0574 Z-8.5000 F600.00
G2 X154.9621 Y168.5778 Z-8.5000 I-1.0574 J-1.0574 F1200.00
G2 X154.0379 Y171.4222 Z-8.5000 I-0.4621 J1.4222 F1200.00
G2 X155.5574 Y171.0574 Z-8.5000 I0.4621 J-1.4222 F1200.00
G1 X155.5574 Y171.0574 Z-9.0000 F600.00
G2 X154.9621 Y168.5778 Z-9.0000 I-1.0574 J-1.0574 F1200.00
G2 X154.0379 Y171.4222 Z-9.0000 I-0.4621 J1.4222 F1200.00
G2 X155.5574 Y171.0574 Z-9.0000 I0.4621 J-1.4222 F1200.00
G1 X155.5574 Y171.0574 Z-9.5000 F600.00
G2 X154.9621 Y168.5778 Z-9.5000 I-1.0574 J-1.0574 F1200.00
G2 X154.0379 Y171.4222 Z-9.5000 I-0.4621 J1.4222 F1200.00
G2 X155.5574 Y171.0574 Z-9.5000 I0.4621 J-1.4222 F1200.00
G1 X155.5574 Y171.0574 Z-10.0000 F600.00
G2 X154.9621 Y168.5778 Z-10.0000 I-1.0574 J-1.0574 F1200.00
G2 X154.0379 Y171.4222 Z-10.0000 I-0.4621 J1.4222 F1200.00
G2 X155.5574 Y171.0574 Z-10.0000 I0.4621 J-1.4222 F1200.00
G1 X155.5574 Y171.0574 Z-10.5000 F600.00
G2 X154.9621 Y168.5778 Z-10.5000 I-1.0574 J-1.0574 F1200.00
G2 X154.0379 Y171.4222 Z-10.5000 I-0.4621 J1.4222 F1200.00
G2 X155.5574 Y171.0574 Z-10.5000 I0.4621 J-1.4222 F1200.00
G1 X155.5574 Y171.0574 Z-11.0000 F600.00
G2 X154.9621 Y168.5778 Z-11.0000 I-1.0574 J-1.0574 F1200.00
G2 X154.0379 Y171.4222 Z-11.0000 I-0.4621 J1.4222 F1200.00
G2 X155.5574 Y171.0574 Z-11.0000 I0.4621 J-1.4222 F1200.00
G1 X155.5574 Y171.0574 Z-11.5000 F600.00
G2 X154.9621 Y168.5778 Z-11.5000 I-1.0574 J-1.0574 F1200.00
G2 X154.0379 Y171.4222 Z-11.5000 I-0.4621 J1.4222 F1200.00
G2 X155.5574 Y171.0574 Z-11.5000 I0.4621 J-1.4222 F1200.00
G1 X155.5574 Y171.0574 Z-12.0000 F600.00
G2 X154.9621 Y168.5778 Z-12.0000 I-1.0574 J-1.0574 F1200.00
G2 X154.0379 Y171.4222 Z-12.0000 I-0.4621 J1.4222 F1200.00
G2 X155.5574 Y171.0574 Z-12.0000 I0.4621 J-1.4222 F1200.00
G0 Z5.0000
G0 X175.5574 Y231.0574
G0 Z3.0000
G1 X175.5574 Y231.0574 Z-0.5000 F600.00
G2 X174.9621 Y228.5778 Z-0.5000 I-1.0574 J-1.0574 F1200.00
G2 X174.0379 Y231.4222 Z-0.5000 I-0.4621 J1.4222 F1200.00
G2 X175.5574 Y231.0574 Z-0.5000 I0.4621 J-1.4222 F1200.00
G1 X175.5574 Y231.0574 Z-1.0000 F600.00
G2 X174.9621 Y228.5778 Z-1.0000 I-1.0574 J-1.0574 F1200.00
G2 X174.0379 Y231.4222 Z-1.0000 I-0.4621 J1.4222 F1200.00
G2 X175.5574 Y231.0574 Z-1.0000 I0.4621 J-1.4222 F1200.00
G1 X175.5574 Y231.0574 Z-1.5000 F600.00
G2 X174.9621 Y228.5778 Z-1.5000 I-1.0574 J-1.0574 F1200.00
G2 X174.0379 Y231.4222 Z-1.5000 I-0.4621 J1.4222 F1200.00
G2 X175.5574 Y231.0574 Z-1.5000 I0.4621 J-1.4222 F1200.00
G1 X175.5574 Y231.0574 Z-2.0000 F600.00
G2 X174.9621 Y228.5778 Z-2.0000 I-1.0574 J-1.0574 F1200.00
G2 X174.0379 Y231.4222 Z-2.0000 I-0.4621 J1.4222 F1200.00
G2 X175.5574 Y231.0574 Z-2.0000 I0.4621 J-1.4222 F1200.00
G1 X175.5574 Y231.0574 Z-2.5000 F600.00
G2 X174.9621 Y228.5778 Z-2.5000 I-1.0574 J-1.0574 F1200.00
G2 X174.0379 Y231.4222 Z-2.5000 I-0.4621 J1.4222 F1200.00
G2 X175.5574 Y231.0574 Z-2.5000 I0.4621 J-1.4222 F1200.00
G1 X175.5574 Y231.0574 Z-3.0000 F600.00
G2 X174.9621 Y228.5778 Z-3.0000 I-1.0574 J-1.0574 F1200.00
G2 X174.0379 Y231.4222 Z-3.0000 I-0.4621 J1.4222 F1200.00
G2 X175.5574 Y231.0574 Z-3.0000 I0.4621 J-1.4222 F1200.00
G1 X175.5574 Y231.0574 Z-3.5000 F600.00
G2 X174.9621 Y228.5778 Z-3.5000 I-1.0574 J-1.0574 F1200.00
G2 X174.0379 Y231.4222 Z-3.5000 I-0.4621 J1.4222 F1200.00
G2 X175.5574 Y231.0574 Z-3.5000 I0.4621 J-1.4222 F1200.00
G1 X175.5574 Y231.0574 Z-4.0000 F600.00
G2 X174.9621 Y228.5778 Z-4.0000 I-1.0574 J-1.0574 F1200.00
G2 X174.0379 Y231.4222 Z-4.0000 I-0.4621 J1.4222 F1200.00
G2 X175.5574 Y231.0574 Z-4.0000 I0.4621 J-1.4222 F1200.00
G1 X175.5574 Y231.0574 Z-4.5000 F600.00
G2 X174.9621 Y228.5778 Z-4.5000 I-1.0574 J-1.0574 F1200.00
G2 X174.0379 Y231.4222 Z-4.5000 I-0.4621 J1.4222 F1200.00
G2 X175.5574 Y231.0574 Z-4.5000 I0.4621 J-1.4222 F1200.00
G1 X175.5574 Y231.0574 Z-5.0000 F600.00
G2 X174.9621 Y228.5778 Z-5.0000 I-1.0574 J-1.0574 F1200.00
G2 X174.0379 Y231.4222 Z-5.0000 I-0.4621 J1.4222 F1200.00
G2 X175.5574 Y231.0574 Z-5.0000 I0.4621 J-1.4222 F1200.00
G1 X175.5574 Y231.0574 Z-5.5000 F600.00
G2 X174.9621 Y228.5778 Z-5.5000 I-1.0574 J-1.0574 F1200.00
G2 X174.0379 Y231.4222 Z-5.5000 I-0.4621 J1.4222 F1200.00
G2 X175.5574 Y231.0574 Z-5.5000 I0.4621 J-1.4222 F1200.00
G1 X175.5574 Y231.0574 Z-6.0000 F600.00
G2 X174.9621 Y228.5778 Z-6.0000 I-1.0574 J-1.0574 F1200.00
G2 X174.0379 Y231.4222 Z-6.0000 I-0.4621 J1.4222 F1200.00
G2 X175.5574 Y231.0574 Z-6.0000 I0.4621 J-1.4222 F1200.00
G1 X175.5574 Y231.0574 Z-6.5000 F600.00
G2 X174.9621 Y228.5778 Z-6.5000 I-1.0574 J-1.0574 F1200.00
G2 X174.0379 Y231.4222 Z-6.5000 I-0.4621 J1.4222 F1200.00
G2 X175.5574 Y231.0574 Z-6.5000 I0.4621 J-1.4222 F1200.00
G1 X175.5574 Y231.0574 Z-7.0000 F600.00
G2 X174.9621 Y228.5778 Z-7.0000 I-1.0574 J-1.0574 F1200.00
G2 X174.0379 Y231.4222 Z-7.0000 I-0.4621 J1.4222 F1200.00
G2 X175.5574 Y231.0574 Z-7.0000 I0.4621 J-1.4222 F1200.00
G1 X175.5574 Y231.0574 Z-7.5000 F600.00
G2 X174.9621 Y228.5778 Z-7.5000 I-1.0574 J-1.0574 F1200.00
G2 X174.0379 Y231.4222 Z-7.5000 I-0.4621 J1.4222 F1200.00
G2 X175.5574 Y231.0574 Z-7.5000 I0.4621 J-1.4222 F1200.00
G1 X175.5574 Y231.0574 Z-8.0000 F600.00
G2 X174.9621 Y228.5778 Z-8.0000 I-1.0574 J-1.0574 F1200.00
G2 X174.0379 Y231.4222 Z-8.0000 I-0.4621 J1.4222 F1200.00
G2 X175.5574 Y231.0574 Z-8.0000 I0.4621 J-1.4222 F1200.00
G1 X175.5574 Y231.0574 Z-8.5000 F600.00
G2 X174.9621 Y228.5778 Z-8.5000 I-1.0574 J-1.0574 F1200.00
G2 X174.0379 Y231.4222 Z-8.5000 I-0.4621 J1.4222 F1200.00
G2 X175.5574 Y231.0574 Z-8.5000 I0.4621 J-1.4222 F1200.00
G1 X175.5574 Y231.0574 Z-9.0000 F600.00
G2 X174.9621 Y228.5778 Z-9.0000 I-1.0574 J-1.0574 F1200.00
G2 X174.0379 Y231.4222 Z-9.0000 I-0.4621 J1.4222 F1200.00
G2 X175.5574 Y231.0574 Z-9.0000 I0.4621 J-1.4222 F1200.00
G1 X175.5574 Y231.0574 Z-9.5000 F600.00
G2 X174.9621 Y228.5778 Z-9.5000 I-1.0574 J-1.0574 F1200.00
G2 X174.0379 Y231.4222 Z-9.5000 I-0.4621 J1.4222 F1200.00
G2 X175.5574 Y231.0574 Z-9.5000 I0.4621 J-1.4222 F1200.00
G1 X175.5574 Y231.0574 Z-10.0000 F600.00
G2 X174.9621 Y228.5778 Z-10.0000 I-1.0574 J-1.0574 F1200.00
G2 X174.0379 Y231.4222 Z-10.0000 I-0.4621 J1.4222 F1200.00
G2 X175.5574 Y231.0574 Z-10.0000 I0.4621 J-1.4222 F1200.00
G1 X175.5574 Y231.0574 Z-10.5000 F600.00
G2 X174.9621 Y228.5778 Z-10.5000 I-1.0574 J-1.0574 F1200.00
G2 X174.0379 Y231.4222 Z-10.5000 I-0.4621 J1.4222 F1200.00
G2 X175.5574 Y231.0574 Z-10.5000 I0.4621 J-1.4222 F1200.00
G1 X175.5574 Y231.0574 Z-11.0000 F600.00
G2 X174.9621 Y228.5778 Z-11.0000 I-1.0574 J-1.0574 F1200.00
G2 X174.0379 Y231.4222 Z-11.0000 I-0.4621 J1.4222 F1200.00
G2 X175.5574 Y231.0574 Z-11.0000 I0.4621 J-1.4222 F1200.00
G1 X175.5574 Y231.0574 Z-11.5000 F600.00
G2 X174.9621 Y228.5778 Z-11.5000 I-1.0574 J-1.0574 F1200.00
G2 X174.0379 Y231.4222 Z-11.5000 I-0.4621 J1.4222 F1200.00
G2 X175.5574 Y231.0574 Z-11.5000 I0.4621 J-1.4222 F1200.00
G1 X175.5574 Y231.0574 Z-12.0000 F600.00
G2 X174.9621 Y228.5778 Z-12.0000 I-1.0574 J-1.0574 F1200.00
G2 X174.0379 Y231.4222 Z-12.0000 I-0.4621 J1.4222 F1200.00
G2 X175.5574 Y231.0574 Z-12.0000 I0.4621 J-1.4222 F1200.00
G0 Z5.0000
G0 X175.5574 Y291.0574
G0 Z3.0000
G1 X175.5574 Y291.0574 Z-0.5000 F600.00
G2 X174.9621 Y288.5778 Z-0.5000 I-1.0574 J-1.0574 F1200.00
G2 X174.0379 Y291.4222 Z-0.5000 I-0.4621 J1.4222 F1200.00
G2 X175.5574 Y291.0574 Z-0.5000 I0.4621 J-1.4222 F1200.00
G1 X175.5574 Y291.0574 Z-1.0000 F600.00
G2 X174.9621 Y288.5778 Z-1.0000 I-1.0574 J-1.0574 F1200.00
G2 X174.0379 Y291.4222 Z-1.0000 I-0.4621 J1.4222 F1200.00
G2 X175.5574 Y291.0574 Z-1.0000 I0.4621 J-1.4222 F1200.00
G1 X175.5574 Y291.0574 Z-1.5000 F600.00
G2 X174.9621 Y288.5778 Z-1.5000 I-1.0574 J-1.0574 F1200.00
G2 X174.0379 Y291.4222 Z-1.5000 I-0.4621 J1.4222 F1200.00
G2 X175.5574 Y291.0574 Z-1.5000 I0.4621 J-1.4222 F1200.00
G1 X175.5574 Y291.0574 Z-2.0000 F600.00
G2 X174.9621 Y288.5778 Z-2.0000 I-1.0574 J-1.0574 F1200.00
G2 X174.0379 Y291.4222 Z-2.0000 I-0.4621 J1.4222 F1200.00
G2 X175.5574 Y291.0574 Z-2.0000 I0.4621 J-1.4222 F1200.00
G1 X175.5574 Y291.0574 Z-2.5000 F600.00
G2 X174.9621 Y288.5778 Z-2.5000 I-1.0574 J-1.0574 F1200.00
G2 X174.0379 Y291.4222 Z-2.5000 I-0.4621 J1.4222 F1200.00
G2 X175.5574 Y291.0574 Z-2.5000 I0.4621 J-1.4222 F1200.00
G1 X175.5574 Y291.0574 Z-3.0000 F600.00
G2 X174.9621 Y288.5778 Z-3.0000 I-1.0574 J-1.0574 F1200.00
G2 X174.0379 Y291.4222 Z-3.0000 I-0.4621 J1.4222 F1200.00
G2 X175.5574 Y291.0574 Z-3.0000 I0.4621 J-1.4222 F1200.00
G1 X175.5574 Y291.0574 Z-3.5000 F600.00
G2 X174.9621 Y288.5778 Z-3.5000 I-1.0574 J-1.0574 F1200.00
G2 X174.0379 Y291.4222 Z-3.5000 I-0.4621 J1.4222 F1200.00
G2 X175.5574 Y291.0574 Z-3.5000 I0.4621 J-1.4222 F1200.00
G1 X175.5574 Y291.0574 Z-4.0000 F600.00
G2 X174.9621 Y288.5778 Z-4.0000 I-1.0574 J-1.0574 F1200.00
G2 X174.0379 Y291.4222 Z-4.0000 I-0.4621 J1.4222 F1200.00
G2 X175.5574 Y291.0574 Z-4.0000 I0.4621 J-1.4222 F1200.00
G1 X175.5574 Y291.0574 Z-4.5000 F600.00
G2 X174.9621 Y288.5778 Z-4.5000 I-1.0574 J-1.0574 F1200.00
G2 X174.0379 Y291.4222 Z-4.5000 I-0.4621 J1.4222 F1200.00
G2 X175.5574 Y291.0574 Z-4.5000 I0.4621 J-1.4222 F1200.00
G1 X175.5574 Y291.0574 Z-5.0000 F600.00
G2 X174.9621 Y288.5778 Z-5.0000 I-1.0574 J-1.0574 F1200.00
G2 X174.0379 Y291.4222 Z-5.0000 I-0.4621 J1.4222 F1200.00
G2 X175.5574 Y291.0574 Z-5.0000 I0.4621 J-1.4222 F1200.00
G1 X175.5574 Y291.0574 Z-5.5000 F600.00
G2 X174.9621 Y288.5778 Z-5.5000 I-1.0574 J-1.0574 F1200.00
G2 X174.0379 Y291.4222 Z-5.5000 I-0.4621 J1.4222 F1200.00
G2 X175.5574 Y291.0574 Z-5.5000 I0.4621 J-1.4222 F1200.00
G1 X175.5574 Y291.0574 Z-6.0000 F600.00
G2 X174.9621 Y288.5778 Z-6.0000 I-1.0574 J-1.0574 F1200.00
G2 X174.0379 Y291.4222 Z-6.0000 I-0.4621 J1.4222 F1200.00
G2 X175.5574 Y291.0574 Z-6.0000 I0.4621 J-1.4222 F1200.00
G1 X175.5574 Y291.0574 Z-6.5000 F600.00
G2 X174.9621 Y288.5778 Z-6.5000 I-1.0574 J-1.0574 F1200.00
G2 X174.0379 Y291.4222 Z-6.5000 I-0.4621 J1.4222 F1200.00
G2 X175.5574 Y291.0574 Z-6.5000 I0.4621 J-1.4222 F1200.00
G1 X175.5574 Y291.0574 Z-7.0000 F600.00
G2 X174.9621 Y288.5778 Z-7.0000 I-1.0574 J-1.0574 F1200.00
G2 X174.0379 Y291.4222 Z-7.0000 I-0.4621 J1.4222 F1200.00
G2 X175.5574 Y291.0574 Z-7.0000 I0.4621 J-1.4222 F1200.00
G1 X175.5574 Y291.0574 Z-7.5000 F600.00
G2 X174.9621 Y288.5778 Z-7.5000 I-1.0574 J-1.0574 F1200.00
G2 X174.0379 Y291.4222 Z-7.5000 I-0.4621 J1.4222 F1200.00
G2 X175.5574 Y291.0574 Z-7.5000 I0.4621 J-1.4222 F1200.00
G1 X175.5574 Y291.0574 Z-8.0000 F600.00
G2 X174.9621 Y288.5778 Z-8.0000 I-1.0574 J-1.0574 F1200.00
G2 X174.0379 Y291.4222 Z-8.0000 I-0.4621 J1.4222 F1200.00
G2 X175.5574 Y291.0574 Z-8.0000 I0.4621 J-1.4222 F1200.00
G1 X175.5574 Y291.0574 Z-8.5000 F600.00
G2 X174.9621 Y288.5778 Z-8.5000 I-1.0574 J-1.0574 F1200.00
G2 X174.0379 Y291.4222 Z-8.5000 I-0.4621 J1.4222 F1200.00
G2 X175.5574 Y291.0574 Z-8.5000 I0.4621 J-1.4222 F1200.00
G1 X175.5574 Y291.0574 Z-9.0000 F600.00
G2 X174.9621 Y288.5778 Z-9.0000 I-1.0574 J-1.0574 F1200.00
G2 X174.0379 Y291.4222 Z-9.0000 I-0.4621 J1.4222 F1200.00
G2 X175.5574 Y291.0574 Z-9.0000 I0.4621 J-1.4222 F1200.00
G1 X175.5574 Y291.0574 Z-9.5000 F600.00
G2 X174.9621 Y288.5778 Z-9.5000 I-1.0574 J-1.0574 F1200.00
G2 X174.0379 Y291.4222 Z-9.5000 I-0.4621 J1.4222 F1200.00
G2 X175.5574 Y291.0574 Z-9.5000 I0.4621 J-1.4222 F1200.00
G1 X175.5574 Y291.0574 Z-10.0000 F600.00
G2 X174.9621 Y288.5778 Z-10.0000 I-1.0574 J-1.0574 F1200.00
G2 X174.0379 Y291.4222 Z-10.0000 I-0.4621 J1.4222 F1200.00
G2 X175.5574 Y291.0574 Z-10.0000 I0.4621 J-1.4222 F1200.00
G1 X175.5574 Y291.0574 Z-10.5000 F600.00
G2 X174.9621 Y288.5778 Z-10.5000 I-1.0574 J-1.0574 F1200.00
G2 X174.0379 Y291.4222 Z-10.5000 I-0.4621 J1.4222 F1200.00
G2 X175.5574 Y291.0574 Z-10.5000 I0.4621 J-1.4222 F1200.00
G1 X175.5574 Y291.0574 Z-11.0000 F600.00
G2 X174.9621 Y288.5778 Z-11.0000 I-1.0574 J-1.0574 F1200.00
G2 X174.0379 Y291.4222 Z-11.0000 I-0.4621 J1.4222 F1200.00
G2 X175.5574 Y291.0574 Z-11.0000 I0.4621 J-1.4222 F1200.00
G1 X175.5574 Y291.0574 Z-11.5000 F600.00
G2 X174.9621 Y288.5778 Z-11.5000 I-1.0574 J-1.0574 F1200.00
G2 X174.0379 Y291.4222 Z-11.5000 I-0.4621 J1.4222 F1200.00
G2 X175.5574 Y291.0574 Z-11.5000 I0.4621 J-1.4222 F1200.00
G1 X175.5574 Y291.0574 Z-12.0000 F600.00
G2 X174.9621 Y288.5778 Z-12.0000 I-1.0574 J-1.0574 F1200.00
G2 X174.0379 Y291.4222 Z-12.0000 I-0.4621 J1.4222 F1200.00
G2 X175.5574 Y291.0574 Z-12.0000 I0.4621 J-1.4222 F1200.00
G0 Z5.0000
G0 X155.5574 Y351.0574
G0 Z3.0000
G1 X155.5574 Y351.0574 Z-0.5000 F600.00
G2 X154.9621 Y348.5778 Z-0.5000 I-1.0574 J-1.0574 F1200.00
G2 X154.0379 Y351.4222 Z-0.5000 I-0.4621 J1.4222 F1200.00
G2 X155.5574 Y351.0574 Z-0.5000 I0.4621 J-1.4222 F1200.00
G1 X155.5574 Y351.0574 Z-1.0000 F600.00
G2 X154.9621 Y348.5778 Z-1.0000 I-1.0574 J-1.0574 F1200.00
G2 X154.0379 Y351.4222 Z-1.0000 I-0.4621 J1.4222 F1200.00
G2 X155.5574 Y351.0574 Z-1.0000 I0.4621 J-1.4222 F1200.00
G1 X155.5574 Y351.0574 Z-1.5000 F600.00
G2 X154.9621 Y348.5778 Z-1.5000 I-1.0574 J-1.0574 F1200.00
G2 X154.0379 Y351.4222 Z-1.5000 I-0.4621 J1.4222 F1200.00
G2 X155.5574 Y351.0574 Z-1.5000 I0.4621 J-1.4222 F1200.00
G1 X155.5574 Y351.0574 Z-2.0000 F600.00
G2 X154.9621 Y348.5778 Z-2.0000 I-1.0574 J-1.0574 F1200.00
G2 X154.0379 Y351.4222 Z-2.0000 I-0.4621 J1.4222 F1200.00
G2 X155.5574 Y351.0574 Z-2.0000 I0.4621 J-1.4222 F1200.00
G1 X155.5574 Y351.0574 Z-2.5000 F600.00
G2 X154.9621 Y348.5778 Z-2.5000 I-1.0574 J-1.0574 F1200.00
G2 X154.0379 Y351.4222 Z-2.5000 I-0.4621 J1.4222 F1200.00
G2 X155.5574 Y351.0574 Z-2.5000 I0.4621 J-1.4222 F1200.00
G1 X155.5574 Y351.0574 Z-3.0000 F600.00
G2 X154.9621 Y348.5778 Z-3.0000 I-1.0574 J-1.0574 F1200.00
G2 X154.0379 Y351.4222 Z-3.0000 I-0.4621 J1.4222 F1200.00
G2 X155.5574 Y351.0574 Z-3.0000 I0.4621 J-1.4222 F1200.00
G1 X155.5574 Y351.0574 Z-3.5000 F600.00
G2 X154.9621 Y348.5778 Z-3.5000 I-1.0574 J-1.0574 F1200.00
G2 X154.0379 Y351.4222 Z-3.5000 I-0.4621 J1.4222 F1200.00
G2 X155.5574 Y351.0574 Z-3.5000 I0.4621 J-1.4222 F1200.00
G1 X155.5574 Y351.0574 Z-4.0000 F600.00
G2 X154.9621 Y348.5778 Z-4.0000 I-1.0574 J-1.0574 F1200.00
G2 X154.0379 Y351.4222 Z-4.0000 I-0.4621 J1.4222 F1200.00
G2 X155.5574 Y351.0574 Z-4.0000 I0.4621 J-1.4222 F1200.00
G1 X155.5574 Y351.0574 Z-4.5000 F600.00
G2 X154.9621 Y348.5778 Z-4.5000 I-1.0574 J-1.0574 F1200.00
G2 X154.0379 Y351.4222 Z-4.5000 I-0.4621 J1.4222 F1200.00
G2 X155.5574 Y351.0574 Z-4.5000 I0.4621 J-1.4222 F1200.00
G1 X155.5574 Y351.0574 Z-5.0000 F600.00
G2 X154.9621 Y348.5778 Z-5.0000 I-1.0574 J-1.0574 F1200.00
G2 X154.0379 Y351.4222 Z-5.0000 I-0.4621 J1.4222 F1200.00
G2 X155.5574 Y351.0574 Z-5.0000 I0.4621 J-1.4222 F1200.00
G1 X155.5574 Y351.0574 Z-5.5000 F600.00
G2 X154.9621 Y348.5778 Z-5.5000 I-1.0574 J-1.0574 F1200.00
G2 X154.0379 Y351.4222 Z-5.5000 I-0.4621 J1.4222 F1200.00
G2 X155.5574 Y351.0574 Z-5.5000 I0.4621 J-1.4222 F1200.00
G1 X155.5574 Y351.0574 Z-6.0000 F600.00
G2 X154.9621 Y348.5778 Z-6.0000 I-1.0574 J-1.0574 F1200.00
G2 X154.0379 Y351.4222 Z-6.0000 I-0.4621 J1.4222 F1200.00
G2 X155.5574 Y351.0574 Z-6.0000 I0.4621 J-1.4222 F1200.00
G1 X155.5574 Y351.0574 Z-6.5000 F600.00
G2 X154.9621 Y348.5778 Z-6.5000 I-1.0574 J-1.0574 F1200.00
G2 X154.0379 Y351.4222 Z-6.5000 I-0.4621 J1.4222 F1200.00
G2 X155.5574 Y351.0574 Z-6.5000 I0.4621 J-1.4222 F1200.00
G1 X155.5574 Y351.0574 Z-7.0000 F600.00
G2 X154.9621 Y348.5778 Z-7.0000 I-1.0574 J-1.0574 F1200.00
G2 X154.0379 Y351.4222 Z-7.0000 I-0.4621 J1.4222 F1200.00
G2 X155.5574 Y351.0574 Z-7.0000 I0.4621 J-1.4222 F1200.00
G1 X155.5574 Y351.0574 Z-7.5000 F600.00
G2 X154.9621 Y348.5778 Z-7.5000 I-1.0574 J-1.0574 F1200.00
G2 X154.0379 Y351.4222 Z-7.5000 I-0.4621 J1.4222 F1200.00
G2 X155.5574 Y351.0574 Z-7.5000 I0.4621 J-1.4222 F1200.00
G1 X155.5574 Y351.0574 Z-8.0000 F600.00
G2 X154.9621 Y348.5778 Z-8.0000 I-1.0574 J-1.0574 F1200.00
G2 X154.0379 Y351.4222 Z-8.0000 I-0.4621 J1.4222 F1200.00
G2 X155.5574 Y351.0574 Z-8.0000 I0.4621 J-1.4222 F1200.00
G1 X155.5574 Y351.0574 Z-8.5000 F600.00
G2 X154.9621 Y348.5778 Z-8.5000 I-1.0574 J-1.0574 F1200.00
G2 X154.0379 Y351.4222 Z-8.5000 I-0.4621 J1.4222 F1200.00
G2 X155.5574 Y351.0574 Z-8.5000 I0.4621 J-1.4222 F1200.00
G1 X155.5574 Y351.0574 Z-9.0000 F600.00
G2 X154.9621 Y348.5778 Z-9.0000 I-1.0574 J-1.0574 F1200.00
G2 X154.0379 Y351.4222 Z-9.0000 I-0.4621 J1.4222 F1200.00
G2 X155.5574 Y351.0574 Z-9.0000 I0.4621 J-1.4222 F1200.00
G1 X155.5574 Y351.0574 Z-9.5000 F600.00
G2 X154.9621 Y348.5778 Z-9.5000 I-1.0574 J-1.0574 F1200.00
G2 X154.0379 Y351.4222 Z-9.5000 I-0.4621 J1.4222 F1200.00
G2 X155.5574 Y351.0574 Z-9.5000 I0.4621 J-1.4222 F1200.00
G1 X155.5574 Y351.0574 Z-10.0000 F600.00
G2 X154.9621 Y348.5778 Z-10.0000 I-1.0574 J-1.0574 F1200.00
G2 X154.0379 Y351.4222 Z-10.0000 I-0.4621 J1.4222 F1200.00
G2 X155.5574 Y351.0574 Z-10.0000 I0.4621 J-1.4222 F1200.00
G1 X155.5574 Y351.0574 Z-10.5000 F600.00
G2 X154.9621 Y348.5778 Z-10.5000 I-1.0574 J-1.0574 F1200.00
G2 X154.0379 Y351.4222 Z-10.5000 I-0.4621 J1.4222 F1200.00
G2 X155.5574 Y351.0574 Z-10.5000 I0.4621 J-1.4222 F1200.00
G1 X155.5574 Y351.0574 Z-11.0000 F600.00
G2 X154.9621 Y348.5778 Z-11.0000 I-1.0574 J-1.0574 F1200.00
G2 X154.0379 Y351.4222 Z-11.0000 I-0.4621 J1.4222 F1200.00
G2 X155.5574 Y351.0574 Z-11.0000 I0.4621 J-1.4222 F1200.00
G1 X155.5574 Y351.0574 Z-11.5000 F600.00
G2 X154.9621 Y348.5778 Z-11.5000 I-1.0574 J-1.0574 F1200.00
G2 X154.0379 Y351.4222 Z-11.5000 I-0.4621 J1.4222 F1200.00
G2 X155.5574 Y351.0574 Z-11.5000 I0.4621 J-1.4222 F1200.00
G1 X155.5574 Y351.0574 Z-12.0000 F600.00
G2 X154.9621 Y348.5778 Z-12.0000 I-1.0574 J-1.0574 F1200.00
G2 X154.0379 Y351.4222 Z-12.0000 I-0.4621 J1.4222 F1200.00
G2 X155.5574 Y351.0574 Z-12.0000 I0.4621 J-1.4222 F1200.00
G0 Z5.0000
G0 X135.5574 Y411.0574
G0 Z3.0000
G1 X135.5574 Y411.0574 Z-0.5000 F600.00
G2 X134.9621 Y408.5778 Z-0.5000 I-1.0574 J-1.0574 F1200.00
G2 X134.0379 Y411.4222 Z-0.5000 I-0.4621 J1.4222 F1200.00
G2 X135.5574 Y411.0574 Z-0.5000 I0.4621 J-1.4222 F1200.00
G1 X135.5574 Y411.0574 Z-1.0000 F600.00
G2 X134.9621 Y408.5778 Z-1.0000 I-1.0574 J-1.0574 F1200.00
G2 X134.0379 Y411.4222 Z-1.0000 I-0.4621 J1.4222 F1200.00
G2 X135.5574 Y411.0574 Z-1.0000 I0.4621 J-1.4222 F1200.00
G1 X135.5574 Y411.0574 Z-1.5000 F600.00
G2 X134.9621 Y408.5778 Z-1.5000 I-1.0574 J-1.0574 F1200.00
G2 X134.0379 Y411.4222 Z-1.5000 I-0.4621 J1.4222 F1200.00
G2 X135.5574 Y411.0574 Z-1.5000 I0.4621 J-1.4222 F1200.00
G1 X135.5574 Y411.0574 Z-2.0000 F600.00
G2 X134.9621 Y408.5778 Z-2.0000 I-1.0574 J-1.0574 F1200.00
G2 X134.0379 Y411.4222 Z-2.0000 I-0.4621 J1.4222 F1200.00
G2 X135.5574 Y411.0574 Z-2.0000 I0.4621 J-1.4222 F1200.00
G1 X135.5574 Y411.0574 Z-2.5000 F600.00
G2 X134.9621 Y408.5778 Z-2.5000 I-1.0574 J-1.0574 F1200.00
G2 X134.0379 Y411.4222 Z-2.5000 I-0.4621 J1.4222 F1200.00
G2 X135.5574 Y411.0574 Z-2.5000 I0.4621 J-1.4222 F1200.00
G1 X135.5574 Y411.0574 Z-3.0000 F600.00
G2 X134.9621 Y408.5778 Z-3.0000 I-1.0574 J-1.0574 F1200.00
G2 X134.0379 Y411.4222 Z-3.0000 I-0.4621 J1.4222 F1200.00
G2 X135.5574 Y411.0574 Z-3.0000 I0.4621 J-1.4222 F1200.00
G1 X135.5574 Y411.0574 Z-3.5000 F600.00
G2 X134.9621 Y408.5778 Z-3.5000 I-1.0574 J-1.0574 F1200.00
G2 X134.0379 Y411.4222 Z-3.5000 I-0.4621 J1.4222 F1200.00
G2 X135.5574 Y411.0574 Z-3.5000 I0.4621 J-1.4222 F1200.00
G1 X135.5574 Y411.0574 Z-4.0000 F600.00
G2 X134.9621 Y408.5778 Z-4.0000 I-1.0574 J-1.0574 F1200.00
G2 X134.0379 Y411.4222 Z-4.0000 I-0.4621 J1.4222 F1200.00
G2 X135.5574 Y411.0574 Z-4.0000 I0.4621 J-1.4222 F1200.00
G1 X135.5574 Y411.0574 Z-4.5000 F600.00
G2 X134.9621 Y408.5778 Z-4.5000 I-1.0574 J-1.0574 F1200.00
G2 X134.0379 Y411.4222 Z-4.5000 I-0.4621 J1.4222 F1200.00
G2 X135.5574 Y411.0574 Z-4.5000 I0.4621 J-1.4222 F1200.00
G1 X135.5574 Y411.0574 Z-5.0000 F600.00
G2 X134.9621 Y408.5778 Z-5.0000 I-1.0574 J-1.0574 F1200.00
G2 X134.0379 Y411.4222 Z-5.0000 I-0.4621 J1.4222 F1200.00
G2 X135.5574 Y411.0574 Z-5.0000 I0.4621 J-1.4222 F1200.00
G1 X135.5574 Y411.0574 Z-5.5000 F600.00
G2 X134.9621 Y408.5778 Z-5.5000 I-1.0574 J-1.0574 F1200.00
G2 X134.0379 Y411.4222 Z-5.5000 I-0.4621 J1.4222 F1200.00
G2 X135.5574 Y411.0574 Z-5.5000 I0.4621 J-1.4222 F1200.00
G1 X135.5574 Y411.0574 Z-6.0000 F600.00
G2 X134.9621 Y408.5778 Z-6.0000 I-1.0574 J-1.0574 F1200.00
G2 X134.0379 Y411.4222 Z-6.0000 I-0.4621 J1.4222 F1200.00
G2 X135.5574 Y411.0574 Z-6.0000 I0.4621 J-1.4222 F1200.00
G1 X135.5574 Y411.0574 Z-6.5000 F600.00
G2 X134.9621 Y408.5778 Z-6.5000 I-1.0574 J-1.0574 F1200.00
G2 X134.0379 Y411.4222 Z-6.5000 I-0.4621 J1.4222 F1200.00
G2 X135.5574 Y411.0574 Z-6.5000 I0.4621 J-1.4222 F1200.00
G1 X135.5574 Y411.0574 Z-7.0000 F600.00
G2 X134.9621 Y408.5778 Z-7.0000 I-1.0574 J-1.0574 F1200.00
G2 X134.0379 Y411.4222 Z-7.0000 I-0.4621 J1.4222 F1200.00
G2 X135.5574 Y411.0574 Z-7.0000 I0.4621 J-1.4222 F1200.00
G1 X135.5574 Y411.0574 Z-7.5000 F600.00
G2 X134.9621 Y408.5778 Z-7.5000 I-1.0574 J-1.0574 F1200.00
G2 X134.0379 Y411.4222 Z-7.5000 I-0.4621 J1.4222 F1200.00
G2 X135.5574 Y411.0574 Z-7.5000 I0.4621 J-1.4222 F1200.00
G1 X135.5574 Y411.0574 Z-8.0000 F600.00
G2 X134.9621 Y408.5778 Z-8.0000 I-1.0574 J-1.0574 F1200.00
G2 X134.0379 Y411.4222 Z-8.0000 I-0.4621 J1.4222 F1200.00
G2 X135.5574 Y411.0574 Z-8.0000 I0.4621 J-1.4222 F1200.00
G1 X135.5574 Y411.0574 Z-8.5000 F600.00
G2 X134.9621 Y408.5778 Z-8.5000 I-1.0574 J-1.0574 F1200.00
G2 X134.0379 Y411.4222 Z-8.5000 I-0.4621 J1.4222 F1200.00
G2 X135.5574 Y411.0574 Z-8.5000 I0.4621 J-1.4222 F1200.00
G1 X135.5574 Y411.0574 Z-9.0000 F600.00
G2 X134.9621 Y408.5778 Z-9.0000 I-1.0574 J-1.0574 F1200.00
G2 X134.0379 Y411.4222 Z-9.0000 I-0.4621 J1.4222 F1200.00
G2 X135.5574 Y411.0574 Z-9.0000 I0.4621 J-1.4222 F1200.00
G1 X135.5574 Y411.0574 Z-9.5000 F600.00
G2 X134.9621 Y408.5778 Z-9.5000 I-1.0574 J-1.0574 F1200.00
G2 X134.0379 Y411.4222 Z-9.5000 I-0.4621 J1.4222 F1200.00
G2 X135.5574 Y411.0574 Z-9.5000 I0.4621 J-1.4222 F1200.00
G1 X135.5574 Y411.0574 Z-10.0000 F600.00
G2 X134.9621 Y408.5778 Z-10.0000 I-1.0574 J-1.0574 F1200.00
G2 X134.0379 Y411.4222 Z-10.0000 I-0.4621 J1.4222 F1200.00
G2 X135.5574 Y411.0574 Z-10.0000 I0.4621 J-1.4222 F1200.00
G1 X135.5574 Y411.0574 Z-10.5000 F600.00
G2 X134.9621 Y408.5778 Z-10.5000 I-1.0574 J-1.0574 F1200.00
G2 X134.0379 Y411.4222 Z-10.5000 I-0.4621 J1.4222 F1200.00
G2 X135.5574 Y411.0574 Z-10.5000 I0.4621 J-1.4222 F1200.00
G1 X135.5574 Y411.0574 Z-11.0000 F600.00
G2 X134.9621 Y408.5778 Z-11.0000 I-1.0574 J-1.0574 F1200.00
G2 X134.0379 Y411.4222 Z-11.0000 I-0.4621 J1.4222 F1200.00
G2 X135.5574 Y411.0574 Z-11.0000 I0.4621 J-1.4222 F1200.00
G1 X135.5574 Y411.0574 Z-11.5000 F600.00
G2 X134.9621 Y408.5778 Z-11.5000 I-1.0574 J-1.0574 F1200.00
G2 X134.0379 Y411.4222 Z-11.5000 I-0.4621 J1.4222 F1200.00
G2 X135.5574 Y411.0574 Z-11.5000 I0.4621 J-1.4222 F1200.00
G1 X135.5574 Y411.0574 Z-12.0000 F600.00
G2 X134.9621 Y408.5778 Z-12.0000 I-1.0574 J-1.0574 F1200.00
G2 X134.0379 Y411.4222 Z-12.0000 I-0.4621 J1.4222 F1200.00
G2 X135.5574 Y411.0574 Z-12.0000 I0.4621 J-1.4222 F1200.00
G0 Z5.0000
G0 X115.5574 Y471.0574
G0 Z3.0000
G1 X115.5574 Y471.0574 Z-0.5000 F600.00
G2 X114.9621 Y468.5778 Z-0.5000 I-1.0574 J-1.0574 F1200.00
G2 X114.0379 Y471.4222 Z-0.5000 I-0.4621 J1.4222 F1200.00
G2 X115.5574 Y471.0574 Z-0.5000 I0.4621 J-1.4222 F1200.00
G1 X115.5574 Y471.0574 Z-1.0000 F600.00
G2 X114.9621 Y468.5778 Z-1.0000 I-1.0574 J-1.0574 F1200.00
G2 X114.0379 Y471.4222 Z-1.0000 I-0.4621 J1.4222 F1200.00
G2 X115.5574 Y471.0574 Z-1.0000 I0.4621 J-1.4222 F1200.00
G1 X115.5574 Y471.0574 Z-1.5000 F600.00
G2 X114.9621 Y468.5778 Z-1.5000 I-1.0574 J-1.0574 F1200.00
G2 X114.0379 Y471.4222 Z-1.5000 I-0.4621 J1.4222 F1200.00
G2 X115.5574 Y471.0574 Z-1.5000 I0.4621 J-1.4222 F1200.00
G1 X115.5574 Y471.0574 Z-2.0000 F600.00
G2 X114.9621 Y468.5778 Z-2.0000 I-1.0574 J-1.0574 F1200.00
G2 X114.0379 Y471.4222 Z-2.0000 I-0.4621 J1.4222 F1200.00
G2 X115.5574 Y471.0574 Z-2.0000 I0.4621 J-1.4222 F1200.00
G1 X115.5574 Y471.0574 Z-2.5000 F600.00
G2 X114.9621 Y468.5778 Z-2.5000 I-1.0574 J-1.0574 F1200.00
G2 X114.0379 Y471.4222 Z-2.5000 I-0.4621 J1.4222 F1200.00
G2 X115.5574 Y471.0574 Z-2.5000 I0.4621 J-1.4222 F1200.00
G1 X115.5574 Y471.0574 Z-3.0000 F600.00
G2 X114.9621 Y468.5778 Z-3.0000 I-1.0574 J-1.0574 F1200.00
G2 X114.0379 Y471.4222 Z-3.0000 I-0.4621 J1.4222 F1200.00
G2 X115.5574 Y471.0574 Z-3.0000 I0.4621 J-1.4222 F1200.00
G1 X115.5574 Y471.0574 Z-3.5000 F600.00
G2 X114.9621 Y468.5778 Z-3.5000 I-1.0574 J-1.0574 F1200.00
G2 X114.0379 Y471.4222 Z-3.5000 I-0.4621 J1.4222 F1200.00
G2 X115.5574 Y471.0574 Z-3.5000 I0.4621 J-1.4222 F1200.00
G1 X115.5574 Y471.0574 Z-4.0000 F600.00
G2 X114.9621 Y468.5778 Z-4.0000 I-1.0574 J-1.0574 F1200.00
G2 X114.0379 Y471.4222 Z-4.0000 I-0.4621 J1.4222 F1200.00
G2 X115.5574 Y471.0574 Z-4.0000 I0.4621 J-1.4222 F1200.00
G1 X115.5574 Y471.0574 Z-4.5000 F600.00
G2 X114.9621 Y468.5778 Z-4.5000 I-1.0574 J-1.0574 F1200.00
G2 X114.0379 Y471.4222 Z-4.5000 I-0.4621 J1.4222 F1200.00
G2 X115.5574 Y471.0574 Z-4.5000 I0.4621 J-1.4222 F1200.00
G1 X115.5574 Y471.0574 Z-5.0000 F600.00
G2 X114.9621 Y468.5778 Z-5.0000 I-1.0574 J-1.0574 F1200.00
G2 X114.0379 Y471.4222 Z-5.0000 I-0.4621 J1.4222 F1200.00
G2 X115.5574 Y471.0574 Z-5.0000 I0.4621 J-1.4222 F1200.00
G1 X115.5574 Y471.0574 Z-5.5000 F600.00
G2 X114.9621 Y468.5778 Z-5.5000 I-1.0574 J-1.0574 F1200.00
G2 X114.0379 Y471.4222 Z-5.5000 I-0.4621 J1.4222 F1200.00
G2 X115.5574 Y471.0574 Z-5.5000 I0.4621 J-1.4222 F1200.00
G1 X115.5574 Y471.0574 Z-6.0000 F600.00
G2 X114.9621 Y468.5778 Z-6.0000 I-1.0574 J-1.0574 F1200.00
G2 X114.0379 Y471.4222 Z-6.0000 I-0.4621 J1.4222 F1200.00
G2 X115.5574 Y471.0574 Z-6.0000 I0.4621 J-1.4222 F1200.00
G1 X115.5574 Y471.0574 Z-6.5000 F600.00
G2 X114.9621 Y468.5778 Z-6.5000 I-1.0574 J-1.0574 F1200.00
G2 X114.0379 Y471.4222 Z-6.5000 I-0.4621 J1.4222 F1200.00
G2 X115.5574 Y471.0574 Z-6.5000 I0.4621 J-1.4222 F1200.00
G1 X115.5574 Y471.0574 Z-7.0000 F600.00
G2 X114.9621 Y468.5778 Z-7.0000 I-1.0574 J-1.0574 F1200.00
G2 X114.0379 Y471.4222 Z-7.0000 I-0.4621 J1.4222 F1200.00
G2 X115.5574 Y471.0574 Z-7.0000 I0.4621 J-1.4222 F1200.00
G1 X115.5574 Y471.0574 Z-7.5000 F600.00
G2 X114.9621 Y468.5778 Z-7.5000 I-1.0574 J-1.0574 F1200.00
G2 X114.0379 Y471.4222 Z-7.5000 I-0.4621 J1.4222 F1200.00
G2 X115.5574 Y471.0574 Z-7.5000 I0.4621 J-1.4222 F1200.00
G1 X115.5574 Y471.0574 Z-8.0000 F600.00
G2 X114.9621 Y468.5778 Z-8.0000 I-1.0574 J-1.0574 F1200.00
G2 X114.0379 Y471.4222 Z-8.0000 I-0.4621 J1.4222 F1200.00
G2 X115.5574 Y471.0574 Z-8.0000 I0.4621 J-1.4222 F1200.00
G1 X115.5574 Y471.0574 Z-8.5000 F600.00
G2 X114.9621 Y468.5778 Z-8.5000 I-1.0574 J-1.0574 F1200.00
G2 X114.0379 Y471.4222 Z-8.5000 I-0.4621 J1.4222 F1200.00
G2 X115.5574 Y471.0574 Z-8.5000 I0.4621 J-1.4222 F1200.00
G1 X115.5574 Y471.0574 Z-9.0000 F600.00
G2 X114.9621 Y468.5778 Z-9.0000 I-1.0574 J-1.0574 F1200.00
G2 X114.0379 Y471.4222 Z-9.0000 I-0.4621 J1.4222 F1200.00
G2 X115.5574 Y471.0574 Z-9.0000 I0.4621 J-1.4222 F1200.00
G1 X115.5574 Y471.0574 Z-9.5000 F600.00
G2 X114.9621 Y468.5778 Z-9.5000 I-1.0574 J-1.0574 F1200.00
G2 X114.0379 Y471.4222 Z-9.5000 I-0.4621 J1.4222 F1200.00
G2 X115.5574 Y471.0574 Z-9.5000 I0.4621 J-1.4222 F1200.00
G1 X115.5574 Y471.0574 Z-10.0000 F600.00
G2 X114.9621 Y468.5778 Z-10.0000 I-1.0574 J-1.0574 F1200.00
G2 X114.0379 Y471.4222 Z-10.0000 I-0.4621 J1.4222 F1200.00
G2 X115.5574 Y471.0574 Z-10.0000 I0.4621 J-1.4222 F1200.00
G1 X115.5574 Y471.0574 Z-10.5000 F600.00
G2 X114.9621 Y468.5778 Z-10.5000 I-1.0574 J-1.0574 F1200.00
G2 X114.0379 Y471.4222 Z-10.5000 I-0.4621 J1.4222 F1200.00
G2 X115.5574 Y471.0574 Z-10.5000 I0.4621 J-1.4222 F1200.00
G1 X115.5574 Y471.0574 Z-11.0000 F600.00
G2 X114.9621 Y468.5778 Z-11.0000 I-1.0574 J-1.0574 F1200.00
G2 X114.0379 Y471.4222 Z-11.0000 I-0.4621 J1.4222 F1200.00
G2 X115.5574 Y471.0574 Z-11.0000 I0.4621 J-1.4222 F1200.00
G1 X115.5574 Y471.0574 Z-11.5000 F600.00
G2 X114.9621 Y468.5778 Z-11.5000 I-1.0574 J-1.0574 F1200.00
G2 X114.0379 Y471.4222 Z-11.5000 I-0.4621 J1.4222 F1200.00
G2 X115.5574 Y471.0574 Z-11.5000 I0.4621 J-1.4222 F1200.00
G1 X115.5574 Y471.0574 Z-12.0000 F600.00
G2 X114.9621 Y468.5778 Z-12.0000 I-1.0574 J-1.0574 F1200.00
G2 X114.0379 Y471.4222 Z-12.0000 I-0.4621 J1.4222 F1200.00
G2 X115.5574 Y471.0574 Z-12.0000 I0.4621 J-1.4222 F1200.00
G0 Z5.0000
G0 X-113.4426 Y471.0574
G0 Z3.0000
G1 X-113.4426 Y471.0574 Z-0.5000 F600.00
G2 X-114.0379 Y468.5778 Z-0.5000 I-1.0574 J-1.0574 F1200.00
G2 X-114.9621 Y471.4222 Z-0.5000 I-0.4621 J1.4222 F1200.00
G2 X-113.4426 Y471.0574 Z-0.5000 I0.4621 J-1.4222 F1200.00
G1 X-113.4426 Y471.0574 Z-1.0000 F600.00
G2 X-114.0379 Y468.5778 Z-1.0000 I-1.0574 J-1.0574 F1200.00
G2 X-114.9621 Y471.4222 Z-1.0000 I-0.4621 J1.4222 F1200.00
G2 X-113.4426 Y471.0574 Z-1.0000 I0.4621 J-1.4222 F1200.00
G1 X-113.4426 Y471.0574 Z-1.5000 F600.00
G2 X-114.0379 Y468.5778 Z-1.5000 I-1.0574 J-1.0574 F1200.00
G2 X-114.9621 Y471.4222 Z-1.5000 I-0.4621 J1.4222 F1200.00
G2 X-113.4426 Y471.0574 Z-1.5000 I0.4621 J-1.4222 F1200.00
G1 X-113.4426 Y471.0574 Z-2.0000 F600.00
G2 X-114.0379 Y468.5778 Z-2.0000 I-1.0574 J-1.0574 F1200.00
G2 X-114.9621 Y471.4222 Z-2.0000 I-0.4621 J1.4222 F1200.00
G2 X-113.4426 Y471.0574 Z-2.0000 I0.4621 J-1.4222 F1200.00
G1 X-113.4426 Y471.0574 Z-2.5000 F600.00
G2 X-114.0379 Y468.5778 Z-2.5000 I-1.0574 J-1.0574 F1200.00
G2 X-114.9621 Y471.4222 Z-2.5000 I-0.4621 J1.4222 F1200.00
G2 X-113.4426 Y471.0574 Z-2.5000 I0.4621 J-1.4222 F1200.00
G1 X-113.4426 Y471.0574 Z-3.0000 F600.00
G2 X-114.0379 Y468.5778 Z-3.0000 I-1.0574 J-1.0574 F1200.00
G2 X-114.9621 Y471.4222 Z-3.0000 I-0.4621 J1.4222 F1200.00
G2 X-113.4426 Y471.0574 Z-3.0000 I0.4621 J-1.4222 F1200.00
G1 X-113.4426 Y471.0574 Z-3.5000 F600.00
G2 X-114.0379 Y468.5778 Z-3.5000 I-1.0574 J-1.0574 F1200.00
G2 X-114.9621 Y471.4222 Z-3.5000 I-0.4621 J1.4222 F1200.00
G2 X-113.4426 Y471.0574 Z-3.5000 I0.4621 J-1.4222 F1200.00
G1 X-113.4426 Y471.0574 Z-4.0000 F600.00
G2 X-114.0379 Y468.5778 Z-4.0000 I-1.0574 J-1.0574 F1200.00
G2 X-114.9621 Y471.4222 Z-4.0000 I-0.4621 J1.4222 F1200.00
G2 X-113.4426 Y471.0574 Z-4.0000 I0.4621 J-1.4222 F1200.00
G1 X-113.4426 Y471.0574 Z-4.5000 F600.00
G2 X-114.0379 Y468.5778 Z-4.5000 I-1.0574 J-1.0574 F1200.00
G2 X-114.9621 Y471.4222 Z-4.5000 I-0.4621 J1.4222 F1200.00
G2 X-113.4426 Y471.0574 Z-4.5000 I0.4621 J-1.4222 F1200.00
G1 X-113.4426 Y471.0574 Z-5.0000 F600.00
G2 X-114.0379 Y468.5778 Z-5.0000 I-1.0574 J-1.0574 F1200.00
G2 X-114.9621 Y471.4222 Z-5.0000 I-0.4621 J1.4222 F1200.00
G2 X-113.4426 Y471.0574 Z-5.0000 I0.4621 J-1.4222 F1200.00
G1 X-113.4426 Y471.0574 Z-5.5000 F600.00
G2 X-114.0379 Y468.5778 Z-5.5000 I-1.0574 J-1.0574 F1200.00
G2 X-114.9621 Y471.4222 Z-5.5000 I-0.4621 J1.4222 F1200.00
G2 X-113.4426 Y471.0574 Z-5.5000 I0.4621 J-1.4222 F1200.00
G1 X-113.4426 Y471.0574 Z-6.0000 F600.00
G2 X-114.0379 Y468.5778 Z-6.0000 I-1.0574 J-1.0574 F1200.00
G2 X-114.9621 Y471.4222 Z-6.0000 I-0.4621 J1.4222 F1200.00
G2 X-113.4426 Y471.0574 Z-6.0000 I0.4621 J-1.4222 F1200.00
G1 X-113.4426 Y471.0574 Z-6.5000 F600.00
G2 X-114.0379 Y468.5778 Z-6.5000 I-1.0574 J-1.0574 F1200.00
G2 X-114.9621 Y471.4222 Z-6.5000 I-0.4621 J1.4222 F1200.00
G2 X-113.4426 Y471.0574 Z-6.5000 I0.4621 J-1.4222 F1200.00
G1 X-113.4426 Y471.0574 Z-7.0000 F600.00
G2 X-114.0379 Y468.5778 Z-7.0000 I-1.0574 J-1.0574 F1200.00
G2 X-114.9621 Y471.4222 Z-7.0000 I-0.4621 J1.4222 F1200.00
G2 X-113.4426 Y471.0574 Z-7.0000 I0.4621 J-1.4222 F1200.00
G1 X-113.4426 Y471.0574 Z-7.5000 F600.00
G2 X-114.0379 Y468.5778 Z-7.5000 I-1.0574 J-1.0574 F1200.00
G2 X-114.9621 Y471.4222 Z-7.5000 I-0.4621 J1.4222 F1200.00
G2 X-113.4426 Y471.0574 Z-7.5000 I0.4621 J-1.4222 F1200.00
G1 X-113.4426 Y471.0574 Z-8.0000 F600.00
G2 X-114.0379 Y468.5778 Z-8.0000 I-1.0574 J-1.0574 F1200.00
G2 X-114.9621 Y471.4222 Z-8.0000 I-0.4621 J1.4222 F1200.00
G2 X-113.4426 Y471.0574 Z-8.0000 I0.4621 J-1.4222 F1200.00
G1 X-113.4426 Y471.0574 Z-8.5000 F600.00
G2 X-114.0379 Y468.5778 Z-8.5000 I-1.0574 J-1.0574 F1200.00
G2 X-114.9621 Y471.4222 Z-8.5000 I-0.4621 J1.4222 F1200.00
G2 X-113.4426 Y471.0574 Z-8.5000 I0.4621 J-1.4222 F1200.00
G1 X-113.4426 Y471.0574 Z-9.0000 F600.00
G2 X-114.0379 Y468.5778 Z-9.0000 I-1.0574 J-1.0574 F1200.00
G2 X-114.9621 Y471.4222 Z-9.0000 I-0.4621 J1.4222 F1200.00
G2 X-113.4426 Y471.0574 Z-9.0000 I0.4621 J-1.4222 F1200.00
G1 X-113.4426 Y471.0574 Z-9.5000 F600.00
G2 X-114.0379 Y468.5778 Z-9.5000 I-1.0574 J-1.0574 F1200.00
G2 X-114.9621 Y471.4222 Z-9.5000 I-0.4621 J1.4222 F1200.00
G2 X-113.4426 Y471.0574 Z-9.5000 I0.4621 J-1.4222 F1200.00
G1 X-113.4426 Y471.0574 Z-10.0000 F600.00
G2 X-114.0379 Y468.5778 Z-10.0000 I-1.0574 J-1.0574 F1200.00
G2 X-114.9621 Y471.4222 Z-10.0000 I-0.4621 J1.4222 F1200.00
G2 X-113.4426 Y471.0574 Z-10.0000 I0.4621 J-1.4222 F1200.00
G1 X-113.4426 Y471.0574 Z-10.5000 F600.00
G2 X-114.0379 Y468.5778 Z-10.5000 I-1.0574 J-1.0574 F1200.00
G2 X-114.9621 Y471.4222 Z-10.5000 I-0.4621 J1.4222 F1200.00
G2 X-113.4426 Y471.0574 Z-10.5000 I0.4621 J-1.4222 F1200.00
G1 X-113.4426 Y471.0574 Z-11.0000 F600.00
G2 X-114.0379 Y468.5778 Z-11.0000 I-1.0574 J-1.0574 F1200.00
G2 X-114.9621 Y471.4222 Z-11.0000 I-0.4621 J1.4222 F1200.00
G2 X-113.4426 Y471.0574 Z-11.0000 I0.4621 J-1.4222 F1200.00
G1 X-113.4426 Y471.0574 Z-11.5000 F600.00
G2 X-114.0379 Y468.5778 Z-11.5000 I-1.0574 J-1.0574 F1200.00
G2 X-114.9621 Y471.4222 Z-11.5000 I-0.4621 J1.4222 F1200.00
G2 X-113.4426 Y471.0574 Z-11.5000 I0.4621 J-1.4222 F1200.00
G1 X-113.4426 Y471.0574 Z-12.0000 F600.00
G2 X-114.0379 Y468.5778 Z-12.0000 I-1.0574 J-1.0574 F1200.00
G2 X-114.9621 Y471.4222 Z-12.0000 I-0.4621 J1.4222 F1200.00
G2 X-113.4426 Y471.0574 Z-12.0000 I0.4621 J-1.4222 F1200.00
G0 Z5.0000
G0 X-133.4426 Y411.0574
G0 Z3.0000
G1 X-133.4426 Y411.0574 Z-0.5000 F600.00
G2 X-134.0379 Y408.5778 Z-0.5000 I-1.0574 J-1.0574 F1200.00
G2 X-134.9621 Y411.4222 Z-0.5000 I-0.4621 J1.4222 F1200.00
G2 X-133.4426 Y411.0574 Z-0.5000 I0.4621 J-1.4222 F1200.00
G1 X-133.4426 Y411.0574 Z-1.0000 F600.00
G2 X-134.0379 Y408.5778 Z-1.0000 I-1.0574 J-1.0574 F1200.00
G2 X-134.9621 Y411.4222 Z-1.0000 I-0.4621 J1.4222 F1200.00
G2 X-133.4426 Y411.0574 Z-1.0000 I0.4621 J-1.4222 F1200.00
G1 X-133.4426 Y411.0574 Z-1.5000 F600.00
G2 X-134.0379 Y408.5778 Z-1.5000 I-1.0574 J-1.0574 F1200.00
G2 X-134.9621 Y411.4222 Z-1.5000 I-0.4621 J1.4222 F1200.00
G2 X-133.4426 Y411.0574 Z-1.5000 I0.4621 J-1.4222 F1200.00
G1 X-133.4426 Y411.0574 Z-2.0000 F600.00
G2 X-134.0379 Y408.5778 Z-2.0000 I-1.0574 J-1.0574 F1200.00
G2 X-134.9621 Y411.4222 Z-2.0000 I-0.4621 J1.4222 F1200.00
G2 X-133.4426 Y411.0574 Z-2.0000 I0.4621 J-1.4222 F1200.00
G1 X-133.4426 Y411.0574 Z-2.5000 F600.00
G2 X-134.0379 Y408.5778 Z-2.5000 I-1.0574 J-1.0574 F1200.00
G2 X-134.9621 Y411.4222 Z-2.5000 I-0.4621 J1.4222 F1200.00
G2 X-133.4426 Y411.0574 Z-2.5000 I0.4621 J-1.4222 F1200.00
G1 X-133.4426 Y411.0574 Z-3.0000 F600.00
G2 X-134.0379 Y408.5778 Z-3.0000 I-1.0574 J-1.0574 F1200.00
G2 X-134.9621 Y411.4222 Z-3.0000 I-0.4621 J1.4222 F1200.00
G2 X-133.4426 Y411.0574 Z-3.0000 I0.4621 J-1.4222 F1200.00
G1 X-133.4426 Y411.0574 Z-3.5000 F600.00
G2 X-134.0379 Y408.5778 Z-3.5000 I-1.0574 J-1.0574 F1200.00
G2 X-134.9621 Y411.4222 Z-3.5000 I-0.4621 J1.4222 F1200.00
G2 X-133.4426 Y411.0574 Z-3.5000 I0.4621 J-1.4222 F1200.00
G1 X-133.4426 Y411.0574 Z-4.0000 F600.00
G2 X-134.0379 Y408.5778 Z-4.0000 I-1.0574 J-1.0574 F1200.00
G2 X-134.9621 Y411.4222 Z-4.0000 I-0.4621 J1.4222 F1200.00
G2 X-133.4426 Y411.0574 Z-4.0000 I0.4621 J-1.4222 F1200.00
G1 X-133.4426 Y411.0574 Z-4.5000 F600.00
G2 X-134.0379 Y408.5778 Z-4.5000 I-1.0574 J-1.0574 F1200.00
G2 X-134.9621 Y411.4222 Z-4.5000 I-0.4621 J1.4222 F1200.00
G2 X-133.4426 Y411.0574 Z-4.5000 I0.4621 J-1.4222 F1200.00
G1 X-133.4426 Y411.0574 Z-5.0000 F600.00
G2 X-134.0379 Y408.5778 Z-5.0000 I-1.0574 J-1.0574 F1200.00
G2 X-134.9621 Y411.4222 Z-5.0000 I-0.4621 J1.4222 F1200.00
G2 X-133.4426 Y411.0574 Z-5.0000 I0.4621 J-1.4222 F1200.00
G1 X-133.4426 Y411.0574 Z-5.5000 F600.00
G2 X-134.0379 Y408.5778 Z-5.5000 I-1.0574 J-1.0574 F1200.00
G2 X-134.9621 Y411.4222 Z-5.5000 I-0.4621 J1.4222 F1200.00
G2 X-133.4426 Y411.0574 Z-5.5000 I0.4621 J-1.4222 F1200.00
G1 X-133.4426 Y411.0574 Z-6.0000 F600.00
G2 X-134.0379 Y408.5778 Z-6.0000 I-1.0574 J-1.0574 F1200.00
G2 X-134.9621 Y411.4222 Z-6.0000 I-0.4621 J1.4222 F1200.00
G2 X-133.4426 Y411.0574 Z-6.0000 I0.4621 J-1.4222 F1200.00
G1 X-133.4426 Y411.0574 Z-6.5000 F600.00
G2 X-134.0379 Y408.5778 Z-6.5000 I-1.0574 J-1.0574 F1200.00
G2 X-134.9621 Y411.4222 Z-6.5000 I-0.4621 J1.4222 F1200.00
G2 X-133.4426 Y411.0574 Z-6.5000 I0.4621 J-1.4222 F1200.00
G1 X-133.4426 Y411.0574 Z-7.0000 F600.00
G2 X-134.0379 Y408.5778 Z-7.0000 I-1.0574 J-1.0574 F1200.00
G2 X-134.9621 Y411.4222 Z-7.0000 I-0.4621 J1.4222 F1200.00
G2 X-133.4426 Y411.0574 Z-7.0000 I0.4621 J-1.4222 F1200.00
G1 X-133.4426 Y411.0574 Z-7.5000 F600.00
G2 X-134.0379 Y408.5778 Z-7.5000 I-1.0574 J-1.0574 F1200.00
G2 X-134.9621 Y411.4222 Z-7.5000 I-0.4621 J1.4222 F1200.00
G2 X-133.4426 Y411.0574 Z-7.5000 I0.4621 J-1.4222 F1200.00
G1 X-133.4426 Y411.0574 Z-8.0000 F600.00
G2 X-134.0379 Y408.5778 Z-8.0000 I-1.0574 J-1.0574 F1200.00
G2 X-134.9621 Y411.4222 Z-8.0000 I-0.4621 J1.4222 F1200.00
G2 X-133.4426 Y411.0574 Z-8.0000 I0.4621 J-1.4222 F1200.00
G1 X-133.4426 Y411.0574 Z-8.5000 F600.00
G2 X-134.0379 Y408.5778 Z-8.5000 I-1.0574 J-1.0574 F1200.00
G2 X-134.9621 Y411.4222 Z-8.5000 I-0.4621 J1.4222 F1200.00
G2 X-133.4426 Y411.0574 Z-8.5000 I0.4621 J-1.4222 F1200.00
G1 X-133.4426 Y411.0574 Z-9.0000 F600.00
G2 X-134.0379 Y408.5778 Z-9.0000 I-1.0574 J-1.0574 F1200.00
G2 X-134.9621 Y411.4222 Z-9.0000 I-0.4621 J1.4222 F1200.00
G2 X-133.4426 Y411.0574 Z-9.0000 I0.4621 J-1.4222 F1200.00
G1 X-133.4426 Y411.0574 Z-9.5000 F600.00
G2 X-134.0379 Y408.5778 Z-9.5000 I-1.0574 J-1.0574 F1200.00
G2 X-134.9621 Y411.4222 Z-9.5000 I-0.4621 J1.4222 F1200.00
G2 X-133.4426 Y411.0574 Z-9.5000 I0.4621 J-1.4222 F1200.00
G1 X-133.4426 Y411.0574 Z-10.0000 F600.00
G2 X-134.0379 Y408.5778 Z-10.0000 I-1.0574 J-1.0574 F1200.00
G2 X-134.9621 Y411.4222 Z-10.0000 I-0.4621 J1.4222 F1200.00
G2 X-133.4426 Y411.0574 Z-10.0000 I0.4621 J-1.4222 F1200.00
G1 X-133.4426 Y411.0574 Z-10.5000 F600.00
G2 X-134.0379 Y408.5778 Z-10.5000 I-1.0574 J-1.0574 F1200.00
G2 X-134.9621 Y411.4222 Z-10.5000 I-0.4621 J1.4222 F1200.00
G2 X-133.4426 Y411.0574 Z-10.5000 I0.4621 J-1.4222 F1200.00
G1 X-133.4426 Y411.0574 Z-11.0000 F600.00
G2 X-134.0379 Y408.5778 Z-11.0000 I-1.0574 J-1.0574 F1200.00
G2 X-134.9621 Y411.4222 Z-11.0000 I-0.4621 J1.4222 F1200.00
G2 X-133.4426 Y411.0574 Z-11.0000 I0.4621 J-1.4222 F1200.00
G1 X-133.4426 Y411.0574 Z-11.5000 F600.00
G2 X-134.0379 Y408.5778 Z-11.5000 I-1.0574 J-1.0574 F1200.00
G2 X-134.9621 Y411.4222 Z-11.5000 I-0.4621 J1.4222 F1200.00
G2 X-133.4426 Y411.0574 Z-11.5000 I0.4621 J-1.4222 F1200.00
G1 X-133.4426 Y411.0574 Z-12.0000 F600.00
G2 X-134.0379 Y408.5778 Z-12.0000 I-1.0574 J-1.0574 F1200.00
G2 X-134.9621 Y411.4222 Z-12.0000 I-0.4621 J1.4222 F1200.00
G2 X-133.4426 Y411.0574 Z-12.0000 I0.4621 J-1.4222 F1200.00
G0 Z5.0000
G0 X-153.4426 Y351.0574
G0 Z3.0000
G1 X-153.4426 Y351.0574 Z-0.5000 F600.00
G2 X-154.0379 Y348.5778 Z-0.5000 I-1.0574 J-1.0574 F1200.00
G2 X-154.9621 Y351.4222 Z-0.5000 I-0.4621 J1.4222 F1200.00
G2 X-153.4426 Y351.0574 Z-0.5000 I0.4621 J-1.4222 F1200.00
G1 X-153.4426 Y351.0574 Z-1.0000 F600.00
G2 X-154.0379 Y348.5778 Z-1.0000 I-1.0574 J-1.0574 F1200.00
G2 X-154.9621 Y351.4222 Z-1.0000 I-0.4621 J1.4222 F1200.00
G2 X-153.4426 Y351.0574 Z-1.0000 I0.4621 J-1.4222 F1200.00
G1 X-153.4426 Y351.0574 Z-1.5000 F600.00
G2 X-154.0379 Y348.5778 Z-1.5000 I-1.0574 J-1.0574 F1200.00
G2 X-154.9621 Y351.4222 Z-1.5000 I-0.4621 J1.4222 F1200.00
G2 X-153.4426 Y351.0574 Z-1.5000 I0.4621 J-1.4222 F1200.00
G1 X-153.4426 Y351.0574 Z-2.0000 F600.00
G2 X-154.0379 Y348.5778 Z-2.0000 I-1.0574 J-1.0574 F1200.00
G2 X-154.9621 Y351.4222 Z-2.0000 I-0.4621 J1.4222 F1200.00
G2 X-153.4426 Y351.0574 Z-2.0000 I0.4621 J-1.4222 F1200.00
G1 X-153.4426 Y351.0574 Z-2.5000 F600.00
G2 X-154.0379 Y348.5778 Z-2.5000 I-1.0574 J-1.0574 F1200.00
G2 X-154.9621 Y351.4222 Z-2.5000 I-0.4621 J1.4222 F1200.00
G2 X-153.4426 Y351.0574 Z-2.5000 I0.4621 J-1.4222 F1200.00
G1 X-153.4426 Y351.0574 Z-3.0000 F600.00
G2 X-154.0379 Y348.5778 Z-3.0000 I-1.0574 J-1.0574 F1200.00
G2 X-154.9621 Y351.4222 Z-3.0000 I-0.4621 J1.4222 F1200.00
G2 X-153.4426 Y351.0574 Z-3.0000 I0.4621 J-1.4222 F1200.00
G1 X-153.4426 Y351.0574 Z-3.5000 F600.00
G2 X-154.0379 Y348.5778 Z-3.5000 I-1.0574 J-1.0574 F1200.00
G2 X-154.9621 Y351.4222 Z-3.5000 I-0.4621 J1.4222 F1200.00
G2 X-153.4426 Y351.0574 Z-3.5000 I0.4621 J-1.4222 F1200.00
G1 X-153.4426 Y351.0574 Z-4.0000 F600.00
G2 X-154.0379 Y348.5778 Z-4.0000 I-1.0574 J-1.0574 F1200.00
G2 X-154.9621 Y351.4222 Z-4.0000 I-0.4621 J1.4222 F1200.00
G2 X-153.4426 Y351.0574 Z-4.0000 I0.4621 J-1.4222 F1200.00
G1 X-153.4426 Y351.0574 Z-4.5000 F600.00
G2 X-154.0379 Y348.5778 Z-4.5000 I-1.0574 J-1.0574 F1200.00
G2 X-154.9621 Y351.4222 Z-4.5000 I-0.4621 J1.4222 F1200.00
G2 X-153.4426 Y351.0574 Z-4.5000 I0.4621 J-1.4222 F1200.00
G1 X-153.4426 Y351.0574 Z-5.0000 F600.00
G2 X-154.0379 Y348.5778 Z-5.0000 I-1.0574 J-1.0574 F1200.00
G2 X-154.9621 Y351.4222 Z-5.0000 I-0.4621 J1.4222 F1200.00
G2 X-153.4426 Y351.0574 Z-5.0000 I0.4621 J-1.4222 F1200.00
G1 X-153.4426 Y351.0574 Z-5.5000 F600.00
G2 X-154.0379 Y348.5778 Z-5.5000 I-1.0574 J-1.0574 F1200.00
G2 X-154.9621 Y351.4222 Z-5.5000 I-0.4621 J1.4222 F1200.00
G2 X-153.4426 Y351.0574 Z-5.5000 I0.4621 J-1.4222 F1200.00
G1 X-153.4426 Y351.0574 Z-6.0000 F600.00
G2 X-154.0379 Y348.5778 Z-6.0000 I-1.0574 J-1.0574 F1200.00
G2 X-154.9621 Y351.4222 Z-6.0000 I-0.4621 J1.4222 F1200.00
G2 X-153.4426 Y351.0574 Z-6.0000 I0.4621 J-1.4222 F1200.00
G1 X-153.4426 Y351.0574 Z-6.5000 F600.00
G2 X-154.0379 Y348.5778 Z-6.5000 I-1.0574 J-1.0574 F1200.00
G2 X-154.9621 Y351.4222 Z-6.5000 I-0.4621 J1.4222 F1200.00
G2 X-153.4426 Y351.0574 Z-6.5000 I0.4621 J-1.4222 F1200.00
G1 X-153.4426 Y351.0574 Z-7.0000 F600.00
G2 X-154.0379 Y348.5778 Z-7.0000 I-1.0574 J-1.0574 F1200.00
G2 X-154.9621 Y351.4222 Z-7.0000 I-0.4621 J1.4222 F1200.00
G2 X-153.4426 Y351.0574 Z-7.0000 I0.4621 J-1.4222 F1200.00
G1 X-153.4426 Y351.0574 Z-7.5000 F600.00
G2 X-154.0379 Y348.5778 Z-7.5000 I-1.0574 J-1.0574 F1200.00
G2 X-154.9621 Y351.4222 Z-7.5000 I-0.4621 J1.4222 F1200.00
G2 X-153.4426 Y351.0574 Z-7.5000 I0.4621 J-1.4222 F1200.00
G1 X-153.4426 Y351.0574 Z-8.0000 F600.00
G2 X-154.0379 Y348.5778 Z-8.0000 I-1.0574 J-1.0574 F1200.00
G2 X-154.9621 Y351.4222 Z-8.0000 I-0.4621 J1.4222 F1200.00
G2 X-153.4426 Y351.0574 Z-8.0000 I0.4621 J-1.4222 F1200.00
G1 X-153.4426 Y351.0574 Z-8.5000 F600.00
G2 X-154.0379 Y348.5778 Z-8.5000 I-1.0574 J-1.0574 F1200.00
G2 X-154.9621 Y351.4222 Z-8.5000 I-0.4621 J1.4222 F1200.00
G2 X-153.4426 Y351.0574 Z-8.5000 I0.4621 J-1.4222 F1200.00
G1 X-153.4426 Y351.0574 Z-9.0000 F600.00
G2 X-154.0379 Y348.5778 Z-9.0000 I-1.0574 J-1.0574 F1200.00
G2 X-154.9621 Y351.4222 Z-9.0000 I-0.4621 J1.4222 F1200.00
G2 X-153.4426 Y351.0574 Z-9.0000 I0.4621 J-1.4222 F1200.00
G1 X-153.4426 Y351.0574 Z-9.5000 F600.00
G2 X-154.0379 Y348.5778 Z-9.5000 I-1.0574 J-1.0574 F1200.00
G2 X-154.9621 Y351.4222 Z-9.5000 I-0.4621 J1.4222 F1200.00
G2 X-153.4426 Y351.0574 Z-9.5000 I0.4621 J-1.4222 F1200.00
G1 X-153.4426 Y351.0574 Z-10.0000 F600.00
G2 X-154.0379 Y348.5778 Z-10.0000 I-1.0574 J-1.0574 F1200.00
G2 X-154.9621 Y351.4222 Z-10.0000 I-0.4621 J1.4222 F1200.00
G2 X-153.4426 Y351.0574 Z-10.0000 I0.4621 J-1.4222 F1200.00
G1 X-153.4426 Y351.0574 Z-10.5000 F600.00
G2 X-154.0379 Y348.5778 Z-10.5000 I-1.0574 J-1.0574 F1200.00
G2 X-154.9621 Y351.4222 Z-10.5000 I-0.4621 J1.4222 F1200.00
G2 X-153.4426 Y351.0574 Z-10.5000 I0.4621 J-1.4222 F1200.00
G1 X-153.4426 Y351.0574 Z-11.0000 F600.00
G2 X-154.0379 Y348.5778 Z-11.0000 I-1.0574 J-1.0574 F1200.00
G2 X-154.9621 Y351.4222 Z-11.0000 I-0.4621 J1.4222 F1200.00
G2 X-153.4426 Y351.0574 Z-11.0000 I0.4621 J-1.4222 F1200.00
G1 X-153.4426 Y351.0574 Z-11.5000 F600.00
G2 X-154.0379 Y348.5778 Z-11.5000 I-1.0574 J-1.0574 F1200.00
G2 X-154.9621 Y351.4222 Z-11.5000 I-0.4621 J1.4222 F1200.00
G2 X-153.4426 Y351.0574 Z-11.5000 I0.4621 J-1.4222 F1200.00
G1 X-153.4426 Y351.0574 Z-12.0000 F600.00
G2 X-154.0379 Y348.5778 Z-12.0000 I-1.0574 J-1.0574 F1200.00
G2 X-154.9621 Y351.4222 Z-12.0000 I-0.4621 J1.4222 F1200.00
G2 X-153.4426 Y351.0574 Z-12.0000 I0.4621 J-1.4222 F1200.00
G0 Z5.0000
G0 X-173.4426 Y291.0574
G0 Z3.0000
G1 X-173.4426 Y291.0574 Z-0.5000 F600.00
G2 X-174.0379 Y288.5778 Z-0.5000 I-1.0574 J-1.0574 F1200.00
G2 X-174.9621 Y291.4222 Z-0.5000 I-0.4621 J1.4222 F1200.00
G2 X-173.4426 Y291.0574 Z-0.5000 I0.4621 J-1.4222 F1200.00
G1 X-173.4426 Y291.0574 Z-1.0000 F600.00
G2 X-174.0379 Y288.5778 Z-1.0000 I-1.0574 J-1.0574 F1200.00
G2 X-174.9621 Y291.4222 Z-1.0000 I-0.4621 J1.4222 F1200.00
G2 X-173.4426 Y291.0574 Z-1.0000 I0.4621 J-1.4222 F1200.00
G1 X-173.4426 Y291.0574 Z-1.5000 F600.00
G2 X-174.0379 Y288.5778 Z-1.5000 I-1.0574 J-1.0574 F1200.00
G2 X-174.9621 Y291.4222 Z-1.5000 I-0.4621 J1.4222 F1200.00
G2 X-173.4426 Y291.0574 Z-1.5000 I0.4621 J-1.4222 F1200.00
G1 X-173.4426 Y291.0574 Z-2.0000 F600.00
G2 X-174.0379 Y288.5778 Z-2.0000 I-1.0574 J-1.0574 F1200.00
G2 X-174.9621 Y291.4222 Z-2.0000 I-0.4621 J1.4222 F1200.00
G2 X-173.4426 Y291.0574 Z-2.0000 I0.4621 J-1.4222 F1200.00
G1 X-173.4426 Y291.0574 Z-2.5000 F600.00
G2 X-174.0379 Y288.5778 Z-2.5000 I-1.0574 J-1.0574 F1200.00
G2 X-174.9621 Y291.4222 Z-2.5000 I-0.4621 J1.4222 F1200.00
G2 X-173.4426 Y291.0574 Z-2.5000 I0.4621 J-1.4222 F1200.00
G1 X-173.4426 Y291.0574 Z-3.0000 F600.00
G2 X-174.0379 Y288.5778 Z-3.0000 I-1.0574 J-1.0574 F1200.00
G2 X-174.9621 Y291.4222 Z-3.0000 I-0.4621 J1.4222 F1200.00
G2 X-173.4426 Y291.0574 Z-3.0000 I0.4621 J-1.4222 F1200.00
G1 X-173.4426 Y291.0574 Z-3.5000 F600.00
G2 X-174.0379 Y288.5778 Z-3.5000 I-1.0574 J-1.0574 F1200.00
G2 X-174.9621 Y291.4222 Z-3.5000 I-0.4621 J1.4222 F1200.00
G2 X-173.4426 Y291.0574 Z-3.5000 I0.4621 J-1.4222 F1200.00
G1 X-173.4426 Y291.0574 Z-4.0000 F600.00
G2 X-174.0379 Y288.5778 Z-4.0000 I-1.0574 J-1.0574 F1200.00
G2 X-174.9621 Y291.4222 Z-4.0000 I-0.4621 J1.4222 F1200.00
G2 X-173.4426 Y291.0574 Z-4.0000 I0.4621 J-1.4222 F1200.00
G1 X-173.4426 Y291.0574 Z-4.5000 F600.00
G2 X-174.0379 Y288.5778 Z-4.5000 I-1.0574 J-1.0574 F1200.00
G2 X-174.9621 Y291.4222 Z-4.5000 I-0.4621 J1.4222 F1200.00
G2 X-173.4426 Y291.0574 Z-4.5000 I0.4621 J-1.4222 F1200.00
G1 X-173.4426 Y291.0574 Z-5.0000 F600.00
G2 X-174.0379 Y288.5778 Z-5.0000 I-1.0574 J-1.0574 F1200.00
G2 X-174.9621 Y291.4222 Z-5.0000 I-0.4621 J1.4222 F1200.00
G2 X-173.4426 Y291.0574 Z-5.0000 I0.4621 J-1.4222 F1200.00
G1 X-173.4426 Y291.0574 Z-5.5000 F600.00
G2 X-174.0379 Y288.5778 Z-5.5000 I-1.0574 J-1.0574 F1200.00
G2 X-174.9621 Y291.4222 Z-5.5000 I-0.4621 J1.4222 F1200.00
G2 X-173.4426 Y291.0574 Z-5.5000 I0.4621 J-1.4222 F1200.00
G1 X-173.4426 Y291.0574 Z-6.0000 F600.00
G2 X-174.0379 Y288.5778 Z-6.0000 I-1.0574 J-1.0574 F1200.00
G2 X-174.9621 Y291.4222 Z-6.0000 I-0.4621 J1.4222 F1200.00
G2 X-173.4426 Y291.0574 Z-6.0000 I0.4621 J-1.4222 F1200.00
G1 X-173.4426 Y291.0574 Z-6.5000 F600.00
G2 X-174.0379 Y288.5778 Z-6.5000 I-1.0574 J-1.0574 F1200.00
G2 X-174.9621 Y291.4222 Z-6.5000 I-0.4621 J1.4222 F1200.00
G2 X-173.4426 Y291.0574 Z-6.5000 I0.4621 J-1.4222 F1200.00
G1 X-173.4426 Y291.0574 Z-7.0000 F600.00
G2 X-174.0379 Y288.5778 Z-7.0000 I-1.0574 J-1.0574 F1200.00
G2 X-174.9621 Y291.4222 Z-7.0000 I-0.4621 J1.4222 F1200.00
G2 X-173.4426 Y291.0574 Z-7.0000 I0.4621 J-1.4222 F1200.00
G1 X-173.4426 Y291.0574 Z-7.5000 F600.00
G2 X-174.0379 Y288.5778 Z-7.5000 I-1.0574 J-1.0574 F1200.00
G2 X-174.9621 Y291.4222 Z-7.5000 I-0.4621 J1.4222 F1200.00
G2 X-173.4426 Y291.0574 Z-7.5000 I0.4621 J-1.4222 F1200.00
G1 X-173.4426 Y291.0574 Z-8.0000 F600.00
G2 X-174.0379 Y288.5778 Z-8.0000 I-1.0574 J-1.0574 F1200.00
G2 X-174.9621 Y291.4222 Z-8.0000 I-0.4621 J1.4222 F1200.00
G2 X-173.4426 Y291.0574 Z-8.0000 I0.4621 J-1.4222 F1200.00
G1 X-173.4426 Y291.0574 Z-8.5000 F600.00
G2 X-174.0379 Y288.5778 Z-8.5000 I-1.0574 J-1.0574 F1200.00
G2 X-174.9621 Y291.4222 Z-8.5000 I-0.4621 J1.4222 F1200.00
G2 X-173.4426 Y291.0574 Z-8.5000 I0.4621 J-1.4222 F1200.00
G1 X-173.4426 Y291.0574 Z-9.0000 F600.00
G2 X-174.0379 Y288.5778 Z-9.0000 I-1.0574 J-1.0574 F1200.00
G2 X-174.9621 Y291.4222 Z-9.0000 I-0.4621 J1.4222 F1200.00
G2 X-173.4426 Y291.0574 Z-9.0000 I0.4621 J-1.4222 F1200.00
G1 X-173.4426 Y291.0574 Z-9.5000 F600.00
G2 X-174.0379 Y288.5778 Z-9.5000 I-1.0574 J-1.0574 F1200.00
G2 X-174.9621 Y291.4222 Z-9.5000 I-0.4621 J1.4222 F1200.00
G2 X-173.4426 Y291.0574 Z-9.5000 I0.4621 J-1.4222 F1200.00
G1 X-173.4426 Y291.0574 Z-10.0000 F600.00
G2 X-174.0379 Y288.5778 Z-10.0000 I-1.0574 J-1.0574 F1200.00
G2 X-174.9621 Y291.4222 Z-10.0000 I-0.4621 J1.4222 F1200.00
G2 X-173.4426 Y291.0574 Z-10.0000 I0.4621 J-1.4222 F1200.00
G1 X-173.4426 Y291.0574 Z-10.5000 F600.00
G2 X-174.0379 Y288.5778 Z-10.5000 I-1.0574 J-1.0574 F1200.00
G2 X-174.9621 Y291.4222 Z-10.5000 I-0.4621 J1.4222 F1200.00
G2 X-173.4426 Y291.0574 Z-10.5000 I0.4621 J-1.4222 F1200.00
G1 X-173.4426 Y291.0574 Z-11.0000 F600.00
G2 X-174.0379 Y288.5778 Z-11.0000 I-1.0574 J-1.0574 F1200.00
G2 X-174.9621 Y291.4222 Z-11.0000 I-0.4621 J1.4222 F1200.00
G2 X-173.4426 Y291.0574 Z-11.0000 I0.4621 J-1.4222 F1200.00
G1 X-173.4426 Y291.0574 Z-11.5000 F600.00
G2 X-174.0379 Y288.5778 Z-11.5000 I-1.0574 J-1.0574 F1200.00
G2 X-174.9621 Y291.4222 Z-11.5000 I-0.4621 J1.4222 F1200.00
G2 X-173.4426 Y291.0574 Z-11.5000 I0.4621 J-1.4222 F1200.00
G1 X-173.4426 Y291.0574 Z-12.0000 F600.00
G2 X-174.0379 Y288.5778 Z-12.0000 I-1.0574 J-1.0574 F1200.00
G2 X-174.9621 Y291.4222 Z-12.0000 I-0.4621 J1.4222 F1200.00
G2 X-173.4426 Y291.0574 Z-12.0000 I0.4621 J-1.4222 F1200.00
G0 Z5.0000
G0 X-173.4426 Y231.0574
G0 Z3.0000
G1 X-173.4426 Y231.0574 Z-0.5000 F600.00
G2 X-174.0379 Y228.5778 Z-0.5000 I-1.0574 J-1.0574 F1200.00
G2 X-174.9621 Y231.4222 Z-0.5000 I-0.4621 J1.4222 F1200.00
G2 X-173.4426 Y231.0574 Z-0.5000 I0.4621 J-1.4222 F1200.00
G1 X-173.4426 Y231.0574 Z-1.0000 F600.00
G2 X-174.0379 Y228.5778 Z-1.0000 I-1.0574 J-1.0574 F1200.00
G2 X-174.9621 Y231.4222 Z-1.0000 I-0.4621 J1.4222 F1200.00
G2 X-173.4426 Y231.0574 Z-1.0000 I0.4621 J-1.4222 F1200.00
G1 X-173.4426 Y231.0574 Z-1.5000 F600.00
G2 X-174.0379 Y228.5778 Z-1.5000 I-1.0574 J-1.0574 F1200.00
G2 X-174.9621 Y231.4222 Z-1.5000 I-0.4621 J1.4222 F1200.00
G2 X-173.4426 Y231.0574 Z-1.5000 I0.4621 J-1.4222 F1200.00
G1 X-173.4426 Y231.0574 Z-2.0000 F600.00
G2 X-174.0379 Y228.5778 Z-2.0000 I-1.0574 J-1.0574 F1200.00
G2 X-174.9621 Y231.4222 Z-2.0000 I-0.4621 J1.4222 F1200.00
G2 X-173.4426 Y231.0574 Z-2.0000 I0.4621 J-1.4222 F1200.00
G1 X-173.4426 Y231.0574 Z-2.5000 F600.00
G2 X-174.0379 Y228.5778 Z-2.5000 I-1.0574 J-1.0574 F1200.00
G2 X-174.9621 Y231.4222 Z-2.5000 I-0.4621 J1.4222 F1200.00
G2 X-173.4426 Y231.0574 Z-2.5000 I0.4621 J-1.4222 F1200.00
G1 X-173.4426 Y231.0574 Z-3.0000 F600.00
G2 X-174.0379 Y228.5778 Z-3.0000 I-1.0574 J-1.0574 F1200.00
G2 X-174.9621 Y231.4222 Z-3.0000 I-0.4621 J1.4222 F1200.00
G2 X-173.4426 Y231.0574 Z-3.0000 I0.4621 J-1.4222 F1200.00
G1 X-173.4426 Y231.0574 Z-3.5000 F600.00
G2 X-174.0379 Y228.5778 Z-3.5000 I-1.0574 J-1.0574 F1200.00
G2 X-174.9621 Y231.4222 Z-3.5000 I-0.4621 J1.4222 F1200.00
G2 X-173.4426 Y231.0574 Z-3.5000 I0.4621 J-1.4222 F1200.00
G1 X-173.4426 Y231.0574 Z-4.0000 F600.00
G2 X-174.0379 Y228.5778 Z-4.0000 I-1.0574 J-1.0574 F1200.00
G2 X-174.9621 Y231.4222 Z-4.0000 I-0.4621 J1.4222 F1200.00
G2 X-173.4426 Y231.0574 Z-4.0000 I0.4621 J-1.4222 F1200.00
G1 X-173.4426 Y231.0574 Z-4.5000 F600.00
G2 X-174.0379 Y228.5778 Z-4.5000 I-1.0574 J-1.0574 F1200.00
G2 X-174.9621 Y231.4222 Z-4.5000 I-0.4621 J1.4222 F1200.00
G2 X-173.4426 Y231.0574 Z-4.5000 I0.4621 J-1.4222 F1200.00
G1 X-173.4426 Y231.0574 Z-5.0000 F600.00
G2 X-174.0379 Y228.5778 Z-5.0000 I-1.0574 J-1.0574 F1200.00
G2 X-174.9621 Y231.4222 Z-5.0000 I-0.4621 J1.4222 F1200.00
G2 X-173.4426 Y231.0574 Z-5.0000 I0.4621 J-1.4222 F1200.00
G1 X-173.4426 Y231.0574 Z-5.5000 F600.00
G2 X-174.0379 Y228.5778 Z-5.5000 I-1.0574 J-1.0574 F1200.00
G2 X-174.9621 Y231.4222 Z-5.5000 I-0.4621 J1.4222 F1200.00
G2 X-173.4426 Y231.0574 Z-5.5000 I0.4621 J-1.4222 F1200.00
G1 X-173.4426 Y231.0574 Z-6.0000 F600.00
G2 X-174.0379 Y228.5778 Z-6.0000 I-1.0574 J-1.0574 F1200.00
G2 X-174.9621 Y231.4222 Z-6.0000 I-0.4621 J1.4222 F1200.00
G2 X-173.4426 Y231.0574 Z-6.0000 I0.4621 J-1.4222 F1200.00
G1 X-173.4426 Y231.0574 Z-6.5000 F600.00
G2 X-174.0379 Y228.5778 Z-6.5000 I-1.0574 J-1.0574 F1200.00
G2 X-174.9621 Y231.4222 Z-6.5000 I-0.4621 J1.4222 F1200.00
G2 X-173.4426 Y231.0574 Z-6.5000 I0.4621 J-1.4222 F1200.00
G1 X-173.4426 Y231.0574 Z-7.0000 F600.00
G2 X-174.0379 Y228.5778 Z-7.0000 I-1.0574 J-1.0574 F1200.00
G2 X-174.9621 Y231.4222 Z-7.0000 I-0.4621 J1.4222 F1200.00
G2 X-173.4426 Y231.0574 Z-7.0000 I0.4621 J-1.4222 F1200.00
G1 X-173.4426 Y231.0574 Z-7.5000 F600.00
G2 X-174.0379 Y228.5778 Z-7.5000 I-1.0574 J-1.0574 F1200.00
G2 X-174.9621 Y231.4222 Z-7.5000 I-0.4621 J1.4222 F1200.00
G2 X-173.4426 Y231.0574 Z-7.5000 I0.4621 J-1.4222 F1200.00
G1 X-173.4426 Y231.0574 Z-8.0000 F600.00
G2 X-174.0379 Y228.5778 Z-8.0000 I-1.0574 J-1.0574 F1200.00
G2 X-174.9621 Y231.4222 Z-8.0000 I-0.4621 J1.4222 F1200.00
G2 X-173.4426 Y231.0574 Z-8.0000 I0.4621 J-1.4222 F1200.00
G1 X-173.4426 Y231.0574 Z-8.5000 F600.00
G2 X-174.0379 Y228.5778 Z-8.5000 I-1.0574 J-1.0574 F1200.00
G2 X-174.9621 Y231.4222 Z-8.5000 I-0.4621 J1.4222 F1200.00
G2 X-173.4426 Y231.0574 Z-8.5000 I0.4621 J-1.4222 F1200.00
G1 X-173.4426 Y231.0574 Z-9.0000 F600.00
G2 X-174.0379 Y228.5778 Z-9.0000 I-1.0574 J-1.0574 F1200.00
G2 X-174.9621 Y231.4222 Z-9.0000 I-0.4621 J1.4222 F1200.00
G2 X-173.4426 Y231.0574 Z-9.0000 I0.4621 J-1.4222 F1200.00
G1 X-173.4426 Y231.0574 Z-9.5000 F600.00
G2 X-174.0379 Y228.5778 Z-9.5000 I-1.0574 J-1.0574 F1200.00
G2 X-174.9621 Y231.4222 Z-9.5000 I-0.4621 J1.4222 F1200.00
G2 X-173.4426 Y231.0574 Z-9.5000 I0.4621 J-1.4222 F1200.00
G1 X-173.4426 Y231.0574 Z-10.0000 F600.00
G2 X-174.0379 Y228.5778 Z-10.0000 I-1.0574 J-1.0574 F1200.00
G2 X-174.9621 Y231.4222 Z-10.0000 I-0.4621 J1.4222 F1200.00
G2 X-173.4426 Y231.0574 Z-10.0000 I0.4621 J-1.4222 F1200.00
G1 X-173.4426 Y231.0574 Z-10.5000 F600.00
G2 X-174.0379 Y228.5778 Z-10.5000 I-1.0574 J-1.0574 F1200.00
G2 X-174.9621 Y231.4222 Z-10.5000 I-0.4621 J1.4222 F1200.00
G2 X-173.4426 Y231.0574 Z-10.5000 I0.4621 J-1.4222 F1200.00
G1 X-173.4426 Y231.0574 Z-11.0000 F600.00
G2 X-174.0379 Y228.5778 Z-11.0000 I-1.0574 J-1.0574 F1200.00
G2 X-174.9621 Y231.4222 Z-11.0000 I-0.4621 J1.4222 F1200.00
G2 X-173.4426 Y231.0574 Z-11.0000 I0.4621 J-1.4222 F1200.00
G1 X-173.4426 Y231.0574 Z-11.5000 F600.00
G2 X-174.0379 Y228.5778 Z-11.5000 I-1.0574 J-1.0574 F1200.00
G2 X-174.9621 Y231.4222 Z-11.5000 I-0.4621 J1.4222 F1200.00
G2 X-173.4426 Y231.0574 Z-11.5000 I0.4621 J-1.4222 F1200.00
G1 X-173.4426 Y231.0574 Z-12.0000 F600.00
G2 X-174.0379 Y228.5778 Z-12.0000 I-1.0574 J-1.0574 F1200.00
G2 X-174.9621 Y231.4222 Z-12.0000 I-0.4621 J1.4222 F1200.00
G2 X-173.4426 Y231.0574 Z-12.0000 I0.4621 J-1.4222 F1200.00
G0 Z5.0000
G0 X-68.9426 Y1.0574
G0 Z3.0000
G1 X-68.9426 Y1.0574 Z-0.5000 F600.00
G2 X-69.5379 Y-1.4222 Z-0.5000 I-1.0574 J-1.0574 F1200.00
G2 X-70.4621 Y1.4222 Z-0.5000 I-0.4621 J1.4222 F1200.00
G2 X-68.9426 Y1.0574 Z-0.5000 I0.4621 J-1.4222 F1200.00
G1 X-68.9426 Y1.0574 Z-1.0000 F600.00
G2 X-69.5379 Y-1.4222 Z-1.0000 I-1.0574 J-1.0574 F1200.00
G2 X-70.4621 Y1.4222 Z-1.0000 I-0.4621 J1.4222 F1200.00
G2 X-68.9426 Y1.0574 Z-1.0000 I0.4621 J-1.4222 F1200.00
G1 X-68.9426 Y1.0574 Z-1.5000 F600.00
G2 X-69.5379 Y-1.4222 Z-1.5000 I-1.0574 J-1.0574 F1200.00
G2 X-70.4621 Y1.4222 Z-1.5000 I-0.4621 J1.4222 F1200.00
G2 X-68.9426 Y1.0574 Z-1.5000 I0.4621 J-1.4222 F1200.00
G1 X-68.9426 Y1.0574 Z-2.0000 F600.00
G2 X-69.5379 Y-1.4222 Z-2.0000 I-1.0574 J-1.0574 F1200.00
G2 X-70.4621 Y1.4222 Z-2.0000 I-0.4621 J1.4222 F1200.00
G2 X-68.9426 Y1.0574 Z-2.0000 I0.4621 J-1.4222 F1200.00
G1 X-68.9426 Y1.0574 Z-2.5000 F600.00
G2 X-69.5379 Y-1.4222 Z-2.5000 I-1.0574 J-1.0574 F1200.00
G2 X-70.4621 Y1.4222 Z-2.5000 I-0.4621 J1.4222 F1200.00
G2 X-68.9426 Y1.0574 Z-2.5000 I0.4621 J-1.4222 F1200.00
G1 X-68.9426 Y1.0574 Z-3.0000 F600.00
G2 X-69.5379 Y-1.4222 Z-3.0000 I-1.0574 J-1.0574 F1200.00
G2 X-70.4621 Y1.4222 Z-3.0000 I-0.4621 J1.4222 F1200.00
G2 X-68.9426 Y1.0574 Z-3.0000 I0.4621 J-1.4222 F1200.00
G1 X-68.9426 Y1.0574 Z-3.5000 F600.00
G2 X-69.5379 Y-1.4222 Z-3.5000 I-1.0574 J-1.0574 F1200.00
G2 X-70.4621 Y1.4222 Z-3.5000 I-0.4621 J1.4222 F1200.00
G2 X-68.9426 Y1.0574 Z-3.5000 I0.4621 J-1.4222 F1200.00
G1 X-68.9426 Y1.0574 Z-4.0000 F600.00
G2 X-69.5379 Y-1.4222 Z-4.0000 I-1.0574 J-1.0574 F1200.00
G2 X-70.4621 Y1.4222 Z-4.0000 I-0.4621 J1.4222 F1200.00
G2 X-68.9426 Y1.0574 Z-4.0000 I0.4621 J-1.4222 F1200.00
G1 X-68.9426 Y1.0574 Z-4.5000 F600.00
G2 X-69.5379 Y-1.4222 Z-4.5000 I-1.0574 J-1.0574 F1200.00
G2 X-70.4621 Y1.4222 Z-4.5000 I-0.4621 J1.4222 F1200.00
G2 X-68.9426 Y1.0574 Z-4.5000 I0.4621 J-1.4222 F1200.00
G1 X-68.9426 Y1.0574 Z-5.0000 F600.00
G2 X-69.5379 Y-1.4222 Z-5.0000 I-1.0574 J-1.0574 F1200.00
G2 X-70.4621 Y1.4222 Z-5.0000 I-0.4621 J1.4222 F1200.00
G2 X-68.9426 Y1.0574 Z-5.0000 I0.4621 J-1.4222 F1200.00
G1 X-68.9426 Y1.0574 Z-5.5000 F600.00
G2 X-69.5379 Y-1.4222 Z-5.5000 I-1.0574 J-1.0574 F1200.00
G2 X-70.4621 Y1.4222 Z-5.5000 I-0.4621 J1.4222 F1200.00
G2 X-68.9426 Y1.0574 Z-5.5000 I0.4621 J-1.4222 F1200.00
G1 X-68.9426 Y1.0574 Z-6.0000 F600.00
G2 X-69.5379 Y-1.4222 Z-6.0000 I-1.0574 J-1.0574 F1200.00
G2 X-70.4621 Y1.4222 Z-6.0000 I-0.4621 J1.4222 F1200.00
G2 X-68.9426 Y1.0574 Z-6.0000 I0.4621 J-1.4222 F1200.00
G1 X-68.9426 Y1.0574 Z-6.5000 F600.00
G2 X-69.5379 Y-1.4222 Z-6.5000 I-1.0574 J-1.0574 F1200.00
G2 X-70.4621 Y1.4222 Z-6.5000 I-0.4621 J1.4222 F1200.00
G2 X-68.9426 Y1.0574 Z-6.5000 I0.4621 J-1.4222 F1200.00
G1 X-68.9426 Y1.0574 Z-7.0000 F600.00
G2 X-69.5379 Y-1.4222 Z-7.0000 I-1.0574 J-1.0574 F1200.00
G2 X-70.4621 Y1.4222 Z-7.0000 I-0.4621 J1.4222 F1200.00
G2 X-68.9426 Y1.0574 Z-7.0000 I0.4621 J-1.4222 F1200.00
G1 X-68.9426 Y1.0574 Z-7.5000 F600.00
G2 X-69.5379 Y-1.4222 Z-7.5000 I-1.0574 J-1.0574 F1200.00
G2 X-70.4621 Y1.4222 Z-7.5000 I-0.4621 J1.4222 F1200.00
G2 X-68.9426 Y1.0574 Z-7.5000 I0.4621 J-1.4222 F1200.00
G1 X-68.9426 Y1.0574 Z-8.0000 F600.00
G2 X-69.5379 Y-1.4222 Z-8.0000 I-1.0574 J-1.0574 F1200.00
G2 X-70.4621 Y1.4222 Z-8.0000 I-0.4621 J1.4222 F1200.00
G2 X-68.9426 Y1.0574 Z-8.0000 I0.4621 J-1.4222 F1200.00
G1 X-68.9426 Y1.0574 Z-8.5000 F600.00
G2 X-69.5379 Y-1.4222 Z-8.5000 I-1.0574 J-1.0574 F1200.00
G2 X-70.4621 Y1.4222 Z-8.5000 I-0.4621 J1.4222 F1200.00
G2 X-68.9426 Y1.0574 Z-8.5000 I0.4621 J-1.4222 F1200.00
G1 X-68.9426 Y1.0574 Z-9.0000 F600.00
G2 X-69.5379 Y-1.4222 Z-9.0000 I-1.0574 J-1.0574 F1200.00
G2 X-70.4621 Y1.4222 Z-9.0000 I-0.4621 J1.4222 F1200.00
G2 X-68.9426 Y1.0574 Z-9.0000 I0.4621 J-1.4222 F1200.00
G1 X-68.9426 Y1.0574 Z-9.5000 F600.00
G2 X-69.5379 Y-1.4222 Z-9.5000 I-1.0574 J-1.0574 F1200.00
G2 X-70.4621 Y1.4222 Z-9.5000 I-0.4621 J1.4222 F1200.00
G2 X-68.9426 Y1.0574 Z-9.5000 I0.4621 J-1.4222 F1200.00
G1 X-68.9426 Y1.0574 Z-10.0000 F600.00
G2 X-69.5379 Y-1.4222 Z-10.0000 I-1.0574 J-1.0574 F1200.00
G2 X-70.4621 Y1.4222 Z-10.0000 I-0.4621 J1.4222 F1200.00
G2 X-68.9426 Y1.0574 Z-10.0000 I0.4621 J-1.4222 F1200.00
G1 X-68.9426 Y1.0574 Z-10.5000 F600.00
G2 X-69.5379 Y-1.4222 Z-10.5000 I-1.0574 J-1.0574 F1200.00
G2 X-70.4621 Y1.4222 Z-10.5000 I-0.4621 J1.4222 F1200.00
G2 X-68.9426 Y1.0574 Z-10.5000 I0.4621 J-1.4222 F1200.00
G1 X-68.9426 Y1.0574 Z-11.0000 F600.00
G2 X-69.5379 Y-1.4222 Z-11.0000 I-1.0574 J-1.0574 F1200.00
G2 X-70.4621 Y1.4222 Z-11.0000 I-0.4621 J1.4222 F1200.00
G2 X-68.9426 Y1.0574 Z-11.0000 I0.4621 J-1.4222 F1200.00
G1 X-68.9426 Y1.0574 Z-11.5000 F600.00
G2 X-69.5379 Y-1.4222 Z-11.5000 I-1.0574 J-1.0574 F1200.00
G2 X-70.4621 Y1.4222 Z-11.5000 I-0.4621 J1.4222 F1200.00
G2 X-68.9426 Y1.0574 Z-11.5000 I0.4621 J-1.4222 F1200.00
G1 X-68.9426 Y1.0574 Z-12.0000 F600.00
G2 X-69.5379 Y-1.4222 Z-12.0000 I-1.0574 J-1.0574 F1200.00
G2 X-70.4621 Y1.4222 Z-12.0000 I-0.4621 J1.4222 F1200.00
G2 X-68.9426 Y1.0574 Z-12.0000 I0.4621 J-1.4222 F1200.00
G0 Z5.0000
G0 X-208.9426 Y1.0574
G0 Z3.0000
G1 X-208.9426 Y1.0574 Z-0.5000 F600.00
G2 X-209.5379 Y-1.4222 Z-0.5000 I-1.0574 J-1.0574 F1200.00
G2 X-210.4621 Y1.4222 Z-0.5000 I-0.4621 J1.4222 F1200.00
G2 X-208.9426 Y1.0574 Z-0.5000 I0.4621 J-1.4222 F1200.00
G1 X-208.9426 Y1.0574 Z-1.0000 F600.00
G2 X-209.5379 Y-1.4222 Z-1.0000 I-1.0574 J-1.0574 F1200.00
