(Exported by FreeCAD)
(Post Processor: grbl_post)
(Output Time:2020-01-05 18:28:38.614935)
(begin preamble)
G17 G90
G21
(begin operation: T5: Flattener001)
(Path: T5: Flattener001)
(T5: Flattener001)
(begin toolchange)
; M6 T5
M3 S3000.0000
(finish operation: T5: Flattener001)
(begin operation: Pocket_Shape002)
(Path: Pocket_Shape002)
(Pocket_Shape002)
G0 Z5.0000
G0 X249.9909 Y509.9909
G0 Z3.0000
G1 X249.9909 Y509.9909 Z-0.5000 F600.00
G1 X250.0000 Y509.7818 Z-0.5000 F1800.00
G1 X250.0000 Y20.2182 Z-0.5000 F1800.00
G1 X249.9909 Y20.0091 Z-0.5000 F1800.00
G1 X249.7818 Y20.0000 Z-0.5000 F1800.00
G1 X-249.7818 Y20.0000 Z-0.5000 F1800.00
G1 X-249.9909 Y20.0091 Z-0.5000 F1800.00
G1 X-250.0000 Y20.2182 Z-0.5000 F1800.00
G1 X-250.0000 Y509.7818 Z-0.5000 F1800.00
G1 X-249.9909 Y509.9909 Z-0.5000 F1800.00
G1 X-249.7818 Y510.0000 Z-0.5000 F1800.00
G1 X249.7818 Y510.0000 Z-0.5000 F1800.00
G1 X249.9909 Y509.9909 Z-0.5000 F1800.00
G0 X249.9909 Y509.9909 Z5.0000
G0 X240.0000 Y500.0000 Z5.0000
G0 X240.0000 Y500.0000 Z2.5000
G1 X240.0000 Y500.0000 Z-0.5000 F600.00
G1 X240.0000 Y30.0000 Z-0.5000 F1800.00
G1 X-240.0000 Y30.0000 Z-0.5000 F1800.00
G1 X-240.0000 Y500.0000 Z-0.5000 F1800.00
G1 X240.0000 Y500.0000 Z-0.5000 F1800.00
G0 X240.0000 Y500.0000 Z5.0000
G0 X230.0000 Y490.0000 Z5.0000
G0 X230.0000 Y490.0000 Z2.5000
G1 X230.0000 Y490.0000 Z-0.5000 F600.00
G1 X230.0000 Y40.0000 Z-0.5000 F1800.00
G1 X-230.0000 Y40.0000 Z-0.5000 F1800.00
G1 X-230.0000 Y490.0000 Z-0.5000 F1800.00
G1 X230.0000 Y490.0000 Z-0.5000 F1800.00
G0 X230.0000 Y490.0000 Z5.0000
G0 X220.0000 Y480.0000 Z5.0000
G0 X220.0000 Y480.0000 Z2.5000
G1 X220.0000 Y480.0000 Z-0.5000 F600.00
G1 X220.0000 Y50.0000 Z-0.5000 F1800.00
G1 X-220.0000 Y50.0000 Z-0.5000 F1800.00
G1 X-220.0000 Y480.0000 Z-0.5000 F1800.00
G1 X220.0000 Y480.0000 Z-0.5000 F1800.00
G0 X220.0000 Y480.0000 Z5.0000
G0 X210.0000 Y470.0000 Z5.0000
G0 X210.0000 Y470.0000 Z2.5000
G1 X210.0000 Y470.0000 Z-0.5000 F600.00
G1 X210.0000 Y60.0000 Z-0.5000 F1800.00
G1 X-210.0000 Y60.0000 Z-0.5000 F1800.00
G1 X-210.0000 Y470.0000 Z-0.5000 F1800.00
G1 X210.0000 Y470.0000 Z-0.5000 F1800.00
G0 X210.0000 Y470.0000 Z5.0000
G0 X200.0000 Y460.0000 Z5.0000
G0 X200.0000 Y460.0000 Z2.5000
G1 X200.0000 Y460.0000 Z-0.5000 F600.00
G1 X200.0000 Y70.0000 Z-0.5000 F1800.00
G1 X-200.0000 Y70.0000 Z-0.5000 F1800.00
G1 X-200.0000 Y460.0000 Z-0.5000 F1800.00
G1 X200.0000 Y460.0000 Z-0.5000 F1800.00
G0 X200.0000 Y460.0000 Z5.0000
G0 X190.0000 Y450.0000 Z5.0000
G0 X190.0000 Y450.0000 Z2.5000
G1 X190.0000 Y450.0000 Z-0.5000 F600.00
G1 X190.0000 Y80.0000 Z-0.5000 F1800.00
G1 X-190.0000 Y80.0000 Z-0.5000 F1800.00
G1 X-190.0000 Y450.0000 Z-0.5000 F1800.00
G1 X190.0000 Y450.0000 Z-0.5000 F1800.00
G0 X190.0000 Y450.0000 Z5.0000
G0 X180.0000 Y440.0000 Z5.0000
G0 X180.0000 Y440.0000 Z2.5000
G1 X180.0000 Y440.0000 Z-0.5000 F600.00
G1 X180.0000 Y90.0000 Z-0.5000 F1800.00
G1 X-180.0000 Y90.0000 Z-0.5000 F1800.00
G1 X-180.0000 Y440.0000 Z-0.5000 F1800.00
G1 X180.0000 Y440.0000 Z-0.5000 F1800.00
G0 X180.0000 Y440.0000 Z5.0000
G0 X170.0000 Y430.0000 Z5.0000
G0 X170.0000 Y430.0000 Z2.5000
G1 X170.0000 Y430.0000 Z-0.5000 F600.00
G1 X170.0000 Y100.0000 Z-0.5000 F1800.00
G1 X-170.0000 Y100.0000 Z-0.5000 F1800.00
G1 X-170.0000 Y430.0000 Z-0.5000 F1800.00
G1 X170.0000 Y430.0000 Z-0.5000 F1800.00
G0 X170.0000 Y430.0000 Z5.0000
G0 X160.0000 Y420.0000 Z5.0000
G0 X160.0000 Y420.0000 Z2.5000
G1 X160.0000 Y420.0000 Z-0.5000 F600.00
G1 X160.0000 Y110.0000 Z-0.5000 F1800.00
G1 X-160.0000 Y110.0000 Z-0.5000 F1800.00
G1 X-160.0000 Y420.0000 Z-0.5000 F1800.00
G1 X160.0000 Y420.0000 Z-0.5000 F1800.00
G0 X160.0000 Y420.0000 Z5.0000
G0 X150.0000 Y410.0000 Z5.0000
G0 X150.0000 Y410.0000 Z2.5000
G1 X150.0000 Y410.0000 Z-0.5000 F600.00
G1 X150.0000 Y120.0000 Z-0.5000 F1800.00
G1 X-150.0000 Y120.0000 Z-0.5000 F1800.00
G1 X-150.0000 Y410.0000 Z-0.5000 F1800.00
G1 X150.0000 Y410.0000 Z-0.5000 F1800.00
G0 X150.0000 Y410.0000 Z5.0000
G0 X140.0000 Y400.0000 Z5.0000
G0 X140.0000 Y400.0000 Z2.5000
G1 X140.0000 Y400.0000 Z-0.5000 F600.00
G1 X140.0000 Y130.0000 Z-0.5000 F1800.00
G1 X-140.0000 Y130.0000 Z-0.5000 F1800.00
G1 X-140.0000 Y400.0000 Z-0.5000 F1800.00
G1 X140.0000 Y400.0000 Z-0.5000 F1800.00
G0 X140.0000 Y400.0000 Z5.0000
G0 X130.0000 Y390.0000 Z5.0000
G0 X130.0000 Y390.0000 Z2.5000
G1 X130.0000 Y390.0000 Z-0.5000 F600.00
G1 X130.0000 Y140.0000 Z-0.5000 F1800.00
G1 X-130.0000 Y140.0000 Z-0.5000 F1800.00
G1 X-130.0000 Y390.0000 Z-0.5000 F1800.00
G1 X130.0000 Y390.0000 Z-0.5000 F1800.00
G0 X130.0000 Y390.0000 Z5.0000
G0 X120.0000 Y380.0000 Z5.0000
G0 X120.0000 Y380.0000 Z2.5000
G1 X120.0000 Y380.0000 Z-0.5000 F600.00
G1 X120.0000 Y150.0000 Z-0.5000 F1800.00
G1 X-120.0000 Y150.0000 Z-0.5000 F1800.00
G1 X-120.0000 Y380.0000 Z-0.5000 F1800.00
G1 X120.0000 Y380.0000 Z-0.5000 F1800.00
G0 X120.0000 Y380.0000 Z5.0000
G0 X110.0000 Y370.0000 Z5.0000
G0 X110.0000 Y370.0000 Z2.5000
G1 X110.0000 Y370.0000 Z-0.5000 F600.00
G1 X110.0000 Y160.0000 Z-0.5000 F1800.00
G1 X-110.0000 Y160.0000 Z-0.5000 F1800.00
G1 X-110.0000 Y370.0000 Z-0.5000 F1800.00
G1 X110.0000 Y370.0000 Z-0.5000 F1800.00
G0 X110.0000 Y370.0000 Z5.0000
G0 X100.0000 Y360.0000 Z5.0000
G0 X100.0000 Y360.0000 Z2.5000
G1 X100.0000 Y360.0000 Z-0.5000 F600.00
G1 X100.0000 Y170.0000 Z-0.5000 F1800.00
G1 X-100.0000 Y170.0000 Z-0.5000 F1800.00
G1 X-100.0000 Y360.0000 Z-0.5000 F1800.00
G1 X100.0000 Y360.0000 Z-0.5000 F1800.00
G0 X100.0000 Y360.0000 Z5.0000
G0 X90.0000 Y350.0000 Z5.0000
G0 X90.0000 Y350.0000 Z2.5000
G1 X90.0000 Y350.0000 Z-0.5000 F600.00
G1 X90.0000 Y180.0000 Z-0.5000 F1800.00
G1 X-90.0000 Y180.0000 Z-0.5000 F1800.00
G1 X-90.0000 Y350.0000 Z-0.5000 F1800.00
G1 X90.0000 Y350.0000 Z-0.5000 F1800.00
G0 X90.0000 Y350.0000 Z5.0000
G0 X80.0000 Y340.0000 Z5.0000
G0 X80.0000 Y340.0000 Z2.5000
G1 X80.0000 Y340.0000 Z-0.5000 F600.00
G1 X80.0000 Y190.0000 Z-0.5000 F1800.00
G1 X-80.0000 Y190.0000 Z-0.5000 F1800.00
G1 X-80.0000 Y340.0000 Z-0.5000 F1800.00
G1 X80.0000 Y340.0000 Z-0.5000 F1800.00
G0 X80.0000 Y340.0000 Z5.0000
G0 X70.0000 Y330.0000 Z5.0000
G0 X70.0000 Y330.0000 Z2.5000
G1 X70.0000 Y330.0000 Z-0.5000 F600.00
G1 X70.0000 Y200.0000 Z-0.5000 F1800.00
G1 X-70.0000 Y200.0000 Z-0.5000 F1800.00
G1 X-70.0000 Y330.0000 Z-0.5000 F1800.00
G1 X70.0000 Y330.0000 Z-0.5000 F1800.00
G0 X70.0000 Y330.0000 Z5.0000
G0 X60.0000 Y320.0000 Z5.0000
G0 X60.0000 Y320.0000 Z2.5000
G1 X60.0000 Y320.0000 Z-0.5000 F600.00
G1 X60.0000 Y210.0000 Z-0.5000 F1800.00
G1 X-60.0000 Y210.0000 Z-0.5000 F1800.00
G1 X-60.0000 Y320.0000 Z-0.5000 F1800.00
G1 X60.0000 Y320.0000 Z-0.5000 F1800.00
G0 X60.0000 Y320.0000 Z5.0000
G0 X50.0000 Y310.0000 Z5.0000
G0 X50.0000 Y310.0000 Z2.5000
G1 X50.0000 Y310.0000 Z-0.5000 F600.00
G1 X50.0000 Y220.0000 Z-0.5000 F1800.00
G1 X-50.0000 Y220.0000 Z-0.5000 F1800.00
G1 X-50.0000 Y310.0000 Z-0.5000 F1800.00
G1 X50.0000 Y310.0000 Z-0.5000 F1800.00
G0 X50.0000 Y310.0000 Z5.0000
G0 X40.0000 Y300.0000 Z5.0000
G0 X40.0000 Y300.0000 Z2.5000
G1 X40.0000 Y300.0000 Z-0.5000 F600.00
G1 X40.0000 Y230.0000 Z-0.5000 F1800.00
G1 X-40.0000 Y230.0000 Z-0.5000 F1800.00
G1 X-40.0000 Y300.0000 Z-0.5000 F1800.00
G1 X40.0000 Y300.0000 Z-0.5000 F1800.00
G0 X40.0000 Y300.0000 Z5.0000
G0 X30.0000 Y290.0000 Z5.0000
G0 X30.0000 Y290.0000 Z2.5000
G1 X30.0000 Y290.0000 Z-0.5000 F600.00
G1 X30.0000 Y240.0000 Z-0.5000 F1800.00
G1 X-30.0000 Y240.0000 Z-0.5000 F1800.00
G1 X-30.0000 Y290.0000 Z-0.5000 F1800.00
G1 X30.0000 Y290.0000 Z-0.5000 F1800.00
G0 X30.0000 Y290.0000 Z5.0000
G0 X20.0000 Y280.0000 Z5.0000
G0 X20.0000 Y280.0000 Z2.5000
G1 X20.0000 Y280.0000 Z-0.5000 F600.00
G1 X20.0000 Y250.0000 Z-0.5000 F1800.00
G1 X-20.0000 Y250.0000 Z-0.5000 F1800.00
G1 X-20.0000 Y280.0000 Z-0.5000 F1800.00
G1 X20.0000 Y280.0000 Z-0.5000 F1800.00
G0 X20.0000 Y280.0000 Z5.0000
G0 X10.0000 Y270.0000 Z5.0000
G0 X10.0000 Y270.0000 Z2.5000
G1 X10.0000 Y270.0000 Z-0.5000 F600.00
G1 X10.0000 Y260.0000 Z-0.5000 F1800.00
G1 X-10.0000 Y260.0000 Z-0.5000 F1800.00
G1 X-10.0000 Y270.0000 Z-0.5000 F1800.00
G1 X10.0000 Y270.0000 Z-0.5000 F1800.00
G0 Z5.0000
(finish operation: Pocket_Shape002)
(begin postamble)
M5
G17 G90
; M2
