(Exported by FreeCAD)
(Post Processor: grbl_post)
(Output Time:2020-03-08 22:08:49.263186)
(begin preamble)
G17 G90
G21
(begin operation: T4: 2FluteWoodMill)
(Path: T4: 2FluteWoodMill)
(T4: 2FluteWoodMill)
(begin toolchange)
; M6 T4
M3 S12000.0000
(finish operation: T4: 2FluteWoodMill)
(begin operation: TagDressup)
(Path: TagDressup)
G0 Z10.0000
G0 X10.0286 Y5.0286 Z10.0000
G0 X10.0286 Y5.0286 Z8.0000
G1 X10.0286 Y5.0286 Z4.8000 F999.60
G2 X9.9824 Y5.0365 Z4.8000 I-0.0286 J-0.0286 F1999.80
G3 X10.0176 Y4.9635 Z4.8000 I0.0176 J-0.0365 F1999.80
G3 X10.0286 Y5.0286 Z4.8000 I-0.0176 J0.0365 F1999.80
G1 X10.0286 Y5.0286 Z4.4000 F999.60
G2 X9.9824 Y5.0365 Z4.4000 I-0.0286 J-0.0286 F1999.80
G3 X10.0176 Y4.9635 Z4.4000 I0.0176 J-0.0365 F1999.80
G3 X10.0286 Y5.0286 Z4.4000 I-0.0176 J0.0365 F1999.80
G1 X10.0286 Y5.0286 Z4.0000 F999.60
G2 X9.9824 Y5.0365 Z4.0000 I-0.0286 J-0.0286 F1999.80
G3 X10.0176 Y4.9635 Z4.0000 I0.0176 J-0.0365 F1999.80
G3 X10.0286 Y5.0286 Z4.0000 I-0.0176 J0.0365 F1999.80
G1 X10.0286 Y5.0286 Z3.6000 F999.60
G2 X9.9824 Y5.0365 Z3.6000 I-0.0286 J-0.0286 F1999.80
G3 X10.0176 Y4.9635 Z3.6000 I0.0176 J-0.0365 F1999.80
G3 X10.0286 Y5.0286 Z3.6000 I-0.0176 J0.0365 F1999.80
G1 X10.0286 Y5.0286 Z3.2000 F999.60
G2 X9.9824 Y5.0365 Z3.2000 I-0.0286 J-0.0286 F1999.80
G3 X10.0176 Y4.9635 Z3.2000 I0.0176 J-0.0365 F1999.80
G3 X10.0286 Y5.0286 Z3.2000 I-0.0176 J0.0365 F1999.80
G1 X10.0286 Y5.0286 Z2.8000 F999.60
G2 X9.9824 Y5.0365 Z2.8000 I-0.0286 J-0.0286 F1999.80
G3 X10.0176 Y4.9635 Z2.8000 I0.0176 J-0.0365 F1999.80
G3 X10.0286 Y5.0286 Z2.8000 I-0.0176 J0.0365 F1999.80
G1 X10.0286 Y5.0286 Z2.4000 F999.60
G2 X9.9824 Y5.0365 Z2.4000 I-0.0286 J-0.0286 F1999.80
G3 X10.0176 Y4.9635 Z2.4000 I0.0176 J-0.0365 F1999.80
G3 X10.0286 Y5.0286 Z2.4000 I-0.0176 J0.0365 F1999.80
G1 X10.0286 Y5.0286 Z2.0000 F999.60
G2 X9.9824 Y5.0365 Z2.0000 I-0.0286 J-0.0286 F1999.80
G3 X10.0176 Y4.9635 Z2.0000 I0.0176 J-0.0365 F1999.80
G3 X10.0286 Y5.0286 Z2.0000 I-0.0176 J0.0365 F1999.80
G1 X10.0286 Y5.0286 Z1.6000 F999.60
G2 X9.9824 Y5.0365 Z1.6000 I-0.0286 J-0.0286 F1999.80
G3 X10.0176 Y4.9635 Z1.6000 I0.0176 J-0.0365 F1999.80
G3 X10.0286 Y5.0286 Z1.6000 I-0.0176 J0.0365 F1999.80
G1 X10.0286 Y5.0286 Z1.2000 F999.60
G2 X9.9824 Y5.0365 Z1.2000 I-0.0286 J-0.0286 F1999.80
G3 X10.0176 Y4.9635 Z1.2000 I0.0176 J-0.0365 F1999.80
G3 X10.0286 Y5.0286 Z1.2000 I-0.0176 J0.0365 F1999.80
G1 X10.0286 Y5.0286 Z0.8000 F999.60
G2 X9.9824 Y5.0365 Z0.8000 I-0.0286 J-0.0286 F1999.80
G3 X10.0176 Y4.9635 Z0.8000 I0.0176 J-0.0365 F1999.80
G3 X10.0286 Y5.0286 Z0.8000 I-0.0176 J0.0365 F1999.80
G1 X10.0286 Y5.0286 Z0.4000 F999.60
G2 X9.9824 Y5.0365 Z0.4000 I-0.0286 J-0.0286 F1999.80
G3 X10.0176 Y4.9635 Z0.4000 I0.0176 J-0.0365 F1999.80
G3 X10.0286 Y5.0286 Z0.4000 I-0.0176 J0.0365 F1999.80
G1 X10.0286 Y5.0286 Z0.0000 F999.60
G2 X9.9824 Y5.0365 Z0.0000 I-0.0286 J-0.0286 F1999.80
G3 X10.0176 Y4.9635 Z-0.0000 I0.0176 J-0.0365 F1999.80
G3 X10.0286 Y5.0286 Z-0.0000 I-0.0176 J0.0365 F1999.80
G1 X10.0286 Y5.0286 Z-0.2000 F999.60
G2 X9.9824 Y5.0365 Z-0.2000 I-0.0286 J-0.0286 F1999.80
G3 X10.0176 Y4.9635 Z-0.2000 I0.0176 J-0.0365 F1999.80
G3 X10.0286 Y5.0286 Z-0.2000 I-0.0176 J0.0365 F1999.80
G0 X10.0286 Y5.0286 Z10.0000
G0 X10.0286 Y65.0286 Z10.0000
G0 X10.0286 Y65.0286 Z8.0000
G1 X10.0286 Y65.0286 Z4.8000 F999.60
G2 X9.9824 Y65.0365 Z4.8000 I-0.0286 J-0.0286 F1999.80
G3 X10.0176 Y64.9635 Z4.8000 I0.0176 J-0.0365 F1999.80
G3 X10.0286 Y65.0286 Z4.8000 I-0.0176 J0.0365 F1999.80
G1 X10.0286 Y65.0286 Z4.4000 F999.60
G2 X9.9824 Y65.0365 Z4.4000 I-0.0286 J-0.0286 F1999.80
G3 X10.0176 Y64.9635 Z4.4000 I0.0176 J-0.0365 F1999.80
G3 X10.0286 Y65.0286 Z4.4000 I-0.0176 J0.0365 F1999.80
G1 X10.0286 Y65.0286 Z4.0000 F999.60
G2 X9.9824 Y65.0365 Z4.0000 I-0.0286 J-0.0286 F1999.80
G3 X10.0176 Y64.9635 Z4.0000 I0.0176 J-0.0365 F1999.80
G3 X10.0286 Y65.0286 Z4.0000 I-0.0176 J0.0365 F1999.80
G1 X10.0286 Y65.0286 Z3.6000 F999.60
G2 X9.9824 Y65.0365 Z3.6000 I-0.0286 J-0.0286 F1999.80
G3 X10.0176 Y64.9635 Z3.6000 I0.0176 J-0.0365 F1999.80
G3 X10.0286 Y65.0286 Z3.6000 I-0.0176 J0.0365 F1999.80
G1 X10.0286 Y65.0286 Z3.2000 F999.60
G2 X9.9824 Y65.0365 Z3.2000 I-0.0286 J-0.0286 F1999.80
G3 X10.0176 Y64.9635 Z3.2000 I0.0176 J-0.0365 F1999.80
G3 X10.0286 Y65.0286 Z3.2000 I-0.0176 J0.0365 F1999.80
G1 X10.0286 Y65.0286 Z2.8000 F999.60
G2 X9.9824 Y65.0365 Z2.8000 I-0.0286 J-0.0286 F1999.80
G3 X10.0176 Y64.9635 Z2.8000 I0.0176 J-0.0365 F1999.80
G3 X10.0286 Y65.0286 Z2.8000 I-0.0176 J0.0365 F1999.80
G1 X10.0286 Y65.0286 Z2.4000 F999.60
G2 X9.9824 Y65.0365 Z2.4000 I-0.0286 J-0.0286 F1999.80
G3 X10.0176 Y64.9635 Z2.4000 I0.0176 J-0.0365 F1999.80
G3 X10.0286 Y65.0286 Z2.4000 I-0.0176 J0.0365 F1999.80
G1 X10.0286 Y65.0286 Z2.0000 F999.60
G2 X9.9824 Y65.0365 Z2.0000 I-0.0286 J-0.0286 F1999.80
G3 X10.0176 Y64.9635 Z2.0000 I0.0176 J-0.0365 F1999.80
G3 X10.0286 Y65.0286 Z2.0000 I-0.0176 J0.0365 F1999.80
G1 X10.0286 Y65.0286 Z1.6000 F999.60
G2 X9.9824 Y65.0365 Z1.6000 I-0.0286 J-0.0286 F1999.80
G3 X10.0176 Y64.9635 Z1.6000 I0.0176 J-0.0365 F1999.80
G3 X10.0286 Y65.0286 Z1.6000 I-0.0176 J0.0365 F1999.80
G1 X10.0286 Y65.0286 Z1.2000 F999.60
G2 X9.9824 Y65.0365 Z1.2000 I-0.0286 J-0.0286 F1999.80
G3 X10.0176 Y64.9635 Z1.2000 I0.0176 J-0.0365 F1999.80
G3 X10.0286 Y65.0286 Z1.2000 I-0.0176 J0.0365 F1999.80
G1 X10.0286 Y65.0286 Z0.8000 F999.60
G2 X9.9824 Y65.0365 Z0.8000 I-0.0286 J-0.0286 F1999.80
G3 X10.0176 Y64.9635 Z0.8000 I0.0176 J-0.0365 F1999.80
G3 X10.0286 Y65.0286 Z0.8000 I-0.0176 J0.0365 F1999.80
G1 X10.0286 Y65.0286 Z0.4000 F999.60
G2 X9.9824 Y65.0365 Z0.4000 I-0.0286 J-0.0286 F1999.80
G3 X10.0176 Y64.9635 Z0.4000 I0.0176 J-0.0365 F1999.80
G3 X10.0286 Y65.0286 Z0.4000 I-0.0176 J0.0365 F1999.80
G1 X10.0286 Y65.0286 Z0.0000 F999.60
G2 X9.9824 Y65.0365 Z0.0000 I-0.0286 J-0.0286 F1999.80
G3 X10.0176 Y64.9635 Z0.0000 I0.0176 J-0.0365 F1999.80
G3 X10.0286 Y65.0286 Z0.0000 I-0.0176 J0.0365 F1999.80
G1 X10.0286 Y65.0286 Z-0.2000 F999.60
G2 X9.9824 Y65.0365 Z-0.2000 I-0.0286 J-0.0286 F1999.80
G3 X10.0176 Y64.9635 Z-0.2000 I0.0176 J-0.0365 F1999.80
G3 X10.0286 Y65.0286 Z-0.2000 I-0.0176 J0.0365 F1999.80
G0 X10.0286 Y65.0286 Z10.0000
G0 X75.0286 Y5.0286 Z10.0000
G0 X75.0286 Y5.0286 Z8.0000
G1 X75.0286 Y5.0286 Z4.8000 F999.60
G2 X74.9824 Y5.0365 Z4.8000 I-0.0286 J-0.0286 F1999.80
G3 X75.0176 Y4.9635 Z4.8000 I0.0176 J-0.0365 F1999.80
G3 X75.0286 Y5.0286 Z4.8000 I-0.0176 J0.0365 F1999.80
G1 X75.0286 Y5.0286 Z4.4000 F999.60
G2 X74.9824 Y5.0365 Z4.4000 I-0.0286 J-0.0286 F1999.80
G3 X75.0176 Y4.9635 Z4.4000 I0.0176 J-0.0365 F1999.80
G3 X75.0286 Y5.0286 Z4.4000 I-0.0176 J0.0365 F1999.80
G1 X75.0286 Y5.0286 Z4.0000 F999.60
G2 X74.9824 Y5.0365 Z4.0000 I-0.0286 J-0.0286 F1999.80
G3 X75.0176 Y4.9635 Z4.0000 I0.0176 J-0.0365 F1999.80
G3 X75.0286 Y5.0286 Z4.0000 I-0.0176 J0.0365 F1999.80
G1 X75.0286 Y5.0286 Z3.6000 F999.60
G2 X74.9824 Y5.0365 Z3.6000 I-0.0286 J-0.0286 F1999.80
G3 X75.0176 Y4.9635 Z3.6000 I0.0176 J-0.0365 F1999.80
G3 X75.0286 Y5.0286 Z3.6000 I-0.0176 J0.0365 F1999.80
G1 X75.0286 Y5.0286 Z3.2000 F999.60
G2 X74.9824 Y5.0365 Z3.2000 I-0.0286 J-0.0286 F1999.80
G3 X75.0176 Y4.9635 Z3.2000 I0.0176 J-0.0365 F1999.80
G3 X75.0286 Y5.0286 Z3.2000 I-0.0176 J0.0365 F1999.80
G1 X75.0286 Y5.0286 Z2.8000 F999.60
G2 X74.9824 Y5.0365 Z2.8000 I-0.0286 J-0.0286 F1999.80
G3 X75.0176 Y4.9635 Z2.8000 I0.0176 J-0.0365 F1999.80
G3 X75.0286 Y5.0286 Z2.8000 I-0.0176 J0.0365 F1999.80
G1 X75.0286 Y5.0286 Z2.4000 F999.60
G2 X74.9824 Y5.0365 Z2.4000 I-0.0286 J-0.0286 F1999.80
G3 X75.0176 Y4.9635 Z2.4000 I0.0176 J-0.0365 F1999.80
G3 X75.0286 Y5.0286 Z2.4000 I-0.0176 J0.0365 F1999.80
G1 X75.0286 Y5.0286 Z2.0000 F999.60
G2 X74.9824 Y5.0365 Z2.0000 I-0.0286 J-0.0286 F1999.80
G3 X75.0176 Y4.9635 Z2.0000 I0.0176 J-0.0365 F1999.80
G3 X75.0286 Y5.0286 Z2.0000 I-0.0176 J0.0365 F1999.80
G1 X75.0286 Y5.0286 Z1.6000 F999.60
G2 X74.9824 Y5.0365 Z1.6000 I-0.0286 J-0.0286 F1999.80
G3 X75.0176 Y4.9635 Z1.6000 I0.0176 J-0.0365 F1999.80
G3 X75.0286 Y5.0286 Z1.6000 I-0.0176 J0.0365 F1999.80
G1 X75.0286 Y5.0286 Z1.2000 F999.60
G2 X74.9824 Y5.0365 Z1.2000 I-0.0286 J-0.0286 F1999.80
G3 X75.0176 Y4.9635 Z1.2000 I0.0176 J-0.0365 F1999.80
G3 X75.0286 Y5.0286 Z1.2000 I-0.0176 J0.0365 F1999.80
G1 X75.0286 Y5.0286 Z0.8000 F999.60
G2 X74.9824 Y5.0365 Z0.8000 I-0.0286 J-0.0286 F1999.80
G3 X75.0176 Y4.9635 Z0.8000 I0.0176 J-0.0365 F1999.80
G3 X75.0286 Y5.0286 Z0.8000 I-0.0176 J0.0365 F1999.80
G1 X75.0286 Y5.0286 Z0.4000 F999.60
G2 X74.9824 Y5.0365 Z0.4000 I-0.0286 J-0.0286 F1999.80
G3 X75.0176 Y4.9635 Z0.4000 I0.0176 J-0.0365 F1999.80
G3 X75.0286 Y5.0286 Z0.4000 I-0.0176 J0.0365 F1999.80
G1 X75.0286 Y5.0286 Z0.0000 F999.60
G2 X74.9824 Y5.0365 Z0.0000 I-0.0286 J-0.0286 F1999.80
G3 X75.0176 Y4.9635 Z0.0000 I0.0176 J-0.0365 F1999.80
G3 X75.0286 Y5.0286 Z0.0000 I-0.0176 J0.0365 F1999.80
G1 X75.0286 Y5.0286 Z-0.2000 F999.60
G2 X74.9824 Y5.0365 Z-0.2000 I-0.0286 J-0.0286 F1999.80
G3 X75.0176 Y4.9635 Z-0.2000 I0.0176 J-0.0365 F1999.80
G3 X75.0286 Y5.0286 Z-0.2000 I-0.0176 J0.0365 F1999.80
G0 X75.0286 Y5.0286 Z10.0000
G0 X75.0286 Y65.0286 Z10.0000
G0 X75.0286 Y65.0286 Z8.0000
G1 X75.0286 Y65.0286 Z4.8000 F999.60
G2 X74.9824 Y65.0365 Z4.8000 I-0.0286 J-0.0286 F1999.80
G3 X75.0176 Y64.9635 Z4.8000 I0.0176 J-0.0365 F1999.80
G3 X75.0286 Y65.0286 Z4.8000 I-0.0176 J0.0365 F1999.80
G1 X75.0286 Y65.0286 Z4.4000 F999.60
G2 X74.9824 Y65.0365 Z4.4000 I-0.0286 J-0.0286 F1999.80
G3 X75.0176 Y64.9635 Z4.4000 I0.0176 J-0.0365 F1999.80
G3 X75.0286 Y65.0286 Z4.4000 I-0.0176 J0.0365 F1999.80
G1 X75.0286 Y65.0286 Z4.0000 F999.60
G2 X74.9824 Y65.0365 Z4.0000 I-0.0286 J-0.0286 F1999.80
G3 X75.0176 Y64.9635 Z4.0000 I0.0176 J-0.0365 F1999.80
G3 X75.0286 Y65.0286 Z4.0000 I-0.0176 J0.0365 F1999.80
G1 X75.0286 Y65.0286 Z3.6000 F999.60
G2 X74.9824 Y65.0365 Z3.6000 I-0.0286 J-0.0286 F1999.80
G3 X75.0176 Y64.9635 Z3.6000 I0.0176 J-0.0365 F1999.80
G3 X75.0286 Y65.0286 Z3.6000 I-0.0176 J0.0365 F1999.80
G1 X75.0286 Y65.0286 Z3.2000 F999.60
G2 X74.9824 Y65.0365 Z3.2000 I-0.0286 J-0.0286 F1999.80
G3 X75.0176 Y64.9635 Z3.2000 I0.0176 J-0.0365 F1999.80
G3 X75.0286 Y65.0286 Z3.2000 I-0.0176 J0.0365 F1999.80
G1 X75.0286 Y65.0286 Z2.8000 F999.60
G2 X74.9824 Y65.0365 Z2.8000 I-0.0286 J-0.0286 F1999.80
G3 X75.0176 Y64.9635 Z2.8000 I0.0176 J-0.0365 F1999.80
G3 X75.0286 Y65.0286 Z2.8000 I-0.0176 J0.0365 F1999.80
G1 X75.0286 Y65.0286 Z2.4000 F999.60
G2 X74.9824 Y65.0365 Z2.4000 I-0.0286 J-0.0286 F1999.80
G3 X75.0176 Y64.9635 Z2.4000 I0.0176 J-0.0365 F1999.80
G3 X75.0286 Y65.0286 Z2.4000 I-0.0176 J0.0365 F1999.80
G1 X75.0286 Y65.0286 Z2.0000 F999.60
G2 X74.9824 Y65.0365 Z2.0000 I-0.0286 J-0.0286 F1999.80
G3 X75.0176 Y64.9635 Z2.0000 I0.0176 J-0.0365 F1999.80
G3 X75.0286 Y65.0286 Z2.0000 I-0.0176 J0.0365 F1999.80
G1 X75.0286 Y65.0286 Z1.6000 F999.60
G2 X74.9824 Y65.0365 Z1.6000 I-0.0286 J-0.0286 F1999.80
G3 X75.0176 Y64.9635 Z1.6000 I0.0176 J-0.0365 F1999.80
G3 X75.0286 Y65.0286 Z1.6000 I-0.0176 J0.0365 F1999.80
G1 X75.0286 Y65.0286 Z1.2000 F999.60
G2 X74.9824 Y65.0365 Z1.2000 I-0.0286 J-0.0286 F1999.80
G3 X75.0176 Y64.9635 Z1.2000 I0.0176 J-0.0365 F1999.80
G3 X75.0286 Y65.0286 Z1.2000 I-0.0176 J0.0365 F1999.80
G1 X75.0286 Y65.0286 Z0.8000 F999.60
G2 X74.9824 Y65.0365 Z0.8000 I-0.0286 J-0.0286 F1999.80
G3 X75.0176 Y64.9635 Z0.8000 I0.0176 J-0.0365 F1999.80
G3 X75.0286 Y65.0286 Z0.8000 I-0.0176 J0.0365 F1999.80
G1 X75.0286 Y65.0286 Z0.4000 F999.60
G2 X74.9824 Y65.0365 Z0.4000 I-0.0286 J-0.0286 F1999.80
G3 X75.0176 Y64.9635 Z0.4000 I0.0176 J-0.0365 F1999.80
G3 X75.0286 Y65.0286 Z0.4000 I-0.0176 J0.0365 F1999.80
G1 X75.0286 Y65.0286 Z0.0000 F999.60
G2 X74.9824 Y65.0365 Z0.0000 I-0.0286 J-0.0286 F1999.80
G3 X75.0176 Y64.9635 Z0.0000 I0.0176 J-0.0365 F1999.80
G3 X75.0286 Y65.0286 Z0.0000 I-0.0176 J0.0365 F1999.80
G1 X75.0286 Y65.0286 Z-0.2000 F999.60
G2 X74.9824 Y65.0365 Z-0.2000 I-0.0286 J-0.0286 F1999.80
G3 X75.0176 Y64.9635 Z-0.2000 I0.0176 J-0.0365 F1999.80
G3 X75.0286 Y65.0286 Z-0.2000 I-0.0176 J0.0365 F1999.80
G0 X75.0286 Y65.0286 Z10.0000
G0 X86.0607 Y71.0607 Z10.0000
G0 X86.0607 Y71.0607 Z8.0000
G1 X86.0607 Y71.0607 Z4.8000 F999.60
G2 X86.5000 Y70.0000 Z4.8000 I-1.0607 J-1.0607 F1999.80
G1 X86.5000 Y0.0000 Z4.8000 F1999.80
G2 X85.0000 Y-1.5000 Z4.8000 I-1.5000 J0.0000 F1999.80
G1 X0.0000 Y-1.5000 Z4.8000 F1999.80
G2 X-1.5000 Y-0.0000 Z4.8000 I0.0000 J1.5000 F1999.80
G1 X-1.5000 Y70.0000 Z4.8000 F1999.80
G2 X0.0000 Y71.5000 Z4.8000 I1.5000 J-0.0000 F1999.80
G1 X85.0000 Y71.5000 Z4.8000 F1999.80
G2 X86.0607 Y71.0607 Z4.8000 I-0.0000 J-1.5000 F1999.80
G1 X86.0607 Y71.0607 Z4.4000 F999.60
G2 X86.5000 Y70.0000 Z4.4000 I-1.0607 J-1.0607 F1999.80
G1 X86.5000 Y0.0000 Z4.4000 F1999.80
G2 X85.0000 Y-1.5000 Z4.4000 I-1.5000 J0.0000 F1999.80
G1 X0.0000 Y-1.5000 Z4.4000 F1999.80
G2 X-1.5000 Y-0.0000 Z4.4000 I0.0000 J1.5000 F1999.80
G1 X-1.5000 Y70.0000 Z4.4000 F1999.80
G2 X0.0000 Y71.5000 Z4.4000 I1.5000 J-0.0000 F1999.80
G1 X85.0000 Y71.5000 Z4.4000 F1999.80
G2 X86.0607 Y71.0607 Z4.4000 I-0.0000 J-1.5000 F1999.80
G1 X86.0607 Y71.0607 Z4.0000 F999.60
G2 X86.5000 Y70.0000 Z4.0000 I-1.0607 J-1.0607 F1999.80
G1 X86.5000 Y0.0000 Z4.0000 F1999.80
G2 X85.0000 Y-1.5000 Z4.0000 I-1.5000 J0.0000 F1999.80
G1 X0.0000 Y-1.5000 Z4.0000 F1999.80
G2 X-1.5000 Y-0.0000 Z4.0000 I0.0000 J1.5000 F1999.80
G1 X-1.5000 Y70.0000 Z4.0000 F1999.80
G2 X0.0000 Y71.5000 Z4.0000 I1.5000 J-0.0000 F1999.80
G1 X85.0000 Y71.5000 Z4.0000 F1999.80
G2 X86.0607 Y71.0607 Z4.0000 I-0.0000 J-1.5000 F1999.80
G1 X86.0607 Y71.0607 Z3.6000 F999.60
G2 X86.5000 Y70.0000 Z3.6000 I-1.0607 J-1.0607 F1999.80
G1 X86.5000 Y0.0000 Z3.6000 F1999.80
G2 X85.0000 Y-1.5000 Z3.6000 I-1.5000 J0.0000 F1999.80
G1 X0.0000 Y-1.5000 Z3.6000 F1999.80
G2 X-1.5000 Y-0.0000 Z3.6000 I0.0000 J1.5000 F1999.80
G1 X-1.5000 Y70.0000 Z3.6000 F1999.80
G2 X0.0000 Y71.5000 Z3.6000 I1.5000 J-0.0000 F1999.80
G1 X85.0000 Y71.5000 Z3.6000 F1999.80
G2 X86.0607 Y71.0607 Z3.6000 I-0.0000 J-1.5000 F1999.80
G1 X86.0607 Y71.0607 Z3.2000 F999.60
G2 X86.5000 Y70.0000 Z3.2000 I-1.0607 J-1.0607 F1999.80
G1 X86.5000 Y0.0000 Z3.2000 F1999.80
G2 X85.0000 Y-1.5000 Z3.2000 I-1.5000 J0.0000 F1999.80
G1 X0.0000 Y-1.5000 Z3.2000 F1999.80
G2 X-1.5000 Y-0.0000 Z3.2000 I0.0000 J1.5000 F1999.80
G1 X-1.5000 Y70.0000 Z3.2000 F1999.80
G2 X0.0000 Y71.5000 Z3.2000 I1.5000 J-0.0000 F1999.80
G1 X85.0000 Y71.5000 Z3.2000 F1999.80
G2 X86.0607 Y71.0607 Z3.2000 I-0.0000 J-1.5000 F1999.80
G1 X86.0607 Y71.0607 Z2.8000 F999.60
G2 X86.5000 Y70.0000 Z2.8000 I-1.0607 J-1.0607 F1999.80
G1 X86.5000 Y0.0000 Z2.8000 F1999.80
G2 X85.0000 Y-1.5000 Z2.8000 I-1.5000 J0.0000 F1999.80
G1 X0.0000 Y-1.5000 Z2.8000 F1999.80
G2 X-1.5000 Y-0.0000 Z2.8000 I0.0000 J1.5000 F1999.80
G1 X-1.5000 Y70.0000 Z2.8000 F1999.80
G2 X0.0000 Y71.5000 Z2.8000 I1.5000 J-0.0000 F1999.80
G1 X85.0000 Y71.5000 Z2.8000 F1999.80
G2 X86.0607 Y71.0607 Z2.8000 I-0.0000 J-1.5000 F1999.80
G1 X86.0607 Y71.0607 Z2.4000 F999.60
G2 X86.5000 Y70.0000 Z2.4000 I-1.0607 J-1.0607 F1999.80
G1 X86.5000 Y0.0000 Z2.4000 F1999.80
G2 X85.0000 Y-1.5000 Z2.4000 I-1.5000 J0.0000 F1999.80
G1 X0.0000 Y-1.5000 Z2.4000 F1999.80
G2 X-1.5000 Y-0.0000 Z2.4000 I0.0000 J1.5000 F1999.80
G1 X-1.5000 Y70.0000 Z2.4000 F1999.80
G2 X0.0000 Y71.5000 Z2.4000 I1.5000 J-0.0000 F1999.80
G1 X85.0000 Y71.5000 Z2.4000 F1999.80
G2 X86.0607 Y71.0607 Z2.4000 I-0.0000 J-1.5000 F1999.80
G1 X86.0607 Y71.0607 Z2.0000 F999.60
G2 X86.5000 Y70.0000 Z2.0000 I-1.0607 J-1.0607 F1999.80
G1 X86.5000 Y0.0000 Z2.0000 F1999.80
G2 X85.0000 Y-1.5000 Z2.0000 I-1.5000 J0.0000 F1999.80
G1 X0.0000 Y-1.5000 Z2.0000 F1999.80
G2 X-1.5000 Y-0.0000 Z2.0000 I0.0000 J1.5000 F1999.80
G1 X-1.5000 Y70.0000 Z2.0000 F1999.80
G2 X0.0000 Y71.5000 Z2.0000 I1.5000 J-0.0000 F1999.80
G1 X85.0000 Y71.5000 Z2.0000 F1999.80
G2 X86.0607 Y71.0607 Z2.0000 I-0.0000 J-1.5000 F1999.80
G1 X86.0607 Y71.0607 Z1.6000 F999.60
G2 X86.5000 Y70.0000 Z1.6000 I-1.0607 J-1.0607 F1999.80
G1 X86.5000 Y57.8100 Z1.6000 F1999.80
G1 X86.5000 Y57.6100 Z1.8000 F1499.70
G1 X86.5000 Y55.6500 Z1.8000 F1999.80
G1 X86.5000 Y55.4500 Z1.6000 F1499.70
G1 X86.5000 Y13.9600 Z1.6000 F1999.80
G1 X86.5000 Y13.7600 Z1.8000 F1499.70
G1 X86.5000 Y11.8000 Z1.8000 F1999.80
G1 X86.5000 Y11.6000 Z1.6000 F1499.70
G1 X86.5000 Y0.0000 Z1.6000 F1999.80
G2 X85.0000 Y-1.5000 Z1.6000 I-1.5000 J0.0000 F1999.80
G1 X60.9300 Y-1.5000 Z1.6000 F1999.80
G1 X60.7300 Y-1.5000 Z1.8000 F1499.70
G1 X58.7700 Y-1.5000 Z1.8000 F1999.80
G1 X58.5700 Y-1.5000 Z1.6000 F1499.70
G1 X15.0400 Y-1.5000 Z1.6000 F1999.80
G1 X14.8400 Y-1.5000 Z1.8000 F1499.70
G1 X12.8800 Y-1.5000 Z1.8000 F1999.80
G1 X12.6800 Y-1.5000 Z1.6000 F1499.70
G1 X0.0000 Y-1.5000 Z1.6000 F1999.80
G2 X-1.5000 Y-0.0000 Z1.6000 I0.0000 J1.5000 F1999.80
G1 X-1.5000 Y8.1000 Z1.6000 F1999.80
G1 X-1.5000 Y8.3000 Z1.8000 F1499.70
G1 X-1.5000 Y10.2600 Z1.8000 F1999.80
G1 X-1.5000 Y10.4600 Z1.6000 F1499.70
G1 X-1.5000 Y59.7800 Z1.6000 F1999.80
G1 X-1.5000 Y59.9800 Z1.8000 F1499.70
G1 X-1.5000 Y61.9400 Z1.8000 F1999.80
G1 X-1.5000 Y62.1400 Z1.6000 F1499.70
G1 X-1.5000 Y70.0000 Z1.6000 F1999.80
G2 X0.0000 Y71.5000 Z1.6000 I1.5000 J-0.0000 F1999.80
G1 X13.6700 Y71.5000 Z1.6000 F1999.80
G1 X13.8700 Y71.5000 Z1.8000 F1499.70
G1 X15.8300 Y71.5000 Z1.8000 F1999.80
G1 X16.0300 Y71.5000 Z1.6000 F1499.70
G1 X62.0100 Y71.5000 Z1.6000 F1999.80
G1 X62.2100 Y71.5000 Z1.8000 F1499.70
G1 X64.1700 Y71.5000 Z1.8000 F1999.80
G1 X64.3700 Y71.5000 Z1.6000 F1499.70
G1 X85.0000 Y71.5000 Z1.6000 F1999.80
G2 X86.0607 Y71.0607 Z1.6000 I-0.0000 J-1.5000 F1999.80
G1 X86.0607 Y71.0607 Z1.2000 F999.60
G2 X86.5000 Y70.0000 Z1.2000 I-1.0607 J-1.0607 F1999.80
G1 X86.5000 Y58.2100 Z1.2000 F1999.80
G1 X86.5000 Y57.6100 Z1.8000 F1499.70
G1 X86.5000 Y55.6500 Z1.8000 F1999.80
G1 X86.5000 Y55.0500 Z1.2000 F1499.70
G1 X86.5000 Y14.3600 Z1.2000 F1999.80
G1 X86.5000 Y13.7600 Z1.8000 F1499.70
G1 X86.5000 Y11.8000 Z1.8000 F1999.80
G1 X86.5000 Y11.2000 Z1.2000 F1499.70
G1 X86.5000 Y0.0000 Z1.2000 F1999.80
G2 X85.0000 Y-1.5000 Z1.2000 I-1.5000 J0.0000 F1999.80
G1 X61.3300 Y-1.5000 Z1.2000 F1999.80
G1 X60.7300 Y-1.5000 Z1.8000 F1499.70
G1 X58.7700 Y-1.5000 Z1.8000 F1999.80
G1 X58.1700 Y-1.5000 Z1.2000 F1499.70
G1 X15.4400 Y-1.5000 Z1.2000 F1999.80
G1 X14.8400 Y-1.5000 Z1.8000 F1499.70
G1 X12.8800 Y-1.5000 Z1.8000 F1999.80
G1 X12.2800 Y-1.5000 Z1.2000 F1499.70
G1 X0.0000 Y-1.5000 Z1.2000 F1999.80
G2 X-1.5000 Y-0.0000 Z1.2000 I0.0000 J1.5000 F1999.80
G1 X-1.5000 Y7.7000 Z1.2000 F1999.80
G1 X-1.5000 Y8.3000 Z1.8000 F1499.70
G1 X-1.5000 Y10.2600 Z1.8000 F1999.80
G1 X-1.5000 Y10.8600 Z1.2000 F1499.70
G1 X-1.5000 Y59.3800 Z1.2000 F1999.80
G1 X-1.5000 Y59.9800 Z1.8000 F1499.70
G1 X-1.5000 Y61.9400 Z1.8000 F1999.80
G1 X-1.5000 Y62.5400 Z1.2000 F1499.70
G1 X-1.5000 Y70.0000 Z1.2000 F1999.80
G2 X0.0000 Y71.5000 Z1.2000 I1.5000 J-0.0000 F1999.80
G1 X13.2700 Y71.5000 Z1.2000 F1999.80
G1 X13.8700 Y71.5000 Z1.8000 F1499.70
G1 X15.8300 Y71.5000 Z1.8000 F1999.80
G1 X16.4300 Y71.5000 Z1.2000 F1499.70
G1 X61.6100 Y71.5000 Z1.2000 F1999.80
G1 X62.2100 Y71.5000 Z1.8000 F1499.70
G1 X64.1700 Y71.5000 Z1.8000 F1999.80
G1 X64.7700 Y71.5000 Z1.2000 F1499.70
G1 X85.0000 Y71.5000 Z1.2000 F1999.80
G2 X86.0607 Y71.0607 Z1.2000 I-0.0000 J-1.5000 F1999.80
G1 X86.0607 Y71.0607 Z0.8000 F999.60
G2 X86.5000 Y70.0000 Z0.8000 I-1.0607 J-1.0607 F1999.80
G1 X86.5000 Y58.6100 Z0.8000 F1999.80
G1 X86.5000 Y57.6100 Z1.8000 F1499.70
G1 X86.5000 Y55.6500 Z1.8000 F1999.80
G1 X86.5000 Y54.6500 Z0.8000 F1499.70
G1 X86.5000 Y14.7600 Z0.8000 F1999.80
G1 X86.5000 Y13.7600 Z1.8000 F1499.70
G1 X86.5000 Y11.8000 Z1.8000 F1999.80
G1 X86.5000 Y10.8000 Z0.8000 F1499.70
G1 X86.5000 Y0.0000 Z0.8000 F1999.80
G2 X85.0000 Y-1.5000 Z0.8000 I-1.5000 J0.0000 F1999.80
G1 X61.7300 Y-1.5000 Z0.8000 F1999.80
G1 X60.7300 Y-1.5000 Z1.8000 F1499.70
G1 X58.7700 Y-1.5000 Z1.8000 F1999.80
G1 X57.7700 Y-1.5000 Z0.8000 F1499.70
G1 X15.8400 Y-1.5000 Z0.8000 F1999.80
G1 X14.8400 Y-1.5000 Z1.8000 F1499.70
G1 X12.8800 Y-1.5000 Z1.8000 F1999.80
G1 X11.8800 Y-1.5000 Z0.8000 F1499.70
G1 X0.0000 Y-1.5000 Z0.8000 F1999.80
G2 X-1.5000 Y-0.0000 Z0.8000 I0.0000 J1.5000 F1999.80
G1 X-1.5000 Y7.3000 Z0.8000 F1999.80
G1 X-1.5000 Y8.3000 Z1.8000 F1499.70
G1 X-1.5000 Y10.2600 Z1.8000 F1999.80
G1 X-1.5000 Y11.2600 Z0.8000 F1499.70
G1 X-1.5000 Y58.9800 Z0.8000 F1999.80
G1 X-1.5000 Y59.9800 Z1.8000 F1499.70
G1 X-1.5000 Y61.9400 Z1.8000 F1999.80
G1 X-1.5000 Y62.9400 Z0.8000 F1499.70
G1 X-1.5000 Y70.0000 Z0.8000 F1999.80
G2 X0.0000 Y71.5000 Z0.8000 I1.5000 J-0.0000 F1999.80
G1 X12.8700 Y71.5000 Z0.8000 F1999.80
G1 X13.8700 Y71.5000 Z1.8000 F1499.70
G1 X15.8300 Y71.5000 Z1.8000 F1999.80
G1 X16.8300 Y71.5000 Z0.8000 F1499.70
G1 X61.2100 Y71.5000 Z0.8000 F1999.80
G1 X62.2100 Y71.5000 Z1.8000 F1499.70
G1 X64.1700 Y71.5000 Z1.8000 F1999.80
G1 X65.1700 Y71.5000 Z0.8000 F1499.70
G1 X85.0000 Y71.5000 Z0.8000 F1999.80
G2 X86.0607 Y71.0607 Z0.8000 I-0.0000 J-1.5000 F1999.80
G1 X86.0607 Y71.0607 Z0.4000 F999.60
G2 X86.5000 Y70.0000 Z0.4000 I-1.0607 J-1.0607 F1999.80
G1 X86.5000 Y59.0100 Z0.4000 F1999.80
G1 X86.5000 Y57.6100 Z1.8000 F1499.70
G1 X86.5000 Y55.6500 Z1.8000 F1999.80
G1 X86.5000 Y54.2500 Z0.4000 F1499.70
G1 X86.5000 Y15.1600 Z0.4000 F1999.80
G1 X86.5000 Y13.7600 Z1.8000 F1499.70
G1 X86.5000 Y11.8000 Z1.8000 F1999.80
G1 X86.5000 Y10.4000 Z0.4000 F1499.70
G1 X86.5000 Y0.0000 Z0.4000 F1999.80
G2 X85.0000 Y-1.5000 Z0.4000 I-1.5000 J0.0000 F1999.80
G1 X62.1300 Y-1.5000 Z0.4000 F1999.80
G1 X60.7300 Y-1.5000 Z1.8000 F1499.70
G1 X58.7700 Y-1.5000 Z1.8000 F1999.80
G1 X57.3700 Y-1.5000 Z0.4000 F1499.70
G1 X16.2400 Y-1.5000 Z0.4000 F1999.80
G1 X14.8400 Y-1.5000 Z1.8000 F1499.70
G1 X12.8800 Y-1.5000 Z1.8000 F1999.80
G1 X11.4800 Y-1.5000 Z0.4000 F1499.70
G1 X0.0000 Y-1.5000 Z0.4000 F1999.80
G2 X-1.5000 Y-0.0000 Z0.4000 I0.0000 J1.5000 F1999.80
G1 X-1.5000 Y6.9000 Z0.4000 F1999.80
G1 X-1.5000 Y8.3000 Z1.8000 F1499.70
G1 X-1.5000 Y10.2600 Z1.8000 F1999.80
G1 X-1.5000 Y11.6600 Z0.4000 F1499.70
G1 X-1.5000 Y58.5800 Z0.4000 F1999.80
G1 X-1.5000 Y59.9800 Z1.8000 F1499.70
G1 X-1.5000 Y61.9400 Z1.8000 F1999.80
G1 X-1.5000 Y63.3400 Z0.4000 F1499.70
G1 X-1.5000 Y70.0000 Z0.4000 F1999.80
G2 X0.0000 Y71.5000 Z0.4000 I1.5000 J-0.0000 F1999.80
G1 X12.4700 Y71.5000 Z0.4000 F1999.80
G1 X13.8700 Y71.5000 Z1.8000 F1499.70
G1 X15.8300 Y71.5000 Z1.8000 F1999.80
G1 X17.2300 Y71.5000 Z0.4000 F1499.70
G1 X60.8100 Y71.5000 Z0.4000 F1999.80
G1 X62.2100 Y71.5000 Z1.8000 F1499.70
G1 X64.1700 Y71.5000 Z1.8000 F1999.80
G1 X65.5700 Y71.5000 Z0.4000 F1499.70
G1 X85.0000 Y71.5000 Z0.4000 F1999.80
G2 X86.0607 Y71.0607 Z0.4000 I-0.0000 J-1.5000 F1999.80
G1 X86.0607 Y71.0607 Z0.0000 F999.60
G2 X86.5000 Y70.0000 Z0.0000 I-1.0607 J-1.0607 F1999.80
G1 X86.5000 Y59.4100 Z0.0000 F1999.80
G1 X86.5000 Y57.6100 Z1.8000 F1499.70
G1 X86.5000 Y55.6500 Z1.8000 F1999.80
G1 X86.5000 Y53.8500 Z0.0000 F1499.70
G1 X86.5000 Y15.5600 Z0.0000 F1999.80
G1 X86.5000 Y13.7600 Z1.8000 F1499.70
G1 X86.5000 Y11.8000 Z1.8000 F1999.80
G1 X86.5000 Y10.0000 Z0.0000 F1499.70
G1 X86.5000 Y0.0000 Z0.0000 F1999.80
G2 X85.0000 Y-1.5000 Z0.0000 I-1.5000 J0.0000 F1999.80
G1 X62.5300 Y-1.5000 Z0.0000 F1999.80
G1 X60.7300 Y-1.5000 Z1.8000 F1499.70
G1 X58.7700 Y-1.5000 Z1.8000 F1999.80
G1 X56.9700 Y-1.5000 Z0.0000 F1499.70
G1 X16.6400 Y-1.5000 Z0.0000 F1999.80
G1 X14.8400 Y-1.5000 Z1.8000 F1499.70
G1 X12.8800 Y-1.5000 Z1.8000 F1999.80
G1 X11.0800 Y-1.5000 Z0.0000 F1499.70
G1 X0.0000 Y-1.5000 Z0.0000 F1999.80
G2 X-1.5000 Y-0.0000 Z0.0000 I0.0000 J1.5000 F1999.80
G1 X-1.5000 Y6.5000 Z0.0000 F1999.80
G1 X-1.5000 Y8.3000 Z1.8000 F1499.70
G1 X-1.5000 Y10.2600 Z1.8000 F1999.80
G1 X-1.5000 Y12.0600 Z0.0000 F1499.70
G1 X-1.5000 Y58.1800 Z0.0000 F1999.80
G1 X-1.5000 Y59.9800 Z1.8000 F1499.70
G1 X-1.5000 Y61.9400 Z1.8000 F1999.80
G1 X-1.5000 Y63.7400 Z0.0000 F1499.70
G1 X-1.5000 Y70.0000 Z0.0000 F1999.80
G2 X0.0000 Y71.5000 Z0.0000 I1.5000 J-0.0000 F1999.80
G1 X12.0700 Y71.5000 Z0.0000 F1999.80
G1 X13.8700 Y71.5000 Z1.8000 F1499.70
G1 X15.8300 Y71.5000 Z1.8000 F1999.80
G1 X17.6300 Y71.5000 Z0.0000 F1499.70
G1 X60.4100 Y71.5000 Z0.0000 F1999.80
G1 X62.2100 Y71.5000 Z1.8000 F1499.70
G1 X64.1700 Y71.5000 Z1.8000 F1999.80
G1 X65.9700 Y71.5000 Z0.0000 F1499.70
G1 X85.0000 Y71.5000 Z0.0000 F1999.80
G2 X86.0607 Y71.0607 Z0.0000 I-0.0000 J-1.5000 F1999.80
G1 X86.0607 Y71.0607 Z-0.2000 F999.60
G2 X86.5000 Y70.0000 Z-0.2000 I-1.0607 J-1.0607 F1999.80
G1 X86.5000 Y59.6100 Z-0.2000 F1999.80
G1 X86.5000 Y57.6100 Z1.8000 F1499.70
G1 X86.5000 Y55.6500 Z1.8000 F1999.80
G1 X86.5000 Y53.6500 Z-0.2000 F1499.70
G1 X86.5000 Y15.7600 Z-0.2000 F1999.80
G1 X86.5000 Y13.7600 Z1.8000 F1499.70
G1 X86.5000 Y11.8000 Z1.8000 F1999.80
G1 X86.5000 Y9.8000 Z-0.2000 F1499.70
G1 X86.5000 Y0.0000 Z-0.2000 F1999.80
G2 X85.0000 Y-1.5000 Z-0.2000 I-1.5000 J0.0000 F1999.80
G1 X62.7300 Y-1.5000 Z-0.2000 F1999.80
G1 X60.7300 Y-1.5000 Z1.8000 F1499.70
G1 X58.7700 Y-1.5000 Z1.8000 F1999.80
G1 X56.7700 Y-1.5000 Z-0.2000 F1499.70
G1 X16.8400 Y-1.5000 Z-0.2000 F1999.80
G1 X14.8400 Y-1.5000 Z1.8000 F1499.70
G1 X12.8800 Y-1.5000 Z1.8000 F1999.80
G1 X10.8800 Y-1.5000 Z-0.2000 F1499.70
G1 X0.0000 Y-1.5000 Z-0.2000 F1999.80
G2 X-1.5000 Y-0.0000 Z-0.2000 I0.0000 J1.5000 F1999.80
G1 X-1.5000 Y6.3000 Z-0.2000 F1999.80
G1 X-1.5000 Y8.3000 Z1.8000 F1499.70
G1 X-1.5000 Y10.2600 Z1.8000 F1999.80
G1 X-1.5000 Y12.2600 Z-0.2000 F1499.70
G1 X-1.5000 Y57.9800 Z-0.2000 F1999.80
G1 X-1.5000 Y59.9800 Z1.8000 F1499.70
G1 X-1.5000 Y61.9400 Z1.8000 F1999.80
G1 X-1.5000 Y63.9400 Z-0.2000 F1499.70
G1 X-1.5000 Y70.0000 Z-0.2000 F1999.80
G2 X0.0000 Y71.5000 Z-0.2000 I1.5000 J-0.0000 F1999.80
G1 X11.8700 Y71.5000 Z-0.2000 F1999.80
G1 X13.8700 Y71.5000 Z1.8000 F1499.70
G1 X15.8300 Y71.5000 Z1.8000 F1999.80
G1 X17.8300 Y71.5000 Z-0.2000 F1499.70
G1 X60.2100 Y71.5000 Z-0.2000 F1999.80
G1 X62.2100 Y71.5000 Z1.8000 F1499.70
G1 X64.1700 Y71.5000 Z1.8000 F1999.80
G1 X66.1700 Y71.5000 Z-0.2000 F1499.70
G1 X85.0000 Y71.5000 Z-0.2000 F1999.80
G2 X86.0607 Y71.0607 Z-0.2000 I-0.0000 J-1.5000 F1999.80
G0 X86.0607 Y71.0607 Z10.0000
(finish operation: TagDressup)
(begin postamble)
M5
G17 G90
; M2
