(Exported by FreeCAD)
(Post Processor: grbl_post)
(Output Time:2020-03-13 21:26:30.591184)
(begin preamble)
G17 G90
G21
(begin operation: T4: 2FluteWoodMill001)
(Path: T4: 2FluteWoodMill001)
(T4: 2FluteWoodMill001)
(begin toolchange)
; M6 T4
M3 S12000.0000
(finish operation: T4: 2FluteWoodMill001)
(begin operation: Through_Holes_Path)
(Path: Through_Holes_Path)
(inactive operation)
(finish operation: Through_Holes_Path)
(begin operation: Counterbore_Path)
(Path: Counterbore_Path)
(inactive operation)
(finish operation: Counterbore_Path)
(begin operation: Edge_Cut)
(Path: Edge_Cut)
(Edge_Cut)
(Compensated Tool Path. Diameter: 3.0)
G0 Z10.0000
G0 X265.0607 Y397.8607
G0 Z8.0000
G1 X265.0607 Y397.8607 Z4.8000 F999.60
G3 X264.0000 Y398.3000 Z4.8000 I-1.0607 J-1.0607 F1999.80
G1 X0.1600 Y398.3000 Z4.8000 F1999.80
G3 X-1.3400 Y396.8000 Z4.8000 I0.0000 J-1.5000 F1999.80
G1 X-1.3400 Y0.0000 Z4.8000 F1999.80
G3 X0.1600 Y-1.5000 Z4.8000 I1.5000 J0.0000 F1999.80
G1 X120.1600 Y-1.5000 Z4.8000 F1999.80
G3 X121.6600 Y0.0000 Z4.8000 I-0.0000 J1.5000 F1999.80
G1 X121.6600 Y78.5000 Z4.8000 F1999.80
G1 X190.1600 Y78.5000 Z4.8000 F1999.80
G3 X191.6600 Y80.0000 Z4.8000 I-0.0000 J1.5000 F1999.80
G1 X191.6600 Y255.3000 Z4.8000 F1999.80
G1 X264.0000 Y255.3000 Z4.8000 F1999.80
G3 X265.5000 Y256.8000 Z4.8000 I-0.0000 J1.5000 F1999.80
G1 X265.5000 Y396.8000 Z4.8000 F1999.80
G3 X265.0607 Y397.8607 Z4.8000 I-1.5000 J-0.0000 F1999.80
G1 X265.0607 Y397.8607 Z4.4000 F999.60
G3 X264.0000 Y398.3000 Z4.4000 I-1.0607 J-1.0607 F1999.80
G1 X0.1600 Y398.3000 Z4.4000 F1999.80
G3 X-1.3400 Y396.8000 Z4.4000 I0.0000 J-1.5000 F1999.80
G1 X-1.3400 Y0.0000 Z4.4000 F1999.80
G3 X0.1600 Y-1.5000 Z4.4000 I1.5000 J0.0000 F1999.80
G1 X120.1600 Y-1.5000 Z4.4000 F1999.80
G3 X121.6600 Y0.0000 Z4.4000 I-0.0000 J1.5000 F1999.80
G1 X121.6600 Y78.5000 Z4.4000 F1999.80
G1 X190.1600 Y78.5000 Z4.4000 F1999.80
G3 X191.6600 Y80.0000 Z4.4000 I-0.0000 J1.5000 F1999.80
G1 X191.6600 Y255.3000 Z4.4000 F1999.80
G1 X264.0000 Y255.3000 Z4.4000 F1999.80
G3 X265.5000 Y256.8000 Z4.4000 I-0.0000 J1.5000 F1999.80
G1 X265.5000 Y396.8000 Z4.4000 F1999.80
G3 X265.0607 Y397.8607 Z4.4000 I-1.5000 J-0.0000 F1999.80
G1 X265.0607 Y397.8607 Z4.0000 F999.60
G3 X264.0000 Y398.3000 Z4.0000 I-1.0607 J-1.0607 F1999.80
G1 X0.1600 Y398.3000 Z4.0000 F1999.80
G3 X-1.3400 Y396.8000 Z4.0000 I0.0000 J-1.5000 F1999.80
G1 X-1.3400 Y0.0000 Z4.0000 F1999.80
G3 X0.1600 Y-1.5000 Z4.0000 I1.5000 J0.0000 F1999.80
G1 X120.1600 Y-1.5000 Z4.0000 F1999.80
G3 X121.6600 Y0.0000 Z4.0000 I-0.0000 J1.5000 F1999.80
G1 X121.6600 Y78.5000 Z4.0000 F1999.80
G1 X190.1600 Y78.5000 Z4.0000 F1999.80
G3 X191.6600 Y80.0000 Z4.0000 I-0.0000 J1.5000 F1999.80
G1 X191.6600 Y255.3000 Z4.0000 F1999.80
G1 X264.0000 Y255.3000 Z4.0000 F1999.80
G3 X265.5000 Y256.8000 Z4.0000 I-0.0000 J1.5000 F1999.80
G1 X265.5000 Y396.8000 Z4.0000 F1999.80
G3 X265.0607 Y397.8607 Z4.0000 I-1.5000 J-0.0000 F1999.80
G1 X265.0607 Y397.8607 Z3.6000 F999.60
G3 X264.0000 Y398.3000 Z3.6000 I-1.0607 J-1.0607 F1999.80
G1 X0.1600 Y398.3000 Z3.6000 F1999.80
G3 X-1.3400 Y396.8000 Z3.6000 I0.0000 J-1.5000 F1999.80
G1 X-1.3400 Y0.0000 Z3.6000 F1999.80
G3 X0.1600 Y-1.5000 Z3.6000 I1.5000 J0.0000 F1999.80
G1 X120.1600 Y-1.5000 Z3.6000 F1999.80
G3 X121.6600 Y0.0000 Z3.6000 I-0.0000 J1.5000 F1999.80
G1 X121.6600 Y78.5000 Z3.6000 F1999.80
G1 X190.1600 Y78.5000 Z3.6000 F1999.80
G3 X191.6600 Y80.0000 Z3.6000 I-0.0000 J1.5000 F1999.80
G1 X191.6600 Y255.3000 Z3.6000 F1999.80
G1 X264.0000 Y255.3000 Z3.6000 F1999.80
G3 X265.5000 Y256.8000 Z3.6000 I-0.0000 J1.5000 F1999.80
G1 X265.5000 Y396.8000 Z3.6000 F1999.80
G3 X265.0607 Y397.8607 Z3.6000 I-1.5000 J-0.0000 F1999.80
G1 X265.0607 Y397.8607 Z3.2000 F999.60
G3 X264.0000 Y398.3000 Z3.2000 I-1.0607 J-1.0607 F1999.80
G1 X0.1600 Y398.3000 Z3.2000 F1999.80
G3 X-1.3400 Y396.8000 Z3.2000 I0.0000 J-1.5000 F1999.80
G1 X-1.3400 Y0.0000 Z3.2000 F1999.80
G3 X0.1600 Y-1.5000 Z3.2000 I1.5000 J0.0000 F1999.80
G1 X120.1600 Y-1.5000 Z3.2000 F1999.80
G3 X121.6600 Y0.0000 Z3.2000 I-0.0000 J1.5000 F1999.80
G1 X121.6600 Y78.5000 Z3.2000 F1999.80
G1 X190.1600 Y78.5000 Z3.2000 F1999.80
G3 X191.6600 Y80.0000 Z3.2000 I-0.0000 J1.5000 F1999.80
G1 X191.6600 Y255.3000 Z3.2000 F1999.80
G1 X264.0000 Y255.3000 Z3.2000 F1999.80
G3 X265.5000 Y256.8000 Z3.2000 I-0.0000 J1.5000 F1999.80
G1 X265.5000 Y396.8000 Z3.2000 F1999.80
G3 X265.0607 Y397.8607 Z3.2000 I-1.5000 J-0.0000 F1999.80
G1 X265.0607 Y397.8607 Z2.8000 F999.60
G3 X264.0000 Y398.3000 Z2.8000 I-1.0607 J-1.0607 F1999.80
G1 X0.1600 Y398.3000 Z2.8000 F1999.80
G3 X-1.3400 Y396.8000 Z2.8000 I0.0000 J-1.5000 F1999.80
G1 X-1.3400 Y0.0000 Z2.8000 F1999.80
G3 X0.1600 Y-1.5000 Z2.8000 I1.5000 J0.0000 F1999.80
G1 X120.1600 Y-1.5000 Z2.8000 F1999.80
G3 X121.6600 Y0.0000 Z2.8000 I-0.0000 J1.5000 F1999.80
G1 X121.6600 Y78.5000 Z2.8000 F1999.80
G1 X190.1600 Y78.5000 Z2.8000 F1999.80
G3 X191.6600 Y80.0000 Z2.8000 I-0.0000 J1.5000 F1999.80
G1 X191.6600 Y255.3000 Z2.8000 F1999.80
G1 X264.0000 Y255.3000 Z2.8000 F1999.80
G3 X265.5000 Y256.8000 Z2.8000 I-0.0000 J1.5000 F1999.80
G1 X265.5000 Y396.8000 Z2.8000 F1999.80
G3 X265.0607 Y397.8607 Z2.8000 I-1.5000 J-0.0000 F1999.80
G1 X265.0607 Y397.8607 Z2.4000 F999.60
G3 X264.0000 Y398.3000 Z2.4000 I-1.0607 J-1.0607 F1999.80
G1 X0.1600 Y398.3000 Z2.4000 F1999.80
G3 X-1.3400 Y396.8000 Z2.4000 I0.0000 J-1.5000 F1999.80
G1 X-1.3400 Y0.0000 Z2.4000 F1999.80
G3 X0.1600 Y-1.5000 Z2.4000 I1.5000 J0.0000 F1999.80
G1 X120.1600 Y-1.5000 Z2.4000 F1999.80
G3 X121.6600 Y0.0000 Z2.4000 I-0.0000 J1.5000 F1999.80
G1 X121.6600 Y78.5000 Z2.4000 F1999.80
G1 X190.1600 Y78.5000 Z2.4000 F1999.80
G3 X191.6600 Y80.0000 Z2.4000 I-0.0000 J1.5000 F1999.80
G1 X191.6600 Y255.3000 Z2.4000 F1999.80
G1 X264.0000 Y255.3000 Z2.4000 F1999.80
G3 X265.5000 Y256.8000 Z2.4000 I-0.0000 J1.5000 F1999.80
G1 X265.5000 Y396.8000 Z2.4000 F1999.80
G3 X265.0607 Y397.8607 Z2.4000 I-1.5000 J-0.0000 F1999.80
G1 X265.0607 Y397.8607 Z2.0000 F999.60
G3 X264.0000 Y398.3000 Z2.0000 I-1.0607 J-1.0607 F1999.80
G1 X0.1600 Y398.3000 Z2.0000 F1999.80
G3 X-1.3400 Y396.8000 Z2.0000 I0.0000 J-1.5000 F1999.80
G1 X-1.3400 Y0.0000 Z2.0000 F1999.80
G3 X0.1600 Y-1.5000 Z2.0000 I1.5000 J0.0000 F1999.80
G1 X120.1600 Y-1.5000 Z2.0000 F1999.80
G3 X121.6600 Y0.0000 Z2.0000 I-0.0000 J1.5000 F1999.80
G1 X121.6600 Y78.5000 Z2.0000 F1999.80
G1 X190.1600 Y78.5000 Z2.0000 F1999.80
G3 X191.6600 Y80.0000 Z2.0000 I-0.0000 J1.5000 F1999.80
G1 X191.6600 Y255.3000 Z2.0000 F1999.80
G1 X264.0000 Y255.3000 Z2.0000 F1999.80
G3 X265.5000 Y256.8000 Z2.0000 I-0.0000 J1.5000 F1999.80
G1 X265.5000 Y396.8000 Z2.0000 F1999.80
G3 X265.0607 Y397.8607 Z2.0000 I-1.5000 J-0.0000 F1999.80
G1 X265.0607 Y397.8607 Z1.6000 F999.60
G3 X264.0000 Y398.3000 Z1.6000 I-1.0607 J-1.0607 F1999.80
G1 X0.1600 Y398.3000 Z1.6000 F1999.80
G3 X-1.3400 Y396.8000 Z1.6000 I0.0000 J-1.5000 F1999.80
G1 X-1.3400 Y0.0000 Z1.6000 F1999.80
G3 X0.1600 Y-1.5000 Z1.6000 I1.5000 J0.0000 F1999.80
G1 X120.1600 Y-1.5000 Z1.6000 F1999.80
G3 X121.6600 Y0.0000 Z1.6000 I-0.0000 J1.5000 F1999.80
G1 X121.6600 Y78.5000 Z1.6000 F1999.80
G1 X190.1600 Y78.5000 Z1.6000 F1999.80
G3 X191.6600 Y80.0000 Z1.6000 I-0.0000 J1.5000 F1999.80
G1 X191.6600 Y255.3000 Z1.6000 F1999.80
G1 X264.0000 Y255.3000 Z1.6000 F1999.80
G3 X265.5000 Y256.8000 Z1.6000 I-0.0000 J1.5000 F1999.80
G1 X265.5000 Y396.8000 Z1.6000 F1999.80
G3 X265.0607 Y397.8607 Z1.6000 I-1.5000 J-0.0000 F1999.80
G1 X265.0607 Y397.8607 Z1.2000 F999.60
G3 X264.0000 Y398.3000 Z1.2000 I-1.0607 J-1.0607 F1999.80
G1 X0.1600 Y398.3000 Z1.2000 F1999.80
G3 X-1.3400 Y396.8000 Z1.2000 I0.0000 J-1.5000 F1999.80
G1 X-1.3400 Y0.0000 Z1.2000 F1999.80
G3 X0.1600 Y-1.5000 Z1.2000 I1.5000 J0.0000 F1999.80
G1 X120.1600 Y-1.5000 Z1.2000 F1999.80
G3 X121.6600 Y0.0000 Z1.2000 I-0.0000 J1.5000 F1999.80
G1 X121.6600 Y78.5000 Z1.2000 F1999.80
G1 X190.1600 Y78.5000 Z1.2000 F1999.80
G3 X191.6600 Y80.0000 Z1.2000 I-0.0000 J1.5000 F1999.80
G1 X191.6600 Y255.3000 Z1.2000 F1999.80
G1 X264.0000 Y255.3000 Z1.2000 F1999.80
G3 X265.5000 Y256.8000 Z1.2000 I-0.0000 J1.5000 F1999.80
G1 X265.5000 Y396.8000 Z1.2000 F1999.80
G3 X265.0607 Y397.8607 Z1.2000 I-1.5000 J-0.0000 F1999.80
G1 X265.0607 Y397.8607 Z0.8000 F999.60
G3 X264.0000 Y398.3000 Z0.8000 I-1.0607 J-1.0607 F1999.80
G1 X0.1600 Y398.3000 Z0.8000 F1999.80
G3 X-1.3400 Y396.8000 Z0.8000 I0.0000 J-1.5000 F1999.80
G1 X-1.3400 Y0.0000 Z0.8000 F1999.80
G3 X0.1600 Y-1.5000 Z0.8000 I1.5000 J0.0000 F1999.80
G1 X120.1600 Y-1.5000 Z0.8000 F1999.80
G3 X121.6600 Y0.0000 Z0.8000 I-0.0000 J1.5000 F1999.80
G1 X121.6600 Y78.5000 Z0.8000 F1999.80
G1 X190.1600 Y78.5000 Z0.8000 F1999.80
G3 X191.6600 Y80.0000 Z0.8000 I-0.0000 J1.5000 F1999.80
G1 X191.6600 Y255.3000 Z0.8000 F1999.80
G1 X264.0000 Y255.3000 Z0.8000 F1999.80
G3 X265.5000 Y256.8000 Z0.8000 I-0.0000 J1.5000 F1999.80
G1 X265.5000 Y396.8000 Z0.8000 F1999.80
G3 X265.0607 Y397.8607 Z0.8000 I-1.5000 J-0.0000 F1999.80
G1 X265.0607 Y397.8607 Z0.4000 F999.60
G3 X264.0000 Y398.3000 Z0.4000 I-1.0607 J-1.0607 F1999.80
G1 X0.1600 Y398.3000 Z0.4000 F1999.80
G3 X-1.3400 Y396.8000 Z0.4000 I0.0000 J-1.5000 F1999.80
G1 X-1.3400 Y0.0000 Z0.4000 F1999.80
G3 X0.1600 Y-1.5000 Z0.4000 I1.5000 J0.0000 F1999.80
G1 X120.1600 Y-1.5000 Z0.4000 F1999.80
G3 X121.6600 Y0.0000 Z0.4000 I-0.0000 J1.5000 F1999.80
G1 X121.6600 Y78.5000 Z0.4000 F1999.80
G1 X190.1600 Y78.5000 Z0.4000 F1999.80
G3 X191.6600 Y80.0000 Z0.4000 I-0.0000 J1.5000 F1999.80
G1 X191.6600 Y255.3000 Z0.4000 F1999.80
G1 X264.0000 Y255.3000 Z0.4000 F1999.80
G3 X265.5000 Y256.8000 Z0.4000 I-0.0000 J1.5000 F1999.80
G1 X265.5000 Y396.8000 Z0.4000 F1999.80
G3 X265.0607 Y397.8607 Z0.4000 I-1.5000 J-0.0000 F1999.80
G1 X265.0607 Y397.8607 Z0.0000 F999.60
G3 X264.0000 Y398.3000 Z0.0000 I-1.0607 J-1.0607 F1999.80
G1 X0.1600 Y398.3000 Z0.0000 F1999.80
G3 X-1.3400 Y396.8000 Z0.0000 I0.0000 J-1.5000 F1999.80
G1 X-1.3400 Y0.0000 Z0.0000 F1999.80
G3 X0.1600 Y-1.5000 Z0.0000 I1.5000 J0.0000 F1999.80
G1 X120.1600 Y-1.5000 Z0.0000 F1999.80
G3 X121.6600 Y0.0000 Z0.0000 I-0.0000 J1.5000 F1999.80
G1 X121.6600 Y78.5000 Z0.0000 F1999.80
G1 X190.1600 Y78.5000 Z0.0000 F1999.80
G3 X191.6600 Y80.0000 Z0.0000 I-0.0000 J1.5000 F1999.80
G1 X191.6600 Y255.3000 Z0.0000 F1999.80
G1 X264.0000 Y255.3000 Z0.0000 F1999.80
G3 X265.5000 Y256.8000 Z0.0000 I-0.0000 J1.5000 F1999.80
G1 X265.5000 Y396.8000 Z0.0000 F1999.80
G3 X265.0607 Y397.8607 Z0.0000 I-1.5000 J-0.0000 F1999.80
G1 X265.0607 Y397.8607 Z-0.2000 F999.60
G3 X264.0000 Y398.3000 Z-0.2000 I-1.0607 J-1.0607 F1999.80
G1 X0.1600 Y398.3000 Z-0.2000 F1999.80
G3 X-1.3400 Y396.8000 Z-0.2000 I0.0000 J-1.5000 F1999.80
G1 X-1.3400 Y0.0000 Z-0.2000 F1999.80
G3 X0.1600 Y-1.5000 Z-0.2000 I1.5000 J0.0000 F1999.80
G1 X120.1600 Y-1.5000 Z-0.2000 F1999.80
G3 X121.6600 Y0.0000 Z-0.2000 I-0.0000 J1.5000 F1999.80
G1 X121.6600 Y78.5000 Z-0.2000 F1999.80
G1 X190.1600 Y78.5000 Z-0.2000 F1999.80
G3 X191.6600 Y80.0000 Z-0.2000 I-0.0000 J1.5000 F1999.80
G1 X191.6600 Y255.3000 Z-0.2000 F1999.80
G1 X264.0000 Y255.3000 Z-0.2000 F1999.80
G3 X265.5000 Y256.8000 Z-0.2000 I-0.0000 J1.5000 F1999.80
G1 X265.5000 Y396.8000 Z-0.2000 F1999.80
G3 X265.0607 Y397.8607 Z-0.2000 I-1.5000 J-0.0000 F1999.80
G0 Z10.0000
(finish operation: Edge_Cut)
(begin postamble)
M5
G17 G90
; M2
