(Exported by FreeCAD)
(Post Processor: grbl_post)
(Output Time:2020-03-13 21:23:58.728141)
(begin preamble)
G17 G90
G21
(begin operation: T4: 2FluteWoodMill001)
(Path: T4: 2FluteWoodMill001)
(T4: 2FluteWoodMill001)
(begin toolchange)
; M6 T4
M3 S12000.0000
(finish operation: T4: 2FluteWoodMill001)
(begin operation: Through_Holes_Path)
(Path: Through_Holes_Path)
(Through_Holes_Path)
(helix cut operation)
G0 Z10.0000
G0 X26.5600 Y378.4500
G0 Z8.0000
G1 Z5.2000 F999.60
G2 X26.4600 Y378.4500 Z5.0071 I-0.0500 J0.0000 F1999.80
G2 X26.5600 Y378.4500 Z4.8143 I0.0500 J0.0000 F1999.80
G2 X26.4600 Y378.4500 Z4.6214 I-0.0500 J0.0000 F1999.80
G2 X26.5600 Y378.4500 Z4.4286 I0.0500 J0.0000 F1999.80
G2 X26.4600 Y378.4500 Z4.2357 I-0.0500 J0.0000 F1999.80
G2 X26.5600 Y378.4500 Z4.0429 I0.0500 J0.0000 F1999.80
G2 X26.4600 Y378.4500 Z3.8500 I-0.0500 J0.0000 F1999.80
G2 X26.5600 Y378.4500 Z3.6571 I0.0500 J0.0000 F1999.80
G2 X26.4600 Y378.4500 Z3.4643 I-0.0500 J0.0000 F1999.80
G2 X26.5600 Y378.4500 Z3.2714 I0.0500 J0.0000 F1999.80
G2 X26.4600 Y378.4500 Z3.0786 I-0.0500 J0.0000 F1999.80
G2 X26.5600 Y378.4500 Z2.8857 I0.0500 J0.0000 F1999.80
G2 X26.4600 Y378.4500 Z2.6929 I-0.0500 J0.0000 F1999.80
G2 X26.5600 Y378.4500 Z2.5000 I0.0500 J0.0000 F1999.80
G2 X26.4600 Y378.4500 Z2.3071 I-0.0500 J0.0000 F1999.80
G2 X26.5600 Y378.4500 Z2.1143 I0.0500 J0.0000 F1999.80
G2 X26.4600 Y378.4500 Z1.9214 I-0.0500 J0.0000 F1999.80
G2 X26.5600 Y378.4500 Z1.7286 I0.0500 J0.0000 F1999.80
G2 X26.4600 Y378.4500 Z1.5357 I-0.0500 J0.0000 F1999.80
G2 X26.5600 Y378.4500 Z1.3429 I0.0500 J0.0000 F1999.80
G2 X26.4600 Y378.4500 Z1.1500 I-0.0500 J0.0000 F1999.80
G2 X26.5600 Y378.4500 Z0.9571 I0.0500 J0.0000 F1999.80
G2 X26.4600 Y378.4500 Z0.7643 I-0.0500 J0.0000 F1999.80
G2 X26.5600 Y378.4500 Z0.5714 I0.0500 J0.0000 F1999.80
G2 X26.4600 Y378.4500 Z0.3786 I-0.0500 J0.0000 F1999.80
G2 X26.5600 Y378.4500 Z0.1857 I0.0500 J0.0000 F1999.80
G2 X26.4600 Y378.4500 Z-0.0071 I-0.0500 J0.0000 F1999.80
G2 X26.5600 Y378.4500 Z-0.2000 I0.0500 J0.0000 F1999.80
G2 X26.4600 Y378.4500 Z-0.2000 I-0.0500 J0.0000 F1999.80
G2 X26.5600 Y378.4500 Z-0.2000 I0.0500 J0.0000 F1999.80
G0 Z8.0000
G0 X62.1200 Y358.1300
G0 Z8.0000
G1 Z5.2000 F999.60
G2 X62.0200 Y358.1300 Z5.0071 I-0.0500 J0.0000 F1999.80
G2 X62.1200 Y358.1300 Z4.8143 I0.0500 J0.0000 F1999.80
G2 X62.0200 Y358.1300 Z4.6214 I-0.0500 J0.0000 F1999.80
G2 X62.1200 Y358.1300 Z4.4286 I0.0500 J0.0000 F1999.80
G2 X62.0200 Y358.1300 Z4.2357 I-0.0500 J0.0000 F1999.80
G2 X62.1200 Y358.1300 Z4.0429 I0.0500 J0.0000 F1999.80
G2 X62.0200 Y358.1300 Z3.8500 I-0.0500 J0.0000 F1999.80
G2 X62.1200 Y358.1300 Z3.6571 I0.0500 J0.0000 F1999.80
G2 X62.0200 Y358.1300 Z3.4643 I-0.0500 J0.0000 F1999.80
G2 X62.1200 Y358.1300 Z3.2714 I0.0500 J0.0000 F1999.80
G2 X62.0200 Y358.1300 Z3.0786 I-0.0500 J0.0000 F1999.80
G2 X62.1200 Y358.1300 Z2.8857 I0.0500 J0.0000 F1999.80
G2 X62.0200 Y358.1300 Z2.6929 I-0.0500 J0.0000 F1999.80
G2 X62.1200 Y358.1300 Z2.5000 I0.0500 J0.0000 F1999.80
G2 X62.0200 Y358.1300 Z2.3071 I-0.0500 J0.0000 F1999.80
G2 X62.1200 Y358.1300 Z2.1143 I0.0500 J0.0000 F1999.80
G2 X62.0200 Y358.1300 Z1.9214 I-0.0500 J0.0000 F1999.80
G2 X62.1200 Y358.1300 Z1.7286 I0.0500 J0.0000 F1999.80
G2 X62.0200 Y358.1300 Z1.5357 I-0.0500 J0.0000 F1999.80
G2 X62.1200 Y358.1300 Z1.3429 I0.0500 J0.0000 F1999.80
G2 X62.0200 Y358.1300 Z1.1500 I-0.0500 J0.0000 F1999.80
G2 X62.1200 Y358.1300 Z0.9571 I0.0500 J0.0000 F1999.80
G2 X62.0200 Y358.1300 Z0.7643 I-0.0500 J0.0000 F1999.80
G2 X62.1200 Y358.1300 Z0.5714 I0.0500 J0.0000 F1999.80
G2 X62.0200 Y358.1300 Z0.3786 I-0.0500 J0.0000 F1999.80
G2 X62.1200 Y358.1300 Z0.1857 I0.0500 J0.0000 F1999.80
G2 X62.0200 Y358.1300 Z-0.0071 I-0.0500 J0.0000 F1999.80
G2 X62.1200 Y358.1300 Z-0.2000 I0.0500 J0.0000 F1999.80
G2 X62.0200 Y358.1300 Z-0.2000 I-0.0500 J0.0000 F1999.80
G2 X62.1200 Y358.1300 Z-0.2000 I0.0500 J0.0000 F1999.80
G0 Z8.0000
G0 X98.9500 Y378.4500
G0 Z8.0000
G1 Z5.2000 F999.60
G2 X98.8500 Y378.4500 Z5.0071 I-0.0500 J0.0000 F1999.80
G2 X98.9500 Y378.4500 Z4.8143 I0.0500 J0.0000 F1999.80
G2 X98.8500 Y378.4500 Z4.6214 I-0.0500 J0.0000 F1999.80
G2 X98.9500 Y378.4500 Z4.4286 I0.0500 J0.0000 F1999.80
G2 X98.8500 Y378.4500 Z4.2357 I-0.0500 J0.0000 F1999.80
G2 X98.9500 Y378.4500 Z4.0429 I0.0500 J0.0000 F1999.80
G2 X98.8500 Y378.4500 Z3.8500 I-0.0500 J0.0000 F1999.80
G2 X98.9500 Y378.4500 Z3.6571 I0.0500 J0.0000 F1999.80
G2 X98.8500 Y378.4500 Z3.4643 I-0.0500 J0.0000 F1999.80
G2 X98.9500 Y378.4500 Z3.2714 I0.0500 J0.0000 F1999.80
G2 X98.8500 Y378.4500 Z3.0786 I-0.0500 J0.0000 F1999.80
G2 X98.9500 Y378.4500 Z2.8857 I0.0500 J0.0000 F1999.80
G2 X98.8500 Y378.4500 Z2.6929 I-0.0500 J0.0000 F1999.80
G2 X98.9500 Y378.4500 Z2.5000 I0.0500 J0.0000 F1999.80
G2 X98.8500 Y378.4500 Z2.3071 I-0.0500 J0.0000 F1999.80
G2 X98.9500 Y378.4500 Z2.1143 I0.0500 J0.0000 F1999.80
G2 X98.8500 Y378.4500 Z1.9214 I-0.0500 J0.0000 F1999.80
G2 X98.9500 Y378.4500 Z1.7286 I0.0500 J0.0000 F1999.80
G2 X98.8500 Y378.4500 Z1.5357 I-0.0500 J0.0000 F1999.80
G2 X98.9500 Y378.4500 Z1.3429 I0.0500 J0.0000 F1999.80
G2 X98.8500 Y378.4500 Z1.1500 I-0.0500 J0.0000 F1999.80
G2 X98.9500 Y378.4500 Z0.9571 I0.0500 J0.0000 F1999.80
G2 X98.8500 Y378.4500 Z0.7643 I-0.0500 J0.0000 F1999.80
G2 X98.9500 Y378.4500 Z0.5714 I0.0500 J0.0000 F1999.80
G2 X98.8500 Y378.4500 Z0.3786 I-0.0500 J0.0000 F1999.80
G2 X98.9500 Y378.4500 Z0.1857 I0.0500 J0.0000 F1999.80
G2 X98.8500 Y378.4500 Z-0.0071 I-0.0500 J0.0000 F1999.80
G2 X98.9500 Y378.4500 Z-0.2000 I0.0500 J0.0000 F1999.80
G2 X98.8500 Y378.4500 Z-0.2000 I-0.0500 J0.0000 F1999.80
G2 X98.9500 Y378.4500 Z-0.2000 I0.0500 J0.0000 F1999.80
G0 Z8.0000
G0 X98.9500 Y358.1300
G0 Z8.0000
G1 Z5.2000 F999.60
G2 X98.8500 Y358.1300 Z5.0071 I-0.0500 J0.0000 F1999.80
G2 X98.9500 Y358.1300 Z4.8143 I0.0500 J0.0000 F1999.80
G2 X98.8500 Y358.1300 Z4.6214 I-0.0500 J0.0000 F1999.80
G2 X98.9500 Y358.1300 Z4.4286 I0.0500 J0.0000 F1999.80
G2 X98.8500 Y358.1300 Z4.2357 I-0.0500 J0.0000 F1999.80
G2 X98.9500 Y358.1300 Z4.0429 I0.0500 J0.0000 F1999.80
G2 X98.8500 Y358.1300 Z3.8500 I-0.0500 J0.0000 F1999.80
G2 X98.9500 Y358.1300 Z3.6571 I0.0500 J0.0000 F1999.80
G2 X98.8500 Y358.1300 Z3.4643 I-0.0500 J0.0000 F1999.80
G2 X98.9500 Y358.1300 Z3.2714 I0.0500 J0.0000 F1999.80
G2 X98.8500 Y358.1300 Z3.0786 I-0.0500 J0.0000 F1999.80
G2 X98.9500 Y358.1300 Z2.8857 I0.0500 J0.0000 F1999.80
G2 X98.8500 Y358.1300 Z2.6929 I-0.0500 J0.0000 F1999.80
G2 X98.9500 Y358.1300 Z2.5000 I0.0500 J0.0000 F1999.80
G2 X98.8500 Y358.1300 Z2.3071 I-0.0500 J0.0000 F1999.80
G2 X98.9500 Y358.1300 Z2.1143 I0.0500 J0.0000 F1999.80
G2 X98.8500 Y358.1300 Z1.9214 I-0.0500 J0.0000 F1999.80
G2 X98.9500 Y358.1300 Z1.7286 I0.0500 J0.0000 F1999.80
G2 X98.8500 Y358.1300 Z1.5357 I-0.0500 J0.0000 F1999.80
G2 X98.9500 Y358.1300 Z1.3429 I0.0500 J0.0000 F1999.80
G2 X98.8500 Y358.1300 Z1.1500 I-0.0500 J0.0000 F1999.80
G2 X98.9500 Y358.1300 Z0.9571 I0.0500 J0.0000 F1999.80
G2 X98.8500 Y358.1300 Z0.7643 I-0.0500 J0.0000 F1999.80
G2 X98.9500 Y358.1300 Z0.5714 I0.0500 J0.0000 F1999.80
G2 X98.8500 Y358.1300 Z0.3786 I-0.0500 J0.0000 F1999.80
G2 X98.9500 Y358.1300 Z0.1857 I0.0500 J0.0000 F1999.80
G2 X98.8500 Y358.1300 Z-0.0071 I-0.0500 J0.0000 F1999.80
G2 X98.9500 Y358.1300 Z-0.2000 I0.0500 J0.0000 F1999.80
G2 X98.8500 Y358.1300 Z-0.2000 I-0.0500 J0.0000 F1999.80
G2 X98.9500 Y358.1300 Z-0.2000 I0.0500 J0.0000 F1999.80
G0 Z8.0000
G0 X231.0300 Y378.4500
G0 Z8.0000
G1 Z5.2000 F999.60
G2 X230.9300 Y378.4500 Z5.0071 I-0.0500 J0.0000 F1999.80
G2 X231.0300 Y378.4500 Z4.8143 I0.0500 J0.0000 F1999.80
G2 X230.9300 Y378.4500 Z4.6214 I-0.0500 J0.0000 F1999.80
G2 X231.0300 Y378.4500 Z4.4286 I0.0500 J0.0000 F1999.80
G2 X230.9300 Y378.4500 Z4.2357 I-0.0500 J0.0000 F1999.80
G2 X231.0300 Y378.4500 Z4.0429 I0.0500 J0.0000 F1999.80
G2 X230.9300 Y378.4500 Z3.8500 I-0.0500 J0.0000 F1999.80
G2 X231.0300 Y378.4500 Z3.6571 I0.0500 J0.0000 F1999.80
G2 X230.9300 Y378.4500 Z3.4643 I-0.0500 J0.0000 F1999.80
G2 X231.0300 Y378.4500 Z3.2714 I0.0500 J0.0000 F1999.80
G2 X230.9300 Y378.4500 Z3.0786 I-0.0500 J0.0000 F1999.80
G2 X231.0300 Y378.4500 Z2.8857 I0.0500 J0.0000 F1999.80
G2 X230.9300 Y378.4500 Z2.6929 I-0.0500 J0.0000 F1999.80
G2 X231.0300 Y378.4500 Z2.5000 I0.0500 J0.0000 F1999.80
G2 X230.9300 Y378.4500 Z2.3071 I-0.0500 J0.0000 F1999.80
G2 X231.0300 Y378.4500 Z2.1143 I0.0500 J0.0000 F1999.80
G2 X230.9300 Y378.4500 Z1.9214 I-0.0500 J0.0000 F1999.80
G2 X231.0300 Y378.4500 Z1.7286 I0.0500 J0.0000 F1999.80
G2 X230.9300 Y378.4500 Z1.5357 I-0.0500 J0.0000 F1999.80
G2 X231.0300 Y378.4500 Z1.3429 I0.0500 J0.0000 F1999.80
G2 X230.9300 Y378.4500 Z1.1500 I-0.0500 J0.0000 F1999.80
G2 X231.0300 Y378.4500 Z0.9571 I0.0500 J0.0000 F1999.80
G2 X230.9300 Y378.4500 Z0.7643 I-0.0500 J0.0000 F1999.80
G2 X231.0300 Y378.4500 Z0.5714 I0.0500 J0.0000 F1999.80
G2 X230.9300 Y378.4500 Z0.3786 I-0.0500 J0.0000 F1999.80
G2 X231.0300 Y378.4500 Z0.1857 I0.0500 J0.0000 F1999.80
G2 X230.9300 Y378.4500 Z-0.0071 I-0.0500 J0.0000 F1999.80
G2 X231.0300 Y378.4500 Z-0.2000 I0.0500 J0.0000 F1999.80
G2 X230.9300 Y378.4500 Z-0.2000 I-0.0500 J0.0000 F1999.80
G2 X231.0300 Y378.4500 Z-0.2000 I0.0500 J0.0000 F1999.80
G0 Z8.0000
G0 X231.0300 Y358.1300
G0 Z8.0000
G1 Z5.2000 F999.60
G2 X230.9300 Y358.1300 Z5.0071 I-0.0500 J0.0000 F1999.80
G2 X231.0300 Y358.1300 Z4.8143 I0.0500 J0.0000 F1999.80
G2 X230.9300 Y358.1300 Z4.6214 I-0.0500 J0.0000 F1999.80
G2 X231.0300 Y358.1300 Z4.4286 I0.0500 J0.0000 F1999.80
G2 X230.9300 Y358.1300 Z4.2357 I-0.0500 J0.0000 F1999.80
G2 X231.0300 Y358.1300 Z4.0429 I0.0500 J0.0000 F1999.80
G2 X230.9300 Y358.1300 Z3.8500 I-0.0500 J0.0000 F1999.80
G2 X231.0300 Y358.1300 Z3.6571 I0.0500 J0.0000 F1999.80
G2 X230.9300 Y358.1300 Z3.4643 I-0.0500 J0.0000 F1999.80
G2 X231.0300 Y358.1300 Z3.2714 I0.0500 J0.0000 F1999.80
G2 X230.9300 Y358.1300 Z3.0786 I-0.0500 J0.0000 F1999.80
G2 X231.0300 Y358.1300 Z2.8857 I0.0500 J0.0000 F1999.80
G2 X230.9300 Y358.1300 Z2.6929 I-0.0500 J0.0000 F1999.80
G2 X231.0300 Y358.1300 Z2.5000 I0.0500 J0.0000 F1999.80
G2 X230.9300 Y358.1300 Z2.3071 I-0.0500 J0.0000 F1999.80
G2 X231.0300 Y358.1300 Z2.1143 I0.0500 J0.0000 F1999.80
G2 X230.9300 Y358.1300 Z1.9214 I-0.0500 J0.0000 F1999.80
G2 X231.0300 Y358.1300 Z1.7286 I0.0500 J0.0000 F1999.80
G2 X230.9300 Y358.1300 Z1.5357 I-0.0500 J0.0000 F1999.80
G2 X231.0300 Y358.1300 Z1.3429 I0.0500 J0.0000 F1999.80
G2 X230.9300 Y358.1300 Z1.1500 I-0.0500 J0.0000 F1999.80
G2 X231.0300 Y358.1300 Z0.9571 I0.0500 J0.0000 F1999.80
G2 X230.9300 Y358.1300 Z0.7643 I-0.0500 J0.0000 F1999.80
G2 X231.0300 Y358.1300 Z0.5714 I0.0500 J0.0000 F1999.80
G2 X230.9300 Y358.1300 Z0.3786 I-0.0500 J0.0000 F1999.80
G2 X231.0300 Y358.1300 Z0.1857 I0.0500 J0.0000 F1999.80
G2 X230.9300 Y358.1300 Z-0.0071 I-0.0500 J0.0000 F1999.80
G2 X231.0300 Y358.1300 Z-0.2000 I0.0500 J0.0000 F1999.80
G2 X230.9300 Y358.1300 Z-0.2000 I-0.0500 J0.0000 F1999.80
G2 X231.0300 Y358.1300 Z-0.2000 I0.0500 J0.0000 F1999.80
G0 Z8.0000
G0 X35.2100 Y9.0000
G0 Z8.0000
G1 Z5.2000 F999.60
G2 X35.1100 Y9.0000 Z5.0071 I-0.0500 J0.0000 F1999.80
G2 X35.2100 Y9.0000 Z4.8143 I0.0500 J0.0000 F1999.80
G2 X35.1100 Y9.0000 Z4.6214 I-0.0500 J0.0000 F1999.80
G2 X35.2100 Y9.0000 Z4.4286 I0.0500 J0.0000 F1999.80
G2 X35.1100 Y9.0000 Z4.2357 I-0.0500 J0.0000 F1999.80
G2 X35.2100 Y9.0000 Z4.0429 I0.0500 J0.0000 F1999.80
G2 X35.1100 Y9.0000 Z3.8500 I-0.0500 J0.0000 F1999.80
G2 X35.2100 Y9.0000 Z3.6571 I0.0500 J0.0000 F1999.80
G2 X35.1100 Y9.0000 Z3.4643 I-0.0500 J0.0000 F1999.80
G2 X35.2100 Y9.0000 Z3.2714 I0.0500 J0.0000 F1999.80
G2 X35.1100 Y9.0000 Z3.0786 I-0.0500 J0.0000 F1999.80
G2 X35.2100 Y9.0000 Z2.8857 I0.0500 J0.0000 F1999.80
G2 X35.1100 Y9.0000 Z2.6929 I-0.0500 J0.0000 F1999.80
G2 X35.2100 Y9.0000 Z2.5000 I0.0500 J0.0000 F1999.80
G2 X35.1100 Y9.0000 Z2.3071 I-0.0500 J0.0000 F1999.80
G2 X35.2100 Y9.0000 Z2.1143 I0.0500 J0.0000 F1999.80
G2 X35.1100 Y9.0000 Z1.9214 I-0.0500 J0.0000 F1999.80
G2 X35.2100 Y9.0000 Z1.7286 I0.0500 J0.0000 F1999.80
G2 X35.1100 Y9.0000 Z1.5357 I-0.0500 J0.0000 F1999.80
G2 X35.2100 Y9.0000 Z1.3429 I0.0500 J0.0000 F1999.80
G2 X35.1100 Y9.0000 Z1.1500 I-0.0500 J0.0000 F1999.80
G2 X35.2100 Y9.0000 Z0.9571 I0.0500 J0.0000 F1999.80
G2 X35.1100 Y9.0000 Z0.7643 I-0.0500 J0.0000 F1999.80
G2 X35.2100 Y9.0000 Z0.5714 I0.0500 J0.0000 F1999.80
G2 X35.1100 Y9.0000 Z0.3786 I-0.0500 J0.0000 F1999.80
G2 X35.2100 Y9.0000 Z0.1857 I0.0500 J0.0000 F1999.80
G2 X35.1100 Y9.0000 Z-0.0071 I-0.0500 J0.0000 F1999.80
G2 X35.2100 Y9.0000 Z-0.2000 I0.0500 J0.0000 F1999.80
G2 X35.1100 Y9.0000 Z-0.2000 I-0.0500 J0.0000 F1999.80
G2 X35.2100 Y9.0000 Z-0.2000 I0.0500 J0.0000 F1999.80
G0 Z8.0000
G0 X105.2100 Y9.0000
G0 Z8.0000
G1 Z5.2000 F999.60
G2 X105.1100 Y9.0000 Z5.0071 I-0.0500 J0.0000 F1999.80
G2 X105.2100 Y9.0000 Z4.8143 I0.0500 J0.0000 F1999.80
G2 X105.1100 Y9.0000 Z4.6214 I-0.0500 J0.0000 F1999.80
G2 X105.2100 Y9.0000 Z4.4286 I0.0500 J0.0000 F1999.80
G2 X105.1100 Y9.0000 Z4.2357 I-0.0500 J0.0000 F1999.80
G2 X105.2100 Y9.0000 Z4.0429 I0.0500 J0.0000 F1999.80
G2 X105.1100 Y9.0000 Z3.8500 I-0.0500 J0.0000 F1999.80
G2 X105.2100 Y9.0000 Z3.6571 I0.0500 J0.0000 F1999.80
G2 X105.1100 Y9.0000 Z3.4643 I-0.0500 J0.0000 F1999.80
G2 X105.2100 Y9.0000 Z3.2714 I0.0500 J0.0000 F1999.80
G2 X105.1100 Y9.0000 Z3.0786 I-0.0500 J0.0000 F1999.80
G2 X105.2100 Y9.0000 Z2.8857 I0.0500 J0.0000 F1999.80
G2 X105.1100 Y9.0000 Z2.6929 I-0.0500 J0.0000 F1999.80
G2 X105.2100 Y9.0000 Z2.5000 I0.0500 J0.0000 F1999.80
G2 X105.1100 Y9.0000 Z2.3071 I-0.0500 J0.0000 F1999.80
G2 X105.2100 Y9.0000 Z2.1143 I0.0500 J0.0000 F1999.80
G2 X105.1100 Y9.0000 Z1.9214 I-0.0500 J0.0000 F1999.80
G2 X105.2100 Y9.0000 Z1.7286 I0.0500 J0.0000 F1999.80
G2 X105.1100 Y9.0000 Z1.5357 I-0.0500 J0.0000 F1999.80
G2 X105.2100 Y9.0000 Z1.3429 I0.0500 J0.0000 F1999.80
G2 X105.1100 Y9.0000 Z1.1500 I-0.0500 J0.0000 F1999.80
G2 X105.2100 Y9.0000 Z0.9571 I0.0500 J0.0000 F1999.80
G2 X105.1100 Y9.0000 Z0.7643 I-0.0500 J0.0000 F1999.80
G2 X105.2100 Y9.0000 Z0.5714 I0.0500 J0.0000 F1999.80
G2 X105.1100 Y9.0000 Z0.3786 I-0.0500 J0.0000 F1999.80
G2 X105.2100 Y9.0000 Z0.1857 I0.0500 J0.0000 F1999.80
G2 X105.1100 Y9.0000 Z-0.0071 I-0.0500 J0.0000 F1999.80
G2 X105.2100 Y9.0000 Z-0.2000 I0.0500 J0.0000 F1999.80
G2 X105.1100 Y9.0000 Z-0.2000 I-0.0500 J0.0000 F1999.80
G2 X105.2100 Y9.0000 Z-0.2000 I0.0500 J0.0000 F1999.80
G0 Z8.0000
G0 X105.2100 Y71.0000
G0 Z8.0000
G1 Z5.2000 F999.60
G2 X105.1100 Y71.0000 Z5.0071 I-0.0500 J0.0000 F1999.80
G2 X105.2100 Y71.0000 Z4.8143 I0.0500 J0.0000 F1999.80
G2 X105.1100 Y71.0000 Z4.6214 I-0.0500 J0.0000 F1999.80
G2 X105.2100 Y71.0000 Z4.4286 I0.0500 J0.0000 F1999.80
G2 X105.1100 Y71.0000 Z4.2357 I-0.0500 J0.0000 F1999.80
G2 X105.2100 Y71.0000 Z4.0429 I0.0500 J0.0000 F1999.80
G2 X105.1100 Y71.0000 Z3.8500 I-0.0500 J0.0000 F1999.80
G2 X105.2100 Y71.0000 Z3.6571 I0.0500 J0.0000 F1999.80
G2 X105.1100 Y71.0000 Z3.4643 I-0.0500 J0.0000 F1999.80
G2 X105.2100 Y71.0000 Z3.2714 I0.0500 J0.0000 F1999.80
G2 X105.1100 Y71.0000 Z3.0786 I-0.0500 J0.0000 F1999.80
G2 X105.2100 Y71.0000 Z2.8857 I0.0500 J0.0000 F1999.80
G2 X105.1100 Y71.0000 Z2.6929 I-0.0500 J0.0000 F1999.80
G2 X105.2100 Y71.0000 Z2.5000 I0.0500 J0.0000 F1999.80
G2 X105.1100 Y71.0000 Z2.3071 I-0.0500 J0.0000 F1999.80
G2 X105.2100 Y71.0000 Z2.1143 I0.0500 J0.0000 F1999.80
G2 X105.1100 Y71.0000 Z1.9214 I-0.0500 J0.0000 F1999.80
G2 X105.2100 Y71.0000 Z1.7286 I0.0500 J0.0000 F1999.80
G2 X105.1100 Y71.0000 Z1.5357 I-0.0500 J0.0000 F1999.80
G2 X105.2100 Y71.0000 Z1.3429 I0.0500 J0.0000 F1999.80
G2 X105.1100 Y71.0000 Z1.1500 I-0.0500 J0.0000 F1999.80
G2 X105.2100 Y71.0000 Z0.9571 I0.0500 J0.0000 F1999.80
G2 X105.1100 Y71.0000 Z0.7643 I-0.0500 J0.0000 F1999.80
G2 X105.2100 Y71.0000 Z0.5714 I0.0500 J0.0000 F1999.80
G2 X105.1100 Y71.0000 Z0.3786 I-0.0500 J0.0000 F1999.80
G2 X105.2100 Y71.0000 Z0.1857 I0.0500 J0.0000 F1999.80
G2 X105.1100 Y71.0000 Z-0.0071 I-0.0500 J0.0000 F1999.80
G2 X105.2100 Y71.0000 Z-0.2000 I0.0500 J0.0000 F1999.80
G2 X105.1100 Y71.0000 Z-0.2000 I-0.0500 J0.0000 F1999.80
G2 X105.2100 Y71.0000 Z-0.2000 I0.0500 J0.0000 F1999.80
G0 Z8.0000
G0 X35.2100 Y71.0000
G0 Z8.0000
G1 Z5.2000 F999.60
G2 X35.1100 Y71.0000 Z5.0071 I-0.0500 J0.0000 F1999.80
G2 X35.2100 Y71.0000 Z4.8143 I0.0500 J0.0000 F1999.80
G2 X35.1100 Y71.0000 Z4.6214 I-0.0500 J0.0000 F1999.80
G2 X35.2100 Y71.0000 Z4.4286 I0.0500 J0.0000 F1999.80
G2 X35.1100 Y71.0000 Z4.2357 I-0.0500 J0.0000 F1999.80
G2 X35.2100 Y71.0000 Z4.0429 I0.0500 J0.0000 F1999.80
G2 X35.1100 Y71.0000 Z3.8500 I-0.0500 J0.0000 F1999.80
G2 X35.2100 Y71.0000 Z3.6571 I0.0500 J0.0000 F1999.80
G2 X35.1100 Y71.0000 Z3.4643 I-0.0500 J0.0000 F1999.80
G2 X35.2100 Y71.0000 Z3.2714 I0.0500 J0.0000 F1999.80
G2 X35.1100 Y71.0000 Z3.0786 I-0.0500 J0.0000 F1999.80
G2 X35.2100 Y71.0000 Z2.8857 I0.0500 J0.0000 F1999.80
G2 X35.1100 Y71.0000 Z2.6929 I-0.0500 J0.0000 F1999.80
G2 X35.2100 Y71.0000 Z2.5000 I0.0500 J0.0000 F1999.80
G2 X35.1100 Y71.0000 Z2.3071 I-0.0500 J0.0000 F1999.80
G2 X35.2100 Y71.0000 Z2.1143 I0.0500 J0.0000 F1999.80
G2 X35.1100 Y71.0000 Z1.9214 I-0.0500 J0.0000 F1999.80
G2 X35.2100 Y71.0000 Z1.7286 I0.0500 J0.0000 F1999.80
G2 X35.1100 Y71.0000 Z1.5357 I-0.0500 J0.0000 F1999.80
G2 X35.2100 Y71.0000 Z1.3429 I0.0500 J0.0000 F1999.80
G2 X35.1100 Y71.0000 Z1.1500 I-0.0500 J0.0000 F1999.80
G2 X35.2100 Y71.0000 Z0.9571 I0.0500 J0.0000 F1999.80
G2 X35.1100 Y71.0000 Z0.7643 I-0.0500 J0.0000 F1999.80
G2 X35.2100 Y71.0000 Z0.5714 I0.0500 J0.0000 F1999.80
G2 X35.1100 Y71.0000 Z0.3786 I-0.0500 J0.0000 F1999.80
G2 X35.2100 Y71.0000 Z0.1857 I0.0500 J0.0000 F1999.80
G2 X35.1100 Y71.0000 Z-0.0071 I-0.0500 J0.0000 F1999.80
G2 X35.2100 Y71.0000 Z-0.2000 I0.0500 J0.0000 F1999.80
G2 X35.1100 Y71.0000 Z-0.2000 I-0.0500 J0.0000 F1999.80
G2 X35.2100 Y71.0000 Z-0.2000 I0.0500 J0.0000 F1999.80
G0 Z8.0000
G0 X20.2100 Y103.5000
G0 Z8.0000
G1 Z5.2000 F999.60
G2 X20.1100 Y103.5000 Z5.0071 I-0.0500 J0.0000 F1999.80
G2 X20.2100 Y103.5000 Z4.8143 I0.0500 J0.0000 F1999.80
G2 X20.1100 Y103.5000 Z4.6214 I-0.0500 J0.0000 F1999.80
G2 X20.2100 Y103.5000 Z4.4286 I0.0500 J0.0000 F1999.80
G2 X20.1100 Y103.5000 Z4.2357 I-0.0500 J0.0000 F1999.80
G2 X20.2100 Y103.5000 Z4.0429 I0.0500 J0.0000 F1999.80
G2 X20.1100 Y103.5000 Z3.8500 I-0.0500 J0.0000 F1999.80
G2 X20.2100 Y103.5000 Z3.6571 I0.0500 J0.0000 F1999.80
G2 X20.1100 Y103.5000 Z3.4643 I-0.0500 J0.0000 F1999.80
G2 X20.2100 Y103.5000 Z3.2714 I0.0500 J0.0000 F1999.80
G2 X20.1100 Y103.5000 Z3.0786 I-0.0500 J0.0000 F1999.80
G2 X20.2100 Y103.5000 Z2.8857 I0.0500 J0.0000 F1999.80
G2 X20.1100 Y103.5000 Z2.6929 I-0.0500 J0.0000 F1999.80
G2 X20.2100 Y103.5000 Z2.5000 I0.0500 J0.0000 F1999.80
G2 X20.1100 Y103.5000 Z2.3071 I-0.0500 J0.0000 F1999.80
G2 X20.2100 Y103.5000 Z2.1143 I0.0500 J0.0000 F1999.80
G2 X20.1100 Y103.5000 Z1.9214 I-0.0500 J0.0000 F1999.80
G2 X20.2100 Y103.5000 Z1.7286 I0.0500 J0.0000 F1999.80
G2 X20.1100 Y103.5000 Z1.5357 I-0.0500 J0.0000 F1999.80
G2 X20.2100 Y103.5000 Z1.3429 I0.0500 J0.0000 F1999.80
G2 X20.1100 Y103.5000 Z1.1500 I-0.0500 J0.0000 F1999.80
G2 X20.2100 Y103.5000 Z0.9571 I0.0500 J0.0000 F1999.80
G2 X20.1100 Y103.5000 Z0.7643 I-0.0500 J0.0000 F1999.80
G2 X20.2100 Y103.5000 Z0.5714 I0.0500 J0.0000 F1999.80
G2 X20.1100 Y103.5000 Z0.3786 I-0.0500 J0.0000 F1999.80
G2 X20.2100 Y103.5000 Z0.1857 I0.0500 J0.0000 F1999.80
G2 X20.1100 Y103.5000 Z-0.0071 I-0.0500 J0.0000 F1999.80
G2 X20.2100 Y103.5000 Z-0.2000 I0.0500 J0.0000 F1999.80
G2 X20.1100 Y103.5000 Z-0.2000 I-0.0500 J0.0000 F1999.80
G2 X20.2100 Y103.5000 Z-0.2000 I0.0500 J0.0000 F1999.80
G0 Z8.0000
G0 X85.2100 Y103.5000
G0 Z8.0000
G1 Z5.2000 F999.60
G2 X85.1100 Y103.5000 Z5.0071 I-0.0500 J0.0000 F1999.80
G2 X85.2100 Y103.5000 Z4.8143 I0.0500 J0.0000 F1999.80
G2 X85.1100 Y103.5000 Z4.6214 I-0.0500 J0.0000 F1999.80
G2 X85.2100 Y103.5000 Z4.4286 I0.0500 J0.0000 F1999.80
G2 X85.1100 Y103.5000 Z4.2357 I-0.0500 J0.0000 F1999.80
G2 X85.2100 Y103.5000 Z4.0429 I0.0500 J0.0000 F1999.80
G2 X85.1100 Y103.5000 Z3.8500 I-0.0500 J0.0000 F1999.80
G2 X85.2100 Y103.5000 Z3.6571 I0.0500 J0.0000 F1999.80
G2 X85.1100 Y103.5000 Z3.4643 I-0.0500 J0.0000 F1999.80
G2 X85.2100 Y103.5000 Z3.2714 I0.0500 J0.0000 F1999.80
G2 X85.1100 Y103.5000 Z3.0786 I-0.0500 J0.0000 F1999.80
G2 X85.2100 Y103.5000 Z2.8857 I0.0500 J0.0000 F1999.80
G2 X85.1100 Y103.5000 Z2.6929 I-0.0500 J0.0000 F1999.80
G2 X85.2100 Y103.5000 Z2.5000 I0.0500 J0.0000 F1999.80
G2 X85.1100 Y103.5000 Z2.3071 I-0.0500 J0.0000 F1999.80
G2 X85.2100 Y103.5000 Z2.1143 I0.0500 J0.0000 F1999.80
G2 X85.1100 Y103.5000 Z1.9214 I-0.0500 J0.0000 F1999.80
G2 X85.2100 Y103.5000 Z1.7286 I0.0500 J0.0000 F1999.80
G2 X85.1100 Y103.5000 Z1.5357 I-0.0500 J0.0000 F1999.80
G2 X85.2100 Y103.5000 Z1.3429 I0.0500 J0.0000 F1999.80
G2 X85.1100 Y103.5000 Z1.1500 I-0.0500 J0.0000 F1999.80
G2 X85.2100 Y103.5000 Z0.9571 I0.0500 J0.0000 F1999.80
G2 X85.1100 Y103.5000 Z0.7643 I-0.0500 J0.0000 F1999.80
G2 X85.2100 Y103.5000 Z0.5714 I0.0500 J0.0000 F1999.80
G2 X85.1100 Y103.5000 Z0.3786 I-0.0500 J0.0000 F1999.80
G2 X85.2100 Y103.5000 Z0.1857 I0.0500 J0.0000 F1999.80
G2 X85.1100 Y103.5000 Z-0.0071 I-0.0500 J0.0000 F1999.80
G2 X85.2100 Y103.5000 Z-0.2000 I0.0500 J0.0000 F1999.80
G2 X85.1100 Y103.5000 Z-0.2000 I-0.0500 J0.0000 F1999.80
G2 X85.2100 Y103.5000 Z-0.2000 I0.0500 J0.0000 F1999.80
G0 Z8.0000
G0 X85.2100 Y163.5000
G0 Z8.0000
G1 Z5.2000 F999.60
G2 X85.1100 Y163.5000 Z5.0071 I-0.0500 J0.0000 F1999.80
G2 X85.2100 Y163.5000 Z4.8143 I0.0500 J0.0000 F1999.80
G2 X85.1100 Y163.5000 Z4.6214 I-0.0500 J0.0000 F1999.80
G2 X85.2100 Y163.5000 Z4.4286 I0.0500 J0.0000 F1999.80
G2 X85.1100 Y163.5000 Z4.2357 I-0.0500 J0.0000 F1999.80
G2 X85.2100 Y163.5000 Z4.0429 I0.0500 J0.0000 F1999.80
G2 X85.1100 Y163.5000 Z3.8500 I-0.0500 J0.0000 F1999.80
G2 X85.2100 Y163.5000 Z3.6571 I0.0500 J0.0000 F1999.80
G2 X85.1100 Y163.5000 Z3.4643 I-0.0500 J0.0000 F1999.80
G2 X85.2100 Y163.5000 Z3.2714 I0.0500 J0.0000 F1999.80
G2 X85.1100 Y163.5000 Z3.0786 I-0.0500 J0.0000 F1999.80
G2 X85.2100 Y163.5000 Z2.8857 I0.0500 J0.0000 F1999.80
G2 X85.1100 Y163.5000 Z2.6929 I-0.0500 J0.0000 F1999.80
G2 X85.2100 Y163.5000 Z2.5000 I0.0500 J0.0000 F1999.80
G2 X85.1100 Y163.5000 Z2.3071 I-0.0500 J0.0000 F1999.80
G2 X85.2100 Y163.5000 Z2.1143 I0.0500 J0.0000 F1999.80
G2 X85.1100 Y163.5000 Z1.9214 I-0.0500 J0.0000 F1999.80
G2 X85.2100 Y163.5000 Z1.7286 I0.0500 J0.0000 F1999.80
G2 X85.1100 Y163.5000 Z1.5357 I-0.0500 J0.0000 F1999.80
G2 X85.2100 Y163.5000 Z1.3429 I0.0500 J0.0000 F1999.80
G2 X85.1100 Y163.5000 Z1.1500 I-0.0500 J0.0000 F1999.80
G2 X85.2100 Y163.5000 Z0.9571 I0.0500 J0.0000 F1999.80
G2 X85.1100 Y163.5000 Z0.7643 I-0.0500 J0.0000 F1999.80
G2 X85.2100 Y163.5000 Z0.5714 I0.0500 J0.0000 F1999.80
G2 X85.1100 Y163.5000 Z0.3786 I-0.0500 J0.0000 F1999.80
G2 X85.2100 Y163.5000 Z0.1857 I0.0500 J0.0000 F1999.80
G2 X85.1100 Y163.5000 Z-0.0071 I-0.0500 J0.0000 F1999.80
G2 X85.2100 Y163.5000 Z-0.2000 I0.0500 J0.0000 F1999.80
G2 X85.1100 Y163.5000 Z-0.2000 I-0.0500 J0.0000 F1999.80
G2 X85.2100 Y163.5000 Z-0.2000 I0.0500 J0.0000 F1999.80
G0 Z8.0000
G0 X20.2100 Y163.5000
G0 Z8.0000
G1 Z5.2000 F999.60
G2 X20.1100 Y163.5000 Z5.0071 I-0.0500 J0.0000 F1999.80
G2 X20.2100 Y163.5000 Z4.8143 I0.0500 J0.0000 F1999.80
G2 X20.1100 Y163.5000 Z4.6214 I-0.0500 J0.0000 F1999.80
G2 X20.2100 Y163.5000 Z4.4286 I0.0500 J0.0000 F1999.80
G2 X20.1100 Y163.5000 Z4.2357 I-0.0500 J0.0000 F1999.80
G2 X20.2100 Y163.5000 Z4.0429 I0.0500 J0.0000 F1999.80
G2 X20.1100 Y163.5000 Z3.8500 I-0.0500 J0.0000 F1999.80
G2 X20.2100 Y163.5000 Z3.6571 I0.0500 J0.0000 F1999.80
G2 X20.1100 Y163.5000 Z3.4643 I-0.0500 J0.0000 F1999.80
G2 X20.2100 Y163.5000 Z3.2714 I0.0500 J0.0000 F1999.80
G2 X20.1100 Y163.5000 Z3.0786 I-0.0500 J0.0000 F1999.80
G2 X20.2100 Y163.5000 Z2.8857 I0.0500 J0.0000 F1999.80
G2 X20.1100 Y163.5000 Z2.6929 I-0.0500 J0.0000 F1999.80
G2 X20.2100 Y163.5000 Z2.5000 I0.0500 J0.0000 F1999.80
G2 X20.1100 Y163.5000 Z2.3071 I-0.0500 J0.0000 F1999.80
G2 X20.2100 Y163.5000 Z2.1143 I0.0500 J0.0000 F1999.80
G2 X20.1100 Y163.5000 Z1.9214 I-0.0500 J0.0000 F1999.80
G2 X20.2100 Y163.5000 Z1.7286 I0.0500 J0.0000 F1999.80
G2 X20.1100 Y163.5000 Z1.5357 I-0.0500 J0.0000 F1999.80
G2 X20.2100 Y163.5000 Z1.3429 I0.0500 J0.0000 F1999.80
G2 X20.1100 Y163.5000 Z1.1500 I-0.0500 J0.0000 F1999.80
G2 X20.2100 Y163.5000 Z0.9571 I0.0500 J0.0000 F1999.80
G2 X20.1100 Y163.5000 Z0.7643 I-0.0500 J0.0000 F1999.80
G2 X20.2100 Y163.5000 Z0.5714 I0.0500 J0.0000 F1999.80
G2 X20.1100 Y163.5000 Z0.3786 I-0.0500 J0.0000 F1999.80
G2 X20.2100 Y163.5000 Z0.1857 I0.0500 J0.0000 F1999.80
G2 X20.1100 Y163.5000 Z-0.0071 I-0.0500 J0.0000 F1999.80
G2 X20.2100 Y163.5000 Z-0.2000 I0.0500 J0.0000 F1999.80
G2 X20.1100 Y163.5000 Z-0.2000 I-0.0500 J0.0000 F1999.80
G2 X20.2100 Y163.5000 Z-0.2000 I0.0500 J0.0000 F1999.80
G0 Z8.0000
G0 X163.9600 Y161.7500
G0 Z8.0000
G1 Z5.2000 F999.60
G2 X163.8600 Y161.7500 Z5.0071 I-0.0500 J0.0000 F1999.80
G2 X163.9600 Y161.7500 Z4.8143 I0.0500 J0.0000 F1999.80
G2 X163.8600 Y161.7500 Z4.6214 I-0.0500 J0.0000 F1999.80
G2 X163.9600 Y161.7500 Z4.4286 I0.0500 J0.0000 F1999.80
G2 X163.8600 Y161.7500 Z4.2357 I-0.0500 J0.0000 F1999.80
G2 X163.9600 Y161.7500 Z4.0429 I0.0500 J0.0000 F1999.80
G2 X163.8600 Y161.7500 Z3.8500 I-0.0500 J0.0000 F1999.80
G2 X163.9600 Y161.7500 Z3.6571 I0.0500 J0.0000 F1999.80
G2 X163.8600 Y161.7500 Z3.4643 I-0.0500 J0.0000 F1999.80
G2 X163.9600 Y161.7500 Z3.2714 I0.0500 J0.0000 F1999.80
G2 X163.8600 Y161.7500 Z3.0786 I-0.0500 J0.0000 F1999.80
G2 X163.9600 Y161.7500 Z2.8857 I0.0500 J0.0000 F1999.80
G2 X163.8600 Y161.7500 Z2.6929 I-0.0500 J0.0000 F1999.80
G2 X163.9600 Y161.7500 Z2.5000 I0.0500 J0.0000 F1999.80
G2 X163.8600 Y161.7500 Z2.3071 I-0.0500 J0.0000 F1999.80
G2 X163.9600 Y161.7500 Z2.1143 I0.0500 J0.0000 F1999.80
G2 X163.8600 Y161.7500 Z1.9214 I-0.0500 J0.0000 F1999.80
G2 X163.9600 Y161.7500 Z1.7286 I0.0500 J0.0000 F1999.80
G2 X163.8600 Y161.7500 Z1.5357 I-0.0500 J0.0000 F1999.80
G2 X163.9600 Y161.7500 Z1.3429 I0.0500 J0.0000 F1999.80
G2 X163.8600 Y161.7500 Z1.1500 I-0.0500 J0.0000 F1999.80
G2 X163.9600 Y161.7500 Z0.9571 I0.0500 J0.0000 F1999.80
G2 X163.8600 Y161.7500 Z0.7643 I-0.0500 J0.0000 F1999.80
G2 X163.9600 Y161.7500 Z0.5714 I0.0500 J0.0000 F1999.80
G2 X163.8600 Y161.7500 Z0.3786 I-0.0500 J0.0000 F1999.80
G2 X163.9600 Y161.7500 Z0.1857 I0.0500 J0.0000 F1999.80
G2 X163.8600 Y161.7500 Z-0.0071 I-0.0500 J0.0000 F1999.80
G2 X163.9600 Y161.7500 Z-0.2000 I0.0500 J0.0000 F1999.80
G2 X163.8600 Y161.7500 Z-0.2000 I-0.0500 J0.0000 F1999.80
G2 X163.9600 Y161.7500 Z-0.2000 I0.0500 J0.0000 F1999.80
G0 Z8.0000
G0 X126.4600 Y161.7500
G0 Z8.0000
G1 Z5.2000 F999.60
G2 X126.3600 Y161.7500 Z5.0071 I-0.0500 J0.0000 F1999.80
G2 X126.4600 Y161.7500 Z4.8143 I0.0500 J0.0000 F1999.80
G2 X126.3600 Y161.7500 Z4.6214 I-0.0500 J0.0000 F1999.80
G2 X126.4600 Y161.7500 Z4.4286 I0.0500 J0.0000 F1999.80
G2 X126.3600 Y161.7500 Z4.2357 I-0.0500 J0.0000 F1999.80
G2 X126.4600 Y161.7500 Z4.0429 I0.0500 J0.0000 F1999.80
G2 X126.3600 Y161.7500 Z3.8500 I-0.0500 J0.0000 F1999.80
G2 X126.4600 Y161.7500 Z3.6571 I0.0500 J0.0000 F1999.80
G2 X126.3600 Y161.7500 Z3.4643 I-0.0500 J0.0000 F1999.80
G2 X126.4600 Y161.7500 Z3.2714 I0.0500 J0.0000 F1999.80
G2 X126.3600 Y161.7500 Z3.0786 I-0.0500 J0.0000 F1999.80
G2 X126.4600 Y161.7500 Z2.8857 I0.0500 J0.0000 F1999.80
G2 X126.3600 Y161.7500 Z2.6929 I-0.0500 J0.0000 F1999.80
G2 X126.4600 Y161.7500 Z2.5000 I0.0500 J0.0000 F1999.80
G2 X126.3600 Y161.7500 Z2.3071 I-0.0500 J0.0000 F1999.80
G2 X126.4600 Y161.7500 Z2.1143 I0.0500 J0.0000 F1999.80
G2 X126.3600 Y161.7500 Z1.9214 I-0.0500 J0.0000 F1999.80
G2 X126.4600 Y161.7500 Z1.7286 I0.0500 J0.0000 F1999.80
G2 X126.3600 Y161.7500 Z1.5357 I-0.0500 J0.0000 F1999.80
G2 X126.4600 Y161.7500 Z1.3429 I0.0500 J0.0000 F1999.80
G2 X126.3600 Y161.7500 Z1.1500 I-0.0500 J0.0000 F1999.80
G2 X126.4600 Y161.7500 Z0.9571 I0.0500 J0.0000 F1999.80
G2 X126.3600 Y161.7500 Z0.7643 I-0.0500 J0.0000 F1999.80
G2 X126.4600 Y161.7500 Z0.5714 I0.0500 J0.0000 F1999.80
G2 X126.3600 Y161.7500 Z0.3786 I-0.0500 J0.0000 F1999.80
G2 X126.4600 Y161.7500 Z0.1857 I0.0500 J0.0000 F1999.80
G2 X126.3600 Y161.7500 Z-0.0071 I-0.0500 J0.0000 F1999.80
G2 X126.4600 Y161.7500 Z-0.2000 I0.0500 J0.0000 F1999.80
G2 X126.3600 Y161.7500 Z-0.2000 I-0.0500 J0.0000 F1999.80
G2 X126.4600 Y161.7500 Z-0.2000 I0.0500 J0.0000 F1999.80
G0 Z8.0000
G0 X126.4600 Y105.2500
G0 Z8.0000
G1 Z5.2000 F999.60
G2 X126.3600 Y105.2500 Z5.0071 I-0.0500 J0.0000 F1999.80
G2 X126.4600 Y105.2500 Z4.8143 I0.0500 J0.0000 F1999.80
G2 X126.3600 Y105.2500 Z4.6214 I-0.0500 J0.0000 F1999.80
G2 X126.4600 Y105.2500 Z4.4286 I0.0500 J0.0000 F1999.80
G2 X126.3600 Y105.2500 Z4.2357 I-0.0500 J0.0000 F1999.80
G2 X126.4600 Y105.2500 Z4.0429 I0.0500 J0.0000 F1999.80
G2 X126.3600 Y105.2500 Z3.8500 I-0.0500 J0.0000 F1999.80
G2 X126.4600 Y105.2500 Z3.6571 I0.0500 J0.0000 F1999.80
G2 X126.3600 Y105.2500 Z3.4643 I-0.0500 J0.0000 F1999.80
G2 X126.4600 Y105.2500 Z3.2714 I0.0500 J0.0000 F1999.80
G2 X126.3600 Y105.2500 Z3.0786 I-0.0500 J0.0000 F1999.80
G2 X126.4600 Y105.2500 Z2.8857 I0.0500 J0.0000 F1999.80
G2 X126.3600 Y105.2500 Z2.6929 I-0.0500 J0.0000 F1999.80
G2 X126.4600 Y105.2500 Z2.5000 I0.0500 J0.0000 F1999.80
G2 X126.3600 Y105.2500 Z2.3071 I-0.0500 J0.0000 F1999.80
G2 X126.4600 Y105.2500 Z2.1143 I0.0500 J0.0000 F1999.80
G2 X126.3600 Y105.2500 Z1.9214 I-0.0500 J0.0000 F1999.80
G2 X126.4600 Y105.2500 Z1.7286 I0.0500 J0.0000 F1999.80
G2 X126.3600 Y105.2500 Z1.5357 I-0.0500 J0.0000 F1999.80
G2 X126.4600 Y105.2500 Z1.3429 I0.0500 J0.0000 F1999.80
G2 X126.3600 Y105.2500 Z1.1500 I-0.0500 J0.0000 F1999.80
G2 X126.4600 Y105.2500 Z0.9571 I0.0500 J0.0000 F1999.80
G2 X126.3600 Y105.2500 Z0.7643 I-0.0500 J0.0000 F1999.80
G2 X126.4600 Y105.2500 Z0.5714 I0.0500 J0.0000 F1999.80
G2 X126.3600 Y105.2500 Z0.3786 I-0.0500 J0.0000 F1999.80
G2 X126.4600 Y105.2500 Z0.1857 I0.0500 J0.0000 F1999.80
G2 X126.3600 Y105.2500 Z-0.0071 I-0.0500 J0.0000 F1999.80
G2 X126.4600 Y105.2500 Z-0.2000 I0.0500 J0.0000 F1999.80
G2 X126.3600 Y105.2500 Z-0.2000 I-0.0500 J0.0000 F1999.80
G2 X126.4600 Y105.2500 Z-0.2000 I0.0500 J0.0000 F1999.80
G0 Z8.0000
G0 X163.9600 Y105.2500
G0 Z8.0000
G1 Z5.2000 F999.60
G2 X163.8600 Y105.2500 Z5.0071 I-0.0500 J0.0000 F1999.80
G2 X163.9600 Y105.2500 Z4.8143 I0.0500 J0.0000 F1999.80
G2 X163.8600 Y105.2500 Z4.6214 I-0.0500 J0.0000 F1999.80
G2 X163.9600 Y105.2500 Z4.4286 I0.0500 J0.0000 F1999.80
G2 X163.8600 Y105.2500 Z4.2357 I-0.0500 J0.0000 F1999.80
G2 X163.9600 Y105.2500 Z4.0429 I0.0500 J0.0000 F1999.80
G2 X163.8600 Y105.2500 Z3.8500 I-0.0500 J0.0000 F1999.80
G2 X163.9600 Y105.2500 Z3.6571 I0.0500 J0.0000 F1999.80
G2 X163.8600 Y105.2500 Z3.4643 I-0.0500 J0.0000 F1999.80
G2 X163.9600 Y105.2500 Z3.2714 I0.0500 J0.0000 F1999.80
G2 X163.8600 Y105.2500 Z3.0786 I-0.0500 J0.0000 F1999.80
G2 X163.9600 Y105.2500 Z2.8857 I0.0500 J0.0000 F1999.80
G2 X163.8600 Y105.2500 Z2.6929 I-0.0500 J0.0000 F1999.80
G2 X163.9600 Y105.2500 Z2.5000 I0.0500 J0.0000 F1999.80
G2 X163.8600 Y105.2500 Z2.3071 I-0.0500 J0.0000 F1999.80
G2 X163.9600 Y105.2500 Z2.1143 I0.0500 J0.0000 F1999.80
G2 X163.8600 Y105.2500 Z1.9214 I-0.0500 J0.0000 F1999.80
G2 X163.9600 Y105.2500 Z1.7286 I0.0500 J0.0000 F1999.80
G2 X163.8600 Y105.2500 Z1.5357 I-0.0500 J0.0000 F1999.80
G2 X163.9600 Y105.2500 Z1.3429 I0.0500 J0.0000 F1999.80
G2 X163.8600 Y105.2500 Z1.1500 I-0.0500 J0.0000 F1999.80
G2 X163.9600 Y105.2500 Z0.9571 I0.0500 J0.0000 F1999.80
G2 X163.8600 Y105.2500 Z0.7643 I-0.0500 J0.0000 F1999.80
G2 X163.9600 Y105.2500 Z0.5714 I0.0500 J0.0000 F1999.80
G2 X163.8600 Y105.2500 Z0.3786 I-0.0500 J0.0000 F1999.80
G2 X163.9600 Y105.2500 Z0.1857 I0.0500 J0.0000 F1999.80
G2 X163.8600 Y105.2500 Z-0.0071 I-0.0500 J0.0000 F1999.80
G2 X163.9600 Y105.2500 Z-0.2000 I0.0500 J0.0000 F1999.80
G2 X163.8600 Y105.2500 Z-0.2000 I-0.0500 J0.0000 F1999.80
G2 X163.9600 Y105.2500 Z-0.2000 I0.0500 J0.0000 F1999.80
G0 Z8.0000
G0 X16.8100 Y228.4000
G0 Z8.0000
G1 Z5.2000 F999.60
G2 X16.7100 Y228.4000 Z5.0071 I-0.0500 J0.0000 F1999.80
G2 X16.8100 Y228.4000 Z4.8143 I0.0500 J0.0000 F1999.80
G2 X16.7100 Y228.4000 Z4.6214 I-0.0500 J0.0000 F1999.80
G2 X16.8100 Y228.4000 Z4.4286 I0.0500 J0.0000 F1999.80
G2 X16.7100 Y228.4000 Z4.2357 I-0.0500 J0.0000 F1999.80
G2 X16.8100 Y228.4000 Z4.0429 I0.0500 J0.0000 F1999.80
G2 X16.7100 Y228.4000 Z3.8500 I-0.0500 J0.0000 F1999.80
G2 X16.8100 Y228.4000 Z3.6571 I0.0500 J0.0000 F1999.80
G2 X16.7100 Y228.4000 Z3.4643 I-0.0500 J0.0000 F1999.80
G2 X16.8100 Y228.4000 Z3.2714 I0.0500 J0.0000 F1999.80
G2 X16.7100 Y228.4000 Z3.0786 I-0.0500 J0.0000 F1999.80
G2 X16.8100 Y228.4000 Z2.8857 I0.0500 J0.0000 F1999.80
G2 X16.7100 Y228.4000 Z2.6929 I-0.0500 J0.0000 F1999.80
G2 X16.8100 Y228.4000 Z2.5000 I0.0500 J0.0000 F1999.80
G2 X16.7100 Y228.4000 Z2.3071 I-0.0500 J0.0000 F1999.80
G2 X16.8100 Y228.4000 Z2.1143 I0.0500 J0.0000 F1999.80
G2 X16.7100 Y228.4000 Z1.9214 I-0.0500 J0.0000 F1999.80
G2 X16.8100 Y228.4000 Z1.7286 I0.0500 J0.0000 F1999.80
G2 X16.7100 Y228.4000 Z1.5357 I-0.0500 J0.0000 F1999.80
G2 X16.8100 Y228.4000 Z1.3429 I0.0500 J0.0000 F1999.80
G2 X16.7100 Y228.4000 Z1.1500 I-0.0500 J0.0000 F1999.80
G2 X16.8100 Y228.4000 Z0.9571 I0.0500 J0.0000 F1999.80
G2 X16.7100 Y228.4000 Z0.7643 I-0.0500 J0.0000 F1999.80
G2 X16.8100 Y228.4000 Z0.5714 I0.0500 J0.0000 F1999.80
G2 X16.7100 Y228.4000 Z0.3786 I-0.0500 J0.0000 F1999.80
G2 X16.8100 Y228.4000 Z0.1857 I0.0500 J0.0000 F1999.80
G2 X16.7100 Y228.4000 Z-0.0071 I-0.0500 J0.0000 F1999.80
G2 X16.8100 Y228.4000 Z-0.2000 I0.0500 J0.0000 F1999.80
G2 X16.7100 Y228.4000 Z-0.2000 I-0.0500 J0.0000 F1999.80
G2 X16.8100 Y228.4000 Z-0.2000 I0.0500 J0.0000 F1999.80
G0 Z8.0000
G0 X16.8100 Y201.6000
G0 Z8.0000
G1 Z5.2000 F999.60
G2 X16.7100 Y201.6000 Z5.0071 I-0.0500 J0.0000 F1999.80
G2 X16.8100 Y201.6000 Z4.8143 I0.0500 J0.0000 F1999.80
G2 X16.7100 Y201.6000 Z4.6214 I-0.0500 J0.0000 F1999.80
G2 X16.8100 Y201.6000 Z4.4286 I0.0500 J0.0000 F1999.80
G2 X16.7100 Y201.6000 Z4.2357 I-0.0500 J0.0000 F1999.80
G2 X16.8100 Y201.6000 Z4.0429 I0.0500 J0.0000 F1999.80
G2 X16.7100 Y201.6000 Z3.8500 I-0.0500 J0.0000 F1999.80
G2 X16.8100 Y201.6000 Z3.6571 I0.0500 J0.0000 F1999.80
G2 X16.7100 Y201.6000 Z3.4643 I-0.0500 J0.0000 F1999.80
G2 X16.8100 Y201.6000 Z3.2714 I0.0500 J0.0000 F1999.80
G2 X16.7100 Y201.6000 Z3.0786 I-0.0500 J0.0000 F1999.80
G2 X16.8100 Y201.6000 Z2.8857 I0.0500 J0.0000 F1999.80
G2 X16.7100 Y201.6000 Z2.6929 I-0.0500 J0.0000 F1999.80
G2 X16.8100 Y201.6000 Z2.5000 I0.0500 J0.0000 F1999.80
G2 X16.7100 Y201.6000 Z2.3071 I-0.0500 J0.0000 F1999.80
G2 X16.8100 Y201.6000 Z2.1143 I0.0500 J0.0000 F1999.80
G2 X16.7100 Y201.6000 Z1.9214 I-0.0500 J0.0000 F1999.80
G2 X16.8100 Y201.6000 Z1.7286 I0.0500 J0.0000 F1999.80
G2 X16.7100 Y201.6000 Z1.5357 I-0.0500 J0.0000 F1999.80
G2 X16.8100 Y201.6000 Z1.3429 I0.0500 J0.0000 F1999.80
G2 X16.7100 Y201.6000 Z1.1500 I-0.0500 J0.0000 F1999.80
G2 X16.8100 Y201.6000 Z0.9571 I0.0500 J0.0000 F1999.80
G2 X16.7100 Y201.6000 Z0.7643 I-0.0500 J0.0000 F1999.80
G2 X16.8100 Y201.6000 Z0.5714 I0.0500 J0.0000 F1999.80
G2 X16.7100 Y201.6000 Z0.3786 I-0.0500 J0.0000 F1999.80
G2 X16.8100 Y201.6000 Z0.1857 I0.0500 J0.0000 F1999.80
G2 X16.7100 Y201.6000 Z-0.0071 I-0.0500 J0.0000 F1999.80
G2 X16.8100 Y201.6000 Z-0.2000 I0.0500 J0.0000 F1999.80
G2 X16.7100 Y201.6000 Z-0.2000 I-0.0500 J0.0000 F1999.80
G2 X16.8100 Y201.6000 Z-0.2000 I0.0500 J0.0000 F1999.80
G0 Z8.0000
G0 X83.6100 Y201.6000
G0 Z8.0000
G1 Z5.2000 F999.60
G2 X83.5100 Y201.6000 Z5.0071 I-0.0500 J0.0000 F1999.80
G2 X83.6100 Y201.6000 Z4.8143 I0.0500 J0.0000 F1999.80
G2 X83.5100 Y201.6000 Z4.6214 I-0.0500 J0.0000 F1999.80
G2 X83.6100 Y201.6000 Z4.4286 I0.0500 J0.0000 F1999.80
G2 X83.5100 Y201.6000 Z4.2357 I-0.0500 J0.0000 F1999.80
G2 X83.6100 Y201.6000 Z4.0429 I0.0500 J0.0000 F1999.80
G2 X83.5100 Y201.6000 Z3.8500 I-0.0500 J0.0000 F1999.80
G2 X83.6100 Y201.6000 Z3.6571 I0.0500 J0.0000 F1999.80
G2 X83.5100 Y201.6000 Z3.4643 I-0.0500 J0.0000 F1999.80
G2 X83.6100 Y201.6000 Z3.2714 I0.0500 J0.0000 F1999.80
G2 X83.5100 Y201.6000 Z3.0786 I-0.0500 J0.0000 F1999.80
G2 X83.6100 Y201.6000 Z2.8857 I0.0500 J0.0000 F1999.80
G2 X83.5100 Y201.6000 Z2.6929 I-0.0500 J0.0000 F1999.80
G2 X83.6100 Y201.6000 Z2.5000 I0.0500 J0.0000 F1999.80
G2 X83.5100 Y201.6000 Z2.3071 I-0.0500 J0.0000 F1999.80
G2 X83.6100 Y201.6000 Z2.1143 I0.0500 J0.0000 F1999.80
G2 X83.5100 Y201.6000 Z1.9214 I-0.0500 J0.0000 F1999.80
G2 X83.6100 Y201.6000 Z1.7286 I0.0500 J0.0000 F1999.80
G2 X83.5100 Y201.6000 Z1.5357 I-0.0500 J0.0000 F1999.80
G2 X83.6100 Y201.6000 Z1.3429 I0.0500 J0.0000 F1999.80
G2 X83.5100 Y201.6000 Z1.1500 I-0.0500 J0.0000 F1999.80
G2 X83.6100 Y201.6000 Z0.9571 I0.0500 J0.0000 F1999.80
G2 X83.5100 Y201.6000 Z0.7643 I-0.0500 J0.0000 F1999.80
G2 X83.6100 Y201.6000 Z0.5714 I0.0500 J0.0000 F1999.80
G2 X83.5100 Y201.6000 Z0.3786 I-0.0500 J0.0000 F1999.80
G2 X83.6100 Y201.6000 Z0.1857 I0.0500 J0.0000 F1999.80
G2 X83.5100 Y201.6000 Z-0.0071 I-0.0500 J0.0000 F1999.80
G2 X83.6100 Y201.6000 Z-0.2000 I0.0500 J0.0000 F1999.80
G2 X83.5100 Y201.6000 Z-0.2000 I-0.0500 J0.0000 F1999.80
G2 X83.6100 Y201.6000 Z-0.2000 I0.0500 J0.0000 F1999.80
G0 Z8.0000
G0 X83.6100 Y228.4000
G0 Z8.0000
G1 Z5.2000 F999.60
G2 X83.5100 Y228.4000 Z5.0071 I-0.0500 J0.0000 F1999.80
G2 X83.6100 Y228.4000 Z4.8143 I0.0500 J0.0000 F1999.80
G2 X83.5100 Y228.4000 Z4.6214 I-0.0500 J0.0000 F1999.80
G2 X83.6100 Y228.4000 Z4.4286 I0.0500 J0.0000 F1999.80
G2 X83.5100 Y228.4000 Z4.2357 I-0.0500 J0.0000 F1999.80
G2 X83.6100 Y228.4000 Z4.0429 I0.0500 J0.0000 F1999.80
G2 X83.5100 Y228.4000 Z3.8500 I-0.0500 J0.0000 F1999.80
G2 X83.6100 Y228.4000 Z3.6571 I0.0500 J0.0000 F1999.80
G2 X83.5100 Y228.4000 Z3.4643 I-0.0500 J0.0000 F1999.80
G2 X83.6100 Y228.4000 Z3.2714 I0.0500 J0.0000 F1999.80
G2 X83.5100 Y228.4000 Z3.0786 I-0.0500 J0.0000 F1999.80
G2 X83.6100 Y228.4000 Z2.8857 I0.0500 J0.0000 F1999.80
G2 X83.5100 Y228.4000 Z2.6929 I-0.0500 J0.0000 F1999.80
G2 X83.6100 Y228.4000 Z2.5000 I0.0500 J0.0000 F1999.80
G2 X83.5100 Y228.4000 Z2.3071 I-0.0500 J0.0000 F1999.80
G2 X83.6100 Y228.4000 Z2.1143 I0.0500 J0.0000 F1999.80
G2 X83.5100 Y228.4000 Z1.9214 I-0.0500 J0.0000 F1999.80
G2 X83.6100 Y228.4000 Z1.7286 I0.0500 J0.0000 F1999.80
G2 X83.5100 Y228.4000 Z1.5357 I-0.0500 J0.0000 F1999.80
G2 X83.6100 Y228.4000 Z1.3429 I0.0500 J0.0000 F1999.80
G2 X83.5100 Y228.4000 Z1.1500 I-0.0500 J0.0000 F1999.80
G2 X83.6100 Y228.4000 Z0.9571 I0.0500 J0.0000 F1999.80
G2 X83.5100 Y228.4000 Z0.7643 I-0.0500 J0.0000 F1999.80
G2 X83.6100 Y228.4000 Z0.5714 I0.0500 J0.0000 F1999.80
G2 X83.5100 Y228.4000 Z0.3786 I-0.0500 J0.0000 F1999.80
G2 X83.6100 Y228.4000 Z0.1857 I0.0500 J0.0000 F1999.80
G2 X83.5100 Y228.4000 Z-0.0071 I-0.0500 J0.0000 F1999.80
G2 X83.6100 Y228.4000 Z-0.2000 I0.0500 J0.0000 F1999.80
G2 X83.5100 Y228.4000 Z-0.2000 I-0.0500 J0.0000 F1999.80
G2 X83.6100 Y228.4000 Z-0.2000 I0.0500 J0.0000 F1999.80
G0 Z8.0000
G0 X131.8100 Y255.4000
G0 Z8.0000
G1 Z5.2000 F999.60
G2 X131.7100 Y255.4000 Z5.0071 I-0.0500 J0.0000 F1999.80
G2 X131.8100 Y255.4000 Z4.8143 I0.0500 J0.0000 F1999.80
G2 X131.7100 Y255.4000 Z4.6214 I-0.0500 J0.0000 F1999.80
G2 X131.8100 Y255.4000 Z4.4286 I0.0500 J0.0000 F1999.80
G2 X131.7100 Y255.4000 Z4.2357 I-0.0500 J0.0000 F1999.80
G2 X131.8100 Y255.4000 Z4.0429 I0.0500 J0.0000 F1999.80
G2 X131.7100 Y255.4000 Z3.8500 I-0.0500 J0.0000 F1999.80
G2 X131.8100 Y255.4000 Z3.6571 I0.0500 J0.0000 F1999.80
G2 X131.7100 Y255.4000 Z3.4643 I-0.0500 J0.0000 F1999.80
G2 X131.8100 Y255.4000 Z3.2714 I0.0500 J0.0000 F1999.80
G2 X131.7100 Y255.4000 Z3.0786 I-0.0500 J0.0000 F1999.80
G2 X131.8100 Y255.4000 Z2.8857 I0.0500 J0.0000 F1999.80
G2 X131.7100 Y255.4000 Z2.6929 I-0.0500 J0.0000 F1999.80
G2 X131.8100 Y255.4000 Z2.5000 I0.0500 J0.0000 F1999.80
G2 X131.7100 Y255.4000 Z2.3071 I-0.0500 J0.0000 F1999.80
G2 X131.8100 Y255.4000 Z2.1143 I0.0500 J0.0000 F1999.80
G2 X131.7100 Y255.4000 Z1.9214 I-0.0500 J0.0000 F1999.80
G2 X131.8100 Y255.4000 Z1.7286 I0.0500 J0.0000 F1999.80
G2 X131.7100 Y255.4000 Z1.5357 I-0.0500 J0.0000 F1999.80
G2 X131.8100 Y255.4000 Z1.3429 I0.0500 J0.0000 F1999.80
G2 X131.7100 Y255.4000 Z1.1500 I-0.0500 J0.0000 F1999.80
G2 X131.8100 Y255.4000 Z0.9571 I0.0500 J0.0000 F1999.80
G2 X131.7100 Y255.4000 Z0.7643 I-0.0500 J0.0000 F1999.80
G2 X131.8100 Y255.4000 Z0.5714 I0.0500 J0.0000 F1999.80
G2 X131.7100 Y255.4000 Z0.3786 I-0.0500 J0.0000 F1999.80
G2 X131.8100 Y255.4000 Z0.1857 I0.0500 J0.0000 F1999.80
G2 X131.7100 Y255.4000 Z-0.0071 I-0.0500 J0.0000 F1999.80
G2 X131.8100 Y255.4000 Z-0.2000 I0.0500 J0.0000 F1999.80
G2 X131.7100 Y255.4000 Z-0.2000 I-0.0500 J0.0000 F1999.80
G2 X131.8100 Y255.4000 Z-0.2000 I0.0500 J0.0000 F1999.80
G0 Z8.0000
G0 X158.6100 Y255.4000
G0 Z8.0000
G1 Z5.2000 F999.60
G2 X158.5100 Y255.4000 Z5.0071 I-0.0500 J0.0000 F1999.80
G2 X158.6100 Y255.4000 Z4.8143 I0.0500 J0.0000 F1999.80
G2 X158.5100 Y255.4000 Z4.6214 I-0.0500 J0.0000 F1999.80
G2 X158.6100 Y255.4000 Z4.4286 I0.0500 J0.0000 F1999.80
G2 X158.5100 Y255.4000 Z4.2357 I-0.0500 J0.0000 F1999.80
G2 X158.6100 Y255.4000 Z4.0429 I0.0500 J0.0000 F1999.80
G2 X158.5100 Y255.4000 Z3.8500 I-0.0500 J0.0000 F1999.80
G2 X158.6100 Y255.4000 Z3.6571 I0.0500 J0.0000 F1999.80
G2 X158.5100 Y255.4000 Z3.4643 I-0.0500 J0.0000 F1999.80
G2 X158.6100 Y255.4000 Z3.2714 I0.0500 J0.0000 F1999.80
G2 X158.5100 Y255.4000 Z3.0786 I-0.0500 J0.0000 F1999.80
G2 X158.6100 Y255.4000 Z2.8857 I0.0500 J0.0000 F1999.80
G2 X158.5100 Y255.4000 Z2.6929 I-0.0500 J0.0000 F1999.80
G2 X158.6100 Y255.4000 Z2.5000 I0.0500 J0.0000 F1999.80
G2 X158.5100 Y255.4000 Z2.3071 I-0.0500 J0.0000 F1999.80
G2 X158.6100 Y255.4000 Z2.1143 I0.0500 J0.0000 F1999.80
G2 X158.5100 Y255.4000 Z1.9214 I-0.0500 J0.0000 F1999.80
G2 X158.6100 Y255.4000 Z1.7286 I0.0500 J0.0000 F1999.80
G2 X158.5100 Y255.4000 Z1.5357 I-0.0500 J0.0000 F1999.80
G2 X158.6100 Y255.4000 Z1.3429 I0.0500 J0.0000 F1999.80
G2 X158.5100 Y255.4000 Z1.1500 I-0.0500 J0.0000 F1999.80
G2 X158.6100 Y255.4000 Z0.9571 I0.0500 J0.0000 F1999.80
G2 X158.5100 Y255.4000 Z0.7643 I-0.0500 J0.0000 F1999.80
G2 X158.6100 Y255.4000 Z0.5714 I0.0500 J0.0000 F1999.80
G2 X158.5100 Y255.4000 Z0.3786 I-0.0500 J0.0000 F1999.80
G2 X158.6100 Y255.4000 Z0.1857 I0.0500 J0.0000 F1999.80
G2 X158.5100 Y255.4000 Z-0.0071 I-0.0500 J0.0000 F1999.80
G2 X158.6100 Y255.4000 Z-0.2000 I0.0500 J0.0000 F1999.80
G2 X158.5100 Y255.4000 Z-0.2000 I-0.0500 J0.0000 F1999.80
G2 X158.6100 Y255.4000 Z-0.2000 I0.0500 J0.0000 F1999.80
G0 Z8.0000
G0 X158.6100 Y188.6000
G0 Z8.0000
G1 Z5.2000 F999.60
G2 X158.5100 Y188.6000 Z5.0071 I-0.0500 J0.0000 F1999.80
G2 X158.6100 Y188.6000 Z4.8143 I0.0500 J0.0000 F1999.80
G2 X158.5100 Y188.6000 Z4.6214 I-0.0500 J0.0000 F1999.80
G2 X158.6100 Y188.6000 Z4.4286 I0.0500 J0.0000 F1999.80
G2 X158.5100 Y188.6000 Z4.2357 I-0.0500 J0.0000 F1999.80
G2 X158.6100 Y188.6000 Z4.0429 I0.0500 J0.0000 F1999.80
G2 X158.5100 Y188.6000 Z3.8500 I-0.0500 J0.0000 F1999.80
G2 X158.6100 Y188.6000 Z3.6571 I0.0500 J0.0000 F1999.80
G2 X158.5100 Y188.6000 Z3.4643 I-0.0500 J0.0000 F1999.80
G2 X158.6100 Y188.6000 Z3.2714 I0.0500 J0.0000 F1999.80
G2 X158.5100 Y188.6000 Z3.0786 I-0.0500 J0.0000 F1999.80
G2 X158.6100 Y188.6000 Z2.8857 I0.0500 J0.0000 F1999.80
G2 X158.5100 Y188.6000 Z2.6929 I-0.0500 J0.0000 F1999.80
G2 X158.6100 Y188.6000 Z2.5000 I0.0500 J0.0000 F1999.80
G2 X158.5100 Y188.6000 Z2.3071 I-0.0500 J0.0000 F1999.80
G2 X158.6100 Y188.6000 Z2.1143 I0.0500 J0.0000 F1999.80
G2 X158.5100 Y188.6000 Z1.9214 I-0.0500 J0.0000 F1999.80
G2 X158.6100 Y188.6000 Z1.7286 I0.0500 J0.0000 F1999.80
G2 X158.5100 Y188.6000 Z1.5357 I-0.0500 J0.0000 F1999.80
G2 X158.6100 Y188.6000 Z1.3429 I0.0500 J0.0000 F1999.80
G2 X158.5100 Y188.6000 Z1.1500 I-0.0500 J0.0000 F1999.80
G2 X158.6100 Y188.6000 Z0.9571 I0.0500 J0.0000 F1999.80
G2 X158.5100 Y188.6000 Z0.7643 I-0.0500 J0.0000 F1999.80
G2 X158.6100 Y188.6000 Z0.5714 I0.0500 J0.0000 F1999.80
G2 X158.5100 Y188.6000 Z0.3786 I-0.0500 J0.0000 F1999.80
G2 X158.6100 Y188.6000 Z0.1857 I0.0500 J0.0000 F1999.80
G2 X158.5100 Y188.6000 Z-0.0071 I-0.0500 J0.0000 F1999.80
G2 X158.6100 Y188.6000 Z-0.2000 I0.0500 J0.0000 F1999.80
G2 X158.5100 Y188.6000 Z-0.2000 I-0.0500 J0.0000 F1999.80
G2 X158.6100 Y188.6000 Z-0.2000 I0.0500 J0.0000 F1999.80
G0 Z8.0000
G0 X131.8100 Y188.6000
G0 Z8.0000
G1 Z5.2000 F999.60
G2 X131.7100 Y188.6000 Z5.0071 I-0.0500 J0.0000 F1999.80
G2 X131.8100 Y188.6000 Z4.8143 I0.0500 J0.0000 F1999.80
G2 X131.7100 Y188.6000 Z4.6214 I-0.0500 J0.0000 F1999.80
G2 X131.8100 Y188.6000 Z4.4286 I0.0500 J0.0000 F1999.80
G2 X131.7100 Y188.6000 Z4.2357 I-0.0500 J0.0000 F1999.80
G2 X131.8100 Y188.6000 Z4.0429 I0.0500 J0.0000 F1999.80
G2 X131.7100 Y188.6000 Z3.8500 I-0.0500 J0.0000 F1999.80
G2 X131.8100 Y188.6000 Z3.6571 I0.0500 J0.0000 F1999.80
G2 X131.7100 Y188.6000 Z3.4643 I-0.0500 J0.0000 F1999.80
G2 X131.8100 Y188.6000 Z3.2714 I0.0500 J0.0000 F1999.80
G2 X131.7100 Y188.6000 Z3.0786 I-0.0500 J0.0000 F1999.80
G2 X131.8100 Y188.6000 Z2.8857 I0.0500 J0.0000 F1999.80
G2 X131.7100 Y188.6000 Z2.6929 I-0.0500 J0.0000 F1999.80
G2 X131.8100 Y188.6000 Z2.5000 I0.0500 J0.0000 F1999.80
G2 X131.7100 Y188.6000 Z2.3071 I-0.0500 J0.0000 F1999.80
G2 X131.8100 Y188.6000 Z2.1143 I0.0500 J0.0000 F1999.80
G2 X131.7100 Y188.6000 Z1.9214 I-0.0500 J0.0000 F1999.80
G2 X131.8100 Y188.6000 Z1.7286 I0.0500 J0.0000 F1999.80
G2 X131.7100 Y188.6000 Z1.5357 I-0.0500 J0.0000 F1999.80
G2 X131.8100 Y188.6000 Z1.3429 I0.0500 J0.0000 F1999.80
G2 X131.7100 Y188.6000 Z1.1500 I-0.0500 J0.0000 F1999.80
G2 X131.8100 Y188.6000 Z0.9571 I0.0500 J0.0000 F1999.80
G2 X131.7100 Y188.6000 Z0.7643 I-0.0500 J0.0000 F1999.80
G2 X131.8100 Y188.6000 Z0.5714 I0.0500 J0.0000 F1999.80
G2 X131.7100 Y188.6000 Z0.3786 I-0.0500 J0.0000 F1999.80
G2 X131.8100 Y188.6000 Z0.1857 I0.0500 J0.0000 F1999.80
G2 X131.7100 Y188.6000 Z-0.0071 I-0.0500 J0.0000 F1999.80
G2 X131.8100 Y188.6000 Z-0.2000 I0.0500 J0.0000 F1999.80
G2 X131.7100 Y188.6000 Z-0.2000 I-0.0500 J0.0000 F1999.80
G2 X131.8100 Y188.6000 Z-0.2000 I0.0500 J0.0000 F1999.80
G0 Z8.0000
G0 X26.5600 Y175.2500
G0 Z8.0000
G1 Z5.2000 F999.60
G2 X26.4600 Y175.2500 Z5.0071 I-0.0500 J0.0000 F1999.80
G2 X26.5600 Y175.2500 Z4.8143 I0.0500 J0.0000 F1999.80
G2 X26.4600 Y175.2500 Z4.6214 I-0.0500 J0.0000 F1999.80
G2 X26.5600 Y175.2500 Z4.4286 I0.0500 J0.0000 F1999.80
G2 X26.4600 Y175.2500 Z4.2357 I-0.0500 J0.0000 F1999.80
G2 X26.5600 Y175.2500 Z4.0429 I0.0500 J0.0000 F1999.80
G2 X26.4600 Y175.2500 Z3.8500 I-0.0500 J0.0000 F1999.80
G2 X26.5600 Y175.2500 Z3.6571 I0.0500 J0.0000 F1999.80
G2 X26.4600 Y175.2500 Z3.4643 I-0.0500 J0.0000 F1999.80
G2 X26.5600 Y175.2500 Z3.2714 I0.0500 J0.0000 F1999.80
G2 X26.4600 Y175.2500 Z3.0786 I-0.0500 J0.0000 F1999.80
G2 X26.5600 Y175.2500 Z2.8857 I0.0500 J0.0000 F1999.80
G2 X26.4600 Y175.2500 Z2.6929 I-0.0500 J0.0000 F1999.80
G2 X26.5600 Y175.2500 Z2.5000 I0.0500 J0.0000 F1999.80
G2 X26.4600 Y175.2500 Z2.3071 I-0.0500 J0.0000 F1999.80
G2 X26.5600 Y175.2500 Z2.1143 I0.0500 J0.0000 F1999.80
G2 X26.4600 Y175.2500 Z1.9214 I-0.0500 J0.0000 F1999.80
G2 X26.5600 Y175.2500 Z1.7286 I0.0500 J0.0000 F1999.80
G2 X26.4600 Y175.2500 Z1.5357 I-0.0500 J0.0000 F1999.80
G2 X26.5600 Y175.2500 Z1.3429 I0.0500 J0.0000 F1999.80
G2 X26.4600 Y175.2500 Z1.1500 I-0.0500 J0.0000 F1999.80
G2 X26.5600 Y175.2500 Z0.9571 I0.0500 J0.0000 F1999.80
G2 X26.4600 Y175.2500 Z0.7643 I-0.0500 J0.0000 F1999.80
G2 X26.5600 Y175.2500 Z0.5714 I0.0500 J0.0000 F1999.80
G2 X26.4600 Y175.2500 Z0.3786 I-0.0500 J0.0000 F1999.80
G2 X26.5600 Y175.2500 Z0.1857 I0.0500 J0.0000 F1999.80
G2 X26.4600 Y175.2500 Z-0.0071 I-0.0500 J0.0000 F1999.80
G2 X26.5600 Y175.2500 Z-0.2000 I0.0500 J0.0000 F1999.80
G2 X26.4600 Y175.2500 Z-0.2000 I-0.0500 J0.0000 F1999.80
G2 X26.5600 Y175.2500 Z-0.2000 I0.0500 J0.0000 F1999.80
G0 Z8.0000
G0 X62.1200 Y175.2500
G0 Z8.0000
G1 Z5.2000 F999.60
G2 X62.0200 Y175.2500 Z5.0071 I-0.0500 J0.0000 F1999.80
G2 X62.1200 Y175.2500 Z4.8143 I0.0500 J0.0000 F1999.80
G2 X62.0200 Y175.2500 Z4.6214 I-0.0500 J0.0000 F1999.80
G2 X62.1200 Y175.2500 Z4.4286 I0.0500 J0.0000 F1999.80
G2 X62.0200 Y175.2500 Z4.2357 I-0.0500 J0.0000 F1999.80
G2 X62.1200 Y175.2500 Z4.0429 I0.0500 J0.0000 F1999.80
G2 X62.0200 Y175.2500 Z3.8500 I-0.0500 J0.0000 F1999.80
G2 X62.1200 Y175.2500 Z3.6571 I0.0500 J0.0000 F1999.80
G2 X62.0200 Y175.2500 Z3.4643 I-0.0500 J0.0000 F1999.80
G2 X62.1200 Y175.2500 Z3.2714 I0.0500 J0.0000 F1999.80
G2 X62.0200 Y175.2500 Z3.0786 I-0.0500 J0.0000 F1999.80
G2 X62.1200 Y175.2500 Z2.8857 I0.0500 J0.0000 F1999.80
G2 X62.0200 Y175.2500 Z2.6929 I-0.0500 J0.0000 F1999.80
G2 X62.1200 Y175.2500 Z2.5000 I0.0500 J0.0000 F1999.80
G2 X62.0200 Y175.2500 Z2.3071 I-0.0500 J0.0000 F1999.80
G2 X62.1200 Y175.2500 Z2.1143 I0.0500 J0.0000 F1999.80
G2 X62.0200 Y175.2500 Z1.9214 I-0.0500 J0.0000 F1999.80
G2 X62.1200 Y175.2500 Z1.7286 I0.0500 J0.0000 F1999.80
G2 X62.0200 Y175.2500 Z1.5357 I-0.0500 J0.0000 F1999.80
G2 X62.1200 Y175.2500 Z1.3429 I0.0500 J0.0000 F1999.80
G2 X62.0200 Y175.2500 Z1.1500 I-0.0500 J0.0000 F1999.80
G2 X62.1200 Y175.2500 Z0.9571 I0.0500 J0.0000 F1999.80
G2 X62.0200 Y175.2500 Z0.7643 I-0.0500 J0.0000 F1999.80
G2 X62.1200 Y175.2500 Z0.5714 I0.0500 J0.0000 F1999.80
G2 X62.0200 Y175.2500 Z0.3786 I-0.0500 J0.0000 F1999.80
G2 X62.1200 Y175.2500 Z0.1857 I0.0500 J0.0000 F1999.80
G2 X62.0200 Y175.2500 Z-0.0071 I-0.0500 J0.0000 F1999.80
G2 X62.1200 Y175.2500 Z-0.2000 I0.0500 J0.0000 F1999.80
G2 X62.0200 Y175.2500 Z-0.2000 I-0.0500 J0.0000 F1999.80
G2 X62.1200 Y175.2500 Z-0.2000 I0.0500 J0.0000 F1999.80
G0 Z8.0000
G0 X98.9500 Y175.2500
G0 Z8.0000
G1 Z5.2000 F999.60
G2 X98.8500 Y175.2500 Z5.0071 I-0.0500 J0.0000 F1999.80
G2 X98.9500 Y175.2500 Z4.8143 I0.0500 J0.0000 F1999.80
G2 X98.8500 Y175.2500 Z4.6214 I-0.0500 J0.0000 F1999.80
G2 X98.9500 Y175.2500 Z4.4286 I0.0500 J0.0000 F1999.80
G2 X98.8500 Y175.2500 Z4.2357 I-0.0500 J0.0000 F1999.80
G2 X98.9500 Y175.2500 Z4.0429 I0.0500 J0.0000 F1999.80
G2 X98.8500 Y175.2500 Z3.8500 I-0.0500 J0.0000 F1999.80
G2 X98.9500 Y175.2500 Z3.6571 I0.0500 J0.0000 F1999.80
G2 X98.8500 Y175.2500 Z3.4643 I-0.0500 J0.0000 F1999.80
G2 X98.9500 Y175.2500 Z3.2714 I0.0500 J0.0000 F1999.80
G2 X98.8500 Y175.2500 Z3.0786 I-0.0500 J0.0000 F1999.80
G2 X98.9500 Y175.2500 Z2.8857 I0.0500 J0.0000 F1999.80
G2 X98.8500 Y175.2500 Z2.6929 I-0.0500 J0.0000 F1999.80
G2 X98.9500 Y175.2500 Z2.5000 I0.0500 J0.0000 F1999.80
G2 X98.8500 Y175.2500 Z2.3071 I-0.0500 J0.0000 F1999.80
G2 X98.9500 Y175.2500 Z2.1143 I0.0500 J0.0000 F1999.80
G2 X98.8500 Y175.2500 Z1.9214 I-0.0500 J0.0000 F1999.80
G2 X98.9500 Y175.2500 Z1.7286 I0.0500 J0.0000 F1999.80
G2 X98.8500 Y175.2500 Z1.5357 I-0.0500 J0.0000 F1999.80
G2 X98.9500 Y175.2500 Z1.3429 I0.0500 J0.0000 F1999.80
G2 X98.8500 Y175.2500 Z1.1500 I-0.0500 J0.0000 F1999.80
G2 X98.9500 Y175.2500 Z0.9571 I0.0500 J0.0000 F1999.80
G2 X98.8500 Y175.2500 Z0.7643 I-0.0500 J0.0000 F1999.80
G2 X98.9500 Y175.2500 Z0.5714 I0.0500 J0.0000 F1999.80
G2 X98.8500 Y175.2500 Z0.3786 I-0.0500 J0.0000 F1999.80
G2 X98.9500 Y175.2500 Z0.1857 I0.0500 J0.0000 F1999.80
G2 X98.8500 Y175.2500 Z-0.0071 I-0.0500 J0.0000 F1999.80
G2 X98.9500 Y175.2500 Z-0.2000 I0.0500 J0.0000 F1999.80
G2 X98.8500 Y175.2500 Z-0.2000 I-0.0500 J0.0000 F1999.80
G2 X98.9500 Y175.2500 Z-0.2000 I0.0500 J0.0000 F1999.80
G0 Z8.0000
G0 X98.9500 Y96.5100
G0 Z8.0000
G1 Z5.2000 F999.60
G2 X98.8500 Y96.5100 Z5.0071 I-0.0500 J0.0000 F1999.80
G2 X98.9500 Y96.5100 Z4.8143 I0.0500 J0.0000 F1999.80
G2 X98.8500 Y96.5100 Z4.6214 I-0.0500 J0.0000 F1999.80
G2 X98.9500 Y96.5100 Z4.4286 I0.0500 J0.0000 F1999.80
G2 X98.8500 Y96.5100 Z4.2357 I-0.0500 J0.0000 F1999.80
G2 X98.9500 Y96.5100 Z4.0429 I0.0500 J0.0000 F1999.80
G2 X98.8500 Y96.5100 Z3.8500 I-0.0500 J0.0000 F1999.80
G2 X98.9500 Y96.5100 Z3.6571 I0.0500 J0.0000 F1999.80
G2 X98.8500 Y96.5100 Z3.4643 I-0.0500 J0.0000 F1999.80
G2 X98.9500 Y96.5100 Z3.2714 I0.0500 J0.0000 F1999.80
G2 X98.8500 Y96.5100 Z3.0786 I-0.0500 J0.0000 F1999.80
G2 X98.9500 Y96.5100 Z2.8857 I0.0500 J0.0000 F1999.80
G2 X98.8500 Y96.5100 Z2.6929 I-0.0500 J0.0000 F1999.80
G2 X98.9500 Y96.5100 Z2.5000 I0.0500 J0.0000 F1999.80
G2 X98.8500 Y96.5100 Z2.3071 I-0.0500 J0.0000 F1999.80
G2 X98.9500 Y96.5100 Z2.1143 I0.0500 J0.0000 F1999.80
G2 X98.8500 Y96.5100 Z1.9214 I-0.0500 J0.0000 F1999.80
G2 X98.9500 Y96.5100 Z1.7286 I0.0500 J0.0000 F1999.80
G2 X98.8500 Y96.5100 Z1.5357 I-0.0500 J0.0000 F1999.80
G2 X98.9500 Y96.5100 Z1.3429 I0.0500 J0.0000 F1999.80
G2 X98.8500 Y96.5100 Z1.1500 I-0.0500 J0.0000 F1999.80
G2 X98.9500 Y96.5100 Z0.9571 I0.0500 J0.0000 F1999.80
G2 X98.8500 Y96.5100 Z0.7643 I-0.0500 J0.0000 F1999.80
G2 X98.9500 Y96.5100 Z0.5714 I0.0500 J0.0000 F1999.80
G2 X98.8500 Y96.5100 Z0.3786 I-0.0500 J0.0000 F1999.80
G2 X98.9500 Y96.5100 Z0.1857 I0.0500 J0.0000 F1999.80
G2 X98.8500 Y96.5100 Z-0.0071 I-0.0500 J0.0000 F1999.80
G2 X98.9500 Y96.5100 Z-0.2000 I0.0500 J0.0000 F1999.80
G2 X98.8500 Y96.5100 Z-0.2000 I-0.0500 J0.0000 F1999.80
G2 X98.9500 Y96.5100 Z-0.2000 I0.0500 J0.0000 F1999.80
G0 Z8.0000
G0 X62.1200 Y96.5100
G0 Z8.0000
G1 Z5.2000 F999.60
G2 X62.0200 Y96.5100 Z5.0071 I-0.0500 J0.0000 F1999.80
G2 X62.1200 Y96.5100 Z4.8143 I0.0500 J0.0000 F1999.80
G2 X62.0200 Y96.5100 Z4.6214 I-0.0500 J0.0000 F1999.80
G2 X62.1200 Y96.5100 Z4.4286 I0.0500 J0.0000 F1999.80
G2 X62.0200 Y96.5100 Z4.2357 I-0.0500 J0.0000 F1999.80
G2 X62.1200 Y96.5100 Z4.0429 I0.0500 J0.0000 F1999.80
G2 X62.0200 Y96.5100 Z3.8500 I-0.0500 J0.0000 F1999.80
G2 X62.1200 Y96.5100 Z3.6571 I0.0500 J0.0000 F1999.80
G2 X62.0200 Y96.5100 Z3.4643 I-0.0500 J0.0000 F1999.80
G2 X62.1200 Y96.5100 Z3.2714 I0.0500 J0.0000 F1999.80
G2 X62.0200 Y96.5100 Z3.0786 I-0.0500 J0.0000 F1999.80
G2 X62.1200 Y96.5100 Z2.8857 I0.0500 J0.0000 F1999.80
G2 X62.0200 Y96.5100 Z2.6929 I-0.0500 J0.0000 F1999.80
G2 X62.1200 Y96.5100 Z2.5000 I0.0500 J0.0000 F1999.80
G2 X62.0200 Y96.5100 Z2.3071 I-0.0500 J0.0000 F1999.80
G2 X62.1200 Y96.5100 Z2.1143 I0.0500 J0.0000 F1999.80
G2 X62.0200 Y96.5100 Z1.9214 I-0.0500 J0.0000 F1999.80
G2 X62.1200 Y96.5100 Z1.7286 I0.0500 J0.0000 F1999.80
G2 X62.0200 Y96.5100 Z1.5357 I-0.0500 J0.0000 F1999.80
G2 X62.1200 Y96.5100 Z1.3429 I0.0500 J0.0000 F1999.80
G2 X62.0200 Y96.5100 Z1.1500 I-0.0500 J0.0000 F1999.80
G2 X62.1200 Y96.5100 Z0.9571 I0.0500 J0.0000 F1999.80
G2 X62.0200 Y96.5100 Z0.7643 I-0.0500 J0.0000 F1999.80
G2 X62.1200 Y96.5100 Z0.5714 I0.0500 J0.0000 F1999.80
G2 X62.0200 Y96.5100 Z0.3786 I-0.0500 J0.0000 F1999.80
G2 X62.1200 Y96.5100 Z0.1857 I0.0500 J0.0000 F1999.80
G2 X62.0200 Y96.5100 Z-0.0071 I-0.0500 J0.0000 F1999.80
G2 X62.1200 Y96.5100 Z-0.2000 I0.0500 J0.0000 F1999.80
G2 X62.0200 Y96.5100 Z-0.2000 I-0.0500 J0.0000 F1999.80
G2 X62.1200 Y96.5100 Z-0.2000 I0.0500 J0.0000 F1999.80
G0 Z8.0000
G0 X26.5600 Y96.5100
G0 Z8.0000
G1 Z5.2000 F999.60
G2 X26.4600 Y96.5100 Z5.0071 I-0.0500 J0.0000 F1999.80
G2 X26.5600 Y96.5100 Z4.8143 I0.0500 J0.0000 F1999.80
G2 X26.4600 Y96.5100 Z4.6214 I-0.0500 J0.0000 F1999.80
G2 X26.5600 Y96.5100 Z4.4286 I0.0500 J0.0000 F1999.80
G2 X26.4600 Y96.5100 Z4.2357 I-0.0500 J0.0000 F1999.80
G2 X26.5600 Y96.5100 Z4.0429 I0.0500 J0.0000 F1999.80
G2 X26.4600 Y96.5100 Z3.8500 I-0.0500 J0.0000 F1999.80
G2 X26.5600 Y96.5100 Z3.6571 I0.0500 J0.0000 F1999.80
G2 X26.4600 Y96.5100 Z3.4643 I-0.0500 J0.0000 F1999.80
G2 X26.5600 Y96.5100 Z3.2714 I0.0500 J0.0000 F1999.80
G2 X26.4600 Y96.5100 Z3.0786 I-0.0500 J0.0000 F1999.80
G2 X26.5600 Y96.5100 Z2.8857 I0.0500 J0.0000 F1999.80
G2 X26.4600 Y96.5100 Z2.6929 I-0.0500 J0.0000 F1999.80
G2 X26.5600 Y96.5100 Z2.5000 I0.0500 J0.0000 F1999.80
G2 X26.4600 Y96.5100 Z2.3071 I-0.0500 J0.0000 F1999.80
G2 X26.5600 Y96.5100 Z2.1143 I0.0500 J0.0000 F1999.80
G2 X26.4600 Y96.5100 Z1.9214 I-0.0500 J0.0000 F1999.80
G2 X26.5600 Y96.5100 Z1.7286 I0.0500 J0.0000 F1999.80
G2 X26.4600 Y96.5100 Z1.5357 I-0.0500 J0.0000 F1999.80
G2 X26.5600 Y96.5100 Z1.3429 I0.0500 J0.0000 F1999.80
G2 X26.4600 Y96.5100 Z1.1500 I-0.0500 J0.0000 F1999.80
G2 X26.5600 Y96.5100 Z0.9571 I0.0500 J0.0000 F1999.80
G2 X26.4600 Y96.5100 Z0.7643 I-0.0500 J0.0000 F1999.80
G2 X26.5600 Y96.5100 Z0.5714 I0.0500 J0.0000 F1999.80
G2 X26.4600 Y96.5100 Z0.3786 I-0.0500 J0.0000 F1999.80
G2 X26.5600 Y96.5100 Z0.1857 I0.0500 J0.0000 F1999.80
G2 X26.4600 Y96.5100 Z-0.0071 I-0.0500 J0.0000 F1999.80
G2 X26.5600 Y96.5100 Z-0.2000 I0.0500 J0.0000 F1999.80
G2 X26.4600 Y96.5100 Z-0.2000 I-0.0500 J0.0000 F1999.80
G2 X26.5600 Y96.5100 Z-0.2000 I0.0500 J0.0000 F1999.80
G0 Z8.0000
G0 Z10.0000
(finish operation: Through_Holes_Path)
(begin operation: Counterbore_Path)
(Path: Counterbore_Path)
(Counterbore_Path)
(helix cut operation)
G0 Z10.0000
G0 X13.0900 Y333.2600
G0 Z8.0000
G1 Z5.2000 F999.60
G2 X10.0900 Y333.2600 Z5.0167 I-1.5000 J0.0000 F1999.80
G2 X13.0900 Y333.2600 Z4.8333 I1.5000 J0.0000 F1999.80
G2 X10.0900 Y333.2600 Z4.6500 I-1.5000 J0.0000 F1999.80
G2 X13.0900 Y333.2600 Z4.4667 I1.5000 J0.0000 F1999.80
G2 X10.0900 Y333.2600 Z4.2833 I-1.5000 J0.0000 F1999.80
G2 X13.0900 Y333.2600 Z4.1000 I1.5000 J0.0000 F1999.80
G2 X10.0900 Y333.2600 Z3.9167 I-1.5000 J0.0000 F1999.80
G2 X13.0900 Y333.2600 Z3.7333 I1.5000 J0.0000 F1999.80
G2 X10.0900 Y333.2600 Z3.5500 I-1.5000 J0.0000 F1999.80
G2 X13.0900 Y333.2600 Z3.3667 I1.5000 J0.0000 F1999.80
G2 X10.0900 Y333.2600 Z3.1833 I-1.5000 J0.0000 F1999.80
G2 X13.0900 Y333.2600 Z3.0000 I1.5000 J0.0000 F1999.80
G2 X10.0900 Y333.2600 Z3.0000 I-1.5000 J0.0000 F1999.80
G2 X13.0900 Y333.2600 Z3.0000 I1.5000 J0.0000 F1999.80
G0 Z8.0000
G0 X37.2200 Y318.0200
G0 Z8.0000
G1 Z5.2000 F999.60
G2 X34.2200 Y318.0200 Z5.0167 I-1.5000 J0.0000 F1999.80
G2 X37.2200 Y318.0200 Z4.8333 I1.5000 J0.0000 F1999.80
G2 X34.2200 Y318.0200 Z4.6500 I-1.5000 J0.0000 F1999.80
G2 X37.2200 Y318.0200 Z4.4667 I1.5000 J0.0000 F1999.80
G2 X34.2200 Y318.0200 Z4.2833 I-1.5000 J0.0000 F1999.80
G2 X37.2200 Y318.0200 Z4.1000 I1.5000 J0.0000 F1999.80
G2 X34.2200 Y318.0200 Z3.9167 I-1.5000 J0.0000 F1999.80
G2 X37.2200 Y318.0200 Z3.7333 I1.5000 J0.0000 F1999.80
G2 X34.2200 Y318.0200 Z3.5500 I-1.5000 J0.0000 F1999.80
G2 X37.2200 Y318.0200 Z3.3667 I1.5000 J0.0000 F1999.80
G2 X34.2200 Y318.0200 Z3.1833 I-1.5000 J0.0000 F1999.80
G2 X37.2200 Y318.0200 Z3.0000 I1.5000 J0.0000 F1999.80
G2 X34.2200 Y318.0200 Z3.0000 I-1.5000 J0.0000 F1999.80
G2 X37.2200 Y318.0200 Z3.0000 I1.5000 J0.0000 F1999.80
G0 Z8.0000
G0 X37.2200 Y290.0800
G0 Z8.0000
G1 Z5.2000 F999.60
G2 X34.2200 Y290.0800 Z5.0167 I-1.5000 J0.0000 F1999.80
G2 X37.2200 Y290.0800 Z4.8333 I1.5000 J0.0000 F1999.80
G2 X34.2200 Y290.0800 Z4.6500 I-1.5000 J0.0000 F1999.80
G2 X37.2200 Y290.0800 Z4.4667 I1.5000 J0.0000 F1999.80
G2 X34.2200 Y290.0800 Z4.2833 I-1.5000 J0.0000 F1999.80
G2 X37.2200 Y290.0800 Z4.1000 I1.5000 J0.0000 F1999.80
G2 X34.2200 Y290.0800 Z3.9167 I-1.5000 J0.0000 F1999.80
G2 X37.2200 Y290.0800 Z3.7333 I1.5000 J0.0000 F1999.80
G2 X34.2200 Y290.0800 Z3.5500 I-1.5000 J0.0000 F1999.80
G2 X37.2200 Y290.0800 Z3.3667 I1.5000 J0.0000 F1999.80
G2 X34.2200 Y290.0800 Z3.1833 I-1.5000 J0.0000 F1999.80
G2 X37.2200 Y290.0800 Z3.0000 I1.5000 J0.0000 F1999.80
G2 X34.2200 Y290.0800 Z3.0000 I-1.5000 J0.0000 F1999.80
G2 X37.2200 Y290.0800 Z3.0000 I1.5000 J0.0000 F1999.80
G0 Z8.0000
G0 X6.7400 Y285.0000
G0 Z8.0000
G1 Z5.2000 F999.60
G2 X3.7400 Y285.0000 Z5.0167 I-1.5000 J0.0000 F1999.80
G2 X6.7400 Y285.0000 Z4.8333 I1.5000 J0.0000 F1999.80
G2 X3.7400 Y285.0000 Z4.6500 I-1.5000 J0.0000 F1999.80
G2 X6.7400 Y285.0000 Z4.4667 I1.5000 J0.0000 F1999.80
G2 X3.7400 Y285.0000 Z4.2833 I-1.5000 J0.0000 F1999.80
G2 X6.7400 Y285.0000 Z4.1000 I1.5000 J0.0000 F1999.80
G2 X3.7400 Y285.0000 Z3.9167 I-1.5000 J0.0000 F1999.80
G2 X6.7400 Y285.0000 Z3.7333 I1.5000 J0.0000 F1999.80
G2 X3.7400 Y285.0000 Z3.5500 I-1.5000 J0.0000 F1999.80
G2 X6.7400 Y285.0000 Z3.3667 I1.5000 J0.0000 F1999.80
G2 X3.7400 Y285.0000 Z3.1833 I-1.5000 J0.0000 F1999.80
G2 X6.7400 Y285.0000 Z3.0000 I1.5000 J0.0000 F1999.80
G2 X3.7400 Y285.0000 Z3.0000 I-1.5000 J0.0000 F1999.80
G2 X6.7400 Y285.0000 Z3.0000 I1.5000 J0.0000 F1999.80
G0 Z8.0000
G0 X88.0200 Y333.2600
G0 Z8.0000
G1 Z5.2000 F999.60
G2 X85.0200 Y333.2600 Z5.0167 I-1.5000 J0.0000 F1999.80
G2 X88.0200 Y333.2600 Z4.8333 I1.5000 J0.0000 F1999.80
G2 X85.0200 Y333.2600 Z4.6500 I-1.5000 J0.0000 F1999.80
G2 X88.0200 Y333.2600 Z4.4667 I1.5000 J0.0000 F1999.80
G2 X85.0200 Y333.2600 Z4.2833 I-1.5000 J0.0000 F1999.80
G2 X88.0200 Y333.2600 Z4.1000 I1.5000 J0.0000 F1999.80
G2 X85.0200 Y333.2600 Z3.9167 I-1.5000 J0.0000 F1999.80
G2 X88.0200 Y333.2600 Z3.7333 I1.5000 J0.0000 F1999.80
G2 X85.0200 Y333.2600 Z3.5500 I-1.5000 J0.0000 F1999.80
G2 X88.0200 Y333.2600 Z3.3667 I1.5000 J0.0000 F1999.80
G2 X85.0200 Y333.2600 Z3.1833 I-1.5000 J0.0000 F1999.80
G2 X88.0200 Y333.2600 Z3.0000 I1.5000 J0.0000 F1999.80
G2 X85.0200 Y333.2600 Z3.0000 I-1.5000 J0.0000 F1999.80
G2 X88.0200 Y333.2600 Z3.0000 I1.5000 J0.0000 F1999.80
G0 Z8.0000
G0 X89.2900 Y285.0000
G0 Z8.0000
G1 Z5.2000 F999.60
G2 X86.2900 Y285.0000 Z5.0167 I-1.5000 J0.0000 F1999.80
G2 X89.2900 Y285.0000 Z4.8333 I1.5000 J0.0000 F1999.80
G2 X86.2900 Y285.0000 Z4.6500 I-1.5000 J0.0000 F1999.80
G2 X89.2900 Y285.0000 Z4.4667 I1.5000 J0.0000 F1999.80
G2 X86.2900 Y285.0000 Z4.2833 I-1.5000 J0.0000 F1999.80
G2 X89.2900 Y285.0000 Z4.1000 I1.5000 J0.0000 F1999.80
G2 X86.2900 Y285.0000 Z3.9167 I-1.5000 J0.0000 F1999.80
G2 X89.2900 Y285.0000 Z3.7333 I1.5000 J0.0000 F1999.80
G2 X86.2900 Y285.0000 Z3.5500 I-1.5000 J0.0000 F1999.80
G2 X89.2900 Y285.0000 Z3.3667 I1.5000 J0.0000 F1999.80
G2 X86.2900 Y285.0000 Z3.1833 I-1.5000 J0.0000 F1999.80
G2 X89.2900 Y285.0000 Z3.0000 I1.5000 J0.0000 F1999.80
G2 X86.2900 Y285.0000 Z3.0000 I-1.5000 J0.0000 F1999.80
G2 X89.2900 Y285.0000 Z3.0000 I1.5000 J0.0000 F1999.80
G0 Z8.0000
G0 X133.2600 Y255.4000
G0 Z8.0000
G1 Z5.2000 F999.60
G2 X130.2600 Y255.4000 Z5.0167 I-1.5000 J0.0000 F1999.80
G2 X133.2600 Y255.4000 Z4.8333 I1.5000 J0.0000 F1999.80
G2 X130.2600 Y255.4000 Z4.6500 I-1.5000 J0.0000 F1999.80
G2 X133.2600 Y255.4000 Z4.4667 I1.5000 J0.0000 F1999.80
G2 X130.2600 Y255.4000 Z4.2833 I-1.5000 J0.0000 F1999.80
G2 X133.2600 Y255.4000 Z4.1000 I1.5000 J0.0000 F1999.80
G2 X130.2600 Y255.4000 Z3.9167 I-1.5000 J0.0000 F1999.80
G2 X133.2600 Y255.4000 Z3.7333 I1.5000 J0.0000 F1999.80
G2 X130.2600 Y255.4000 Z3.5500 I-1.5000 J0.0000 F1999.80
G2 X133.2600 Y255.4000 Z3.3667 I1.5000 J0.0000 F1999.80
G2 X130.2600 Y255.4000 Z3.1833 I-1.5000 J0.0000 F1999.80
G2 X133.2600 Y255.4000 Z3.0000 I1.5000 J0.0000 F1999.80
G2 X130.2600 Y255.4000 Z3.0000 I-1.5000 J0.0000 F1999.80
G2 X133.2600 Y255.4000 Z3.0000 I1.5000 J0.0000 F1999.80
G0 Z8.0000
G0 X160.0600 Y255.4000
G0 Z8.0000
G1 Z5.2000 F999.60
G2 X157.0600 Y255.4000 Z5.0167 I-1.5000 J0.0000 F1999.80
G2 X160.0600 Y255.4000 Z4.8333 I1.5000 J0.0000 F1999.80
G2 X157.0600 Y255.4000 Z4.6500 I-1.5000 J0.0000 F1999.80
G2 X160.0600 Y255.4000 Z4.4667 I1.5000 J0.0000 F1999.80
G2 X157.0600 Y255.4000 Z4.2833 I-1.5000 J0.0000 F1999.80
G2 X160.0600 Y255.4000 Z4.1000 I1.5000 J0.0000 F1999.80
G2 X157.0600 Y255.4000 Z3.9167 I-1.5000 J0.0000 F1999.80
G2 X160.0600 Y255.4000 Z3.7333 I1.5000 J0.0000 F1999.80
G2 X157.0600 Y255.4000 Z3.5500 I-1.5000 J0.0000 F1999.80
G2 X160.0600 Y255.4000 Z3.3667 I1.5000 J0.0000 F1999.80
G2 X157.0600 Y255.4000 Z3.1833 I-1.5000 J0.0000 F1999.80
G2 X160.0600 Y255.4000 Z3.0000 I1.5000 J0.0000 F1999.80
G2 X157.0600 Y255.4000 Z3.0000 I-1.5000 J0.0000 F1999.80
G2 X160.0600 Y255.4000 Z3.0000 I1.5000 J0.0000 F1999.80
G0 Z8.0000
G0 X85.0600 Y228.4000
G0 Z8.0000
G1 Z5.2000 F999.60
G2 X82.0600 Y228.4000 Z5.0167 I-1.5000 J0.0000 F1999.80
G2 X85.0600 Y228.4000 Z4.8333 I1.5000 J0.0000 F1999.80
G2 X82.0600 Y228.4000 Z4.6500 I-1.5000 J0.0000 F1999.80
G2 X85.0600 Y228.4000 Z4.4667 I1.5000 J0.0000 F1999.80
G2 X82.0600 Y228.4000 Z4.2833 I-1.5000 J0.0000 F1999.80
G2 X85.0600 Y228.4000 Z4.1000 I1.5000 J0.0000 F1999.80
G2 X82.0600 Y228.4000 Z3.9167 I-1.5000 J0.0000 F1999.80
G2 X85.0600 Y228.4000 Z3.7333 I1.5000 J0.0000 F1999.80
G2 X82.0600 Y228.4000 Z3.5500 I-1.5000 J0.0000 F1999.80
G2 X85.0600 Y228.4000 Z3.3667 I1.5000 J0.0000 F1999.80
G2 X82.0600 Y228.4000 Z3.1833 I-1.5000 J0.0000 F1999.80
G2 X85.0600 Y228.4000 Z3.0000 I1.5000 J0.0000 F1999.80
G2 X82.0600 Y228.4000 Z3.0000 I-1.5000 J0.0000 F1999.80
G2 X85.0600 Y228.4000 Z3.0000 I1.5000 J0.0000 F1999.80
G0 Z8.0000
G0 X85.0600 Y201.6000
G0 Z8.0000
G1 Z5.2000 F999.60
G2 X82.0600 Y201.6000 Z5.0167 I-1.5000 J0.0000 F1999.80
G2 X85.0600 Y201.6000 Z4.8333 I1.5000 J0.0000 F1999.80
G2 X82.0600 Y201.6000 Z4.6500 I-1.5000 J0.0000 F1999.80
G2 X85.0600 Y201.6000 Z4.4667 I1.5000 J0.0000 F1999.80
G2 X82.0600 Y201.6000 Z4.2833 I-1.5000 J0.0000 F1999.80
G2 X85.0600 Y201.6000 Z4.1000 I1.5000 J0.0000 F1999.80
G2 X82.0600 Y201.6000 Z3.9167 I-1.5000 J0.0000 F1999.80
G2 X85.0600 Y201.6000 Z3.7333 I1.5000 J0.0000 F1999.80
G2 X82.0600 Y201.6000 Z3.5500 I-1.5000 J0.0000 F1999.80
G2 X85.0600 Y201.6000 Z3.3667 I1.5000 J0.0000 F1999.80
G2 X82.0600 Y201.6000 Z3.1833 I-1.5000 J0.0000 F1999.80
G2 X85.0600 Y201.6000 Z3.0000 I1.5000 J0.0000 F1999.80
G2 X82.0600 Y201.6000 Z3.0000 I-1.5000 J0.0000 F1999.80
G2 X85.0600 Y201.6000 Z3.0000 I1.5000 J0.0000 F1999.80
G0 Z8.0000
G0 X18.2600 Y228.4000
G0 Z8.0000
G1 Z5.2000 F999.60
G2 X15.2600 Y228.4000 Z5.0167 I-1.5000 J0.0000 F1999.80
G2 X18.2600 Y228.4000 Z4.8333 I1.5000 J0.0000 F1999.80
G2 X15.2600 Y228.4000 Z4.6500 I-1.5000 J0.0000 F1999.80
G2 X18.2600 Y228.4000 Z4.4667 I1.5000 J0.0000 F1999.80
G2 X15.2600 Y228.4000 Z4.2833 I-1.5000 J0.0000 F1999.80
G2 X18.2600 Y228.4000 Z4.1000 I1.5000 J0.0000 F1999.80
G2 X15.2600 Y228.4000 Z3.9167 I-1.5000 J0.0000 F1999.80
G2 X18.2600 Y228.4000 Z3.7333 I1.5000 J0.0000 F1999.80
G2 X15.2600 Y228.4000 Z3.5500 I-1.5000 J0.0000 F1999.80
G2 X18.2600 Y228.4000 Z3.3667 I1.5000 J0.0000 F1999.80
G2 X15.2600 Y228.4000 Z3.1833 I-1.5000 J0.0000 F1999.80
G2 X18.2600 Y228.4000 Z3.0000 I1.5000 J0.0000 F1999.80
G2 X15.2600 Y228.4000 Z3.0000 I-1.5000 J0.0000 F1999.80
G2 X18.2600 Y228.4000 Z3.0000 I1.5000 J0.0000 F1999.80
G0 Z8.0000
G0 X18.2600 Y201.6000
G0 Z8.0000
G1 Z5.2000 F999.60
G2 X15.2600 Y201.6000 Z5.0167 I-1.5000 J0.0000 F1999.80
G2 X18.2600 Y201.6000 Z4.8333 I1.5000 J0.0000 F1999.80
G2 X15.2600 Y201.6000 Z4.6500 I-1.5000 J0.0000 F1999.80
G2 X18.2600 Y201.6000 Z4.4667 I1.5000 J0.0000 F1999.80
G2 X15.2600 Y201.6000 Z4.2833 I-1.5000 J0.0000 F1999.80
G2 X18.2600 Y201.6000 Z4.1000 I1.5000 J0.0000 F1999.80
G2 X15.2600 Y201.6000 Z3.9167 I-1.5000 J0.0000 F1999.80
G2 X18.2600 Y201.6000 Z3.7333 I1.5000 J0.0000 F1999.80
G2 X15.2600 Y201.6000 Z3.5500 I-1.5000 J0.0000 F1999.80
G2 X18.2600 Y201.6000 Z3.3667 I1.5000 J0.0000 F1999.80
G2 X15.2600 Y201.6000 Z3.1833 I-1.5000 J0.0000 F1999.80
G2 X18.2600 Y201.6000 Z3.0000 I1.5000 J0.0000 F1999.80
G2 X15.2600 Y201.6000 Z3.0000 I-1.5000 J0.0000 F1999.80
G2 X18.2600 Y201.6000 Z3.0000 I1.5000 J0.0000 F1999.80
G0 Z8.0000
G0 X21.6600 Y163.5000
G0 Z8.0000
G1 Z5.2000 F999.60
G2 X18.6600 Y163.5000 Z5.0167 I-1.5000 J0.0000 F1999.80
G2 X21.6600 Y163.5000 Z4.8333 I1.5000 J0.0000 F1999.80
G2 X18.6600 Y163.5000 Z4.6500 I-1.5000 J0.0000 F1999.80
G2 X21.6600 Y163.5000 Z4.4667 I1.5000 J0.0000 F1999.80
G2 X18.6600 Y163.5000 Z4.2833 I-1.5000 J0.0000 F1999.80
G2 X21.6600 Y163.5000 Z4.1000 I1.5000 J0.0000 F1999.80
G2 X18.6600 Y163.5000 Z3.9167 I-1.5000 J0.0000 F1999.80
G2 X21.6600 Y163.5000 Z3.7333 I1.5000 J0.0000 F1999.80
G2 X18.6600 Y163.5000 Z3.5500 I-1.5000 J0.0000 F1999.80
G2 X21.6600 Y163.5000 Z3.3667 I1.5000 J0.0000 F1999.80
G2 X18.6600 Y163.5000 Z3.1833 I-1.5000 J0.0000 F1999.80
G2 X21.6600 Y163.5000 Z3.0000 I1.5000 J0.0000 F1999.80
G2 X18.6600 Y163.5000 Z3.0000 I-1.5000 J0.0000 F1999.80
G2 X21.6600 Y163.5000 Z3.0000 I1.5000 J0.0000 F1999.80
G0 Z8.0000
G0 X86.6600 Y163.5000
G0 Z8.0000
G1 Z5.2000 F999.60
G2 X83.6600 Y163.5000 Z5.0167 I-1.5000 J0.0000 F1999.80
G2 X86.6600 Y163.5000 Z4.8333 I1.5000 J0.0000 F1999.80
G2 X83.6600 Y163.5000 Z4.6500 I-1.5000 J0.0000 F1999.80
G2 X86.6600 Y163.5000 Z4.4667 I1.5000 J0.0000 F1999.80
G2 X83.6600 Y163.5000 Z4.2833 I-1.5000 J0.0000 F1999.80
G2 X86.6600 Y163.5000 Z4.1000 I1.5000 J0.0000 F1999.80
G2 X83.6600 Y163.5000 Z3.9167 I-1.5000 J0.0000 F1999.80
G2 X86.6600 Y163.5000 Z3.7333 I1.5000 J0.0000 F1999.80
G2 X83.6600 Y163.5000 Z3.5500 I-1.5000 J0.0000 F1999.80
G2 X86.6600 Y163.5000 Z3.3667 I1.5000 J0.0000 F1999.80
G2 X83.6600 Y163.5000 Z3.1833 I-1.5000 J0.0000 F1999.80
G2 X86.6600 Y163.5000 Z3.0000 I1.5000 J0.0000 F1999.80
G2 X83.6600 Y163.5000 Z3.0000 I-1.5000 J0.0000 F1999.80
G2 X86.6600 Y163.5000 Z3.0000 I1.5000 J0.0000 F1999.80
G0 Z8.0000
G0 X21.6600 Y103.5000
G0 Z8.0000
G1 Z5.2000 F999.60
G2 X18.6600 Y103.5000 Z5.0167 I-1.5000 J0.0000 F1999.80
G2 X21.6600 Y103.5000 Z4.8333 I1.5000 J0.0000 F1999.80
G2 X18.6600 Y103.5000 Z4.6500 I-1.5000 J0.0000 F1999.80
G2 X21.6600 Y103.5000 Z4.4667 I1.5000 J0.0000 F1999.80
G2 X18.6600 Y103.5000 Z4.2833 I-1.5000 J0.0000 F1999.80
G2 X21.6600 Y103.5000 Z4.1000 I1.5000 J0.0000 F1999.80
G2 X18.6600 Y103.5000 Z3.9167 I-1.5000 J0.0000 F1999.80
G2 X21.6600 Y103.5000 Z3.7333 I1.5000 J0.0000 F1999.80
G2 X18.6600 Y103.5000 Z3.5500 I-1.5000 J0.0000 F1999.80
G2 X21.6600 Y103.5000 Z3.3667 I1.5000 J0.0000 F1999.80
G2 X18.6600 Y103.5000 Z3.1833 I-1.5000 J0.0000 F1999.80
G2 X21.6600 Y103.5000 Z3.0000 I1.5000 J0.0000 F1999.80
G2 X18.6600 Y103.5000 Z3.0000 I-1.5000 J0.0000 F1999.80
G2 X21.6600 Y103.5000 Z3.0000 I1.5000 J0.0000 F1999.80
G0 Z8.0000
G0 X36.6600 Y71.0000
G0 Z8.0000
G1 Z5.2000 F999.60
G2 X33.6600 Y71.0000 Z5.0167 I-1.5000 J0.0000 F1999.80
G2 X36.6600 Y71.0000 Z4.8333 I1.5000 J0.0000 F1999.80
G2 X33.6600 Y71.0000 Z4.6500 I-1.5000 J0.0000 F1999.80
G2 X36.6600 Y71.0000 Z4.4667 I1.5000 J0.0000 F1999.80
G2 X33.6600 Y71.0000 Z4.2833 I-1.5000 J0.0000 F1999.80
G2 X36.6600 Y71.0000 Z4.1000 I1.5000 J0.0000 F1999.80
G2 X33.6600 Y71.0000 Z3.9167 I-1.5000 J0.0000 F1999.80
G2 X36.6600 Y71.0000 Z3.7333 I1.5000 J0.0000 F1999.80
G2 X33.6600 Y71.0000 Z3.5500 I-1.5000 J0.0000 F1999.80
G2 X36.6600 Y71.0000 Z3.3667 I1.5000 J0.0000 F1999.80
G2 X33.6600 Y71.0000 Z3.1833 I-1.5000 J0.0000 F1999.80
G2 X36.6600 Y71.0000 Z3.0000 I1.5000 J0.0000 F1999.80
G2 X33.6600 Y71.0000 Z3.0000 I-1.5000 J0.0000 F1999.80
G2 X36.6600 Y71.0000 Z3.0000 I1.5000 J0.0000 F1999.80
G0 Z8.0000
G0 X36.6600 Y9.0000
G0 Z8.0000
G1 Z5.2000 F999.60
G2 X33.6600 Y9.0000 Z5.0167 I-1.5000 J0.0000 F1999.80
G2 X36.6600 Y9.0000 Z4.8333 I1.5000 J0.0000 F1999.80
G2 X33.6600 Y9.0000 Z4.6500 I-1.5000 J0.0000 F1999.80
G2 X36.6600 Y9.0000 Z4.4667 I1.5000 J0.0000 F1999.80
G2 X33.6600 Y9.0000 Z4.2833 I-1.5000 J0.0000 F1999.80
G2 X36.6600 Y9.0000 Z4.1000 I1.5000 J0.0000 F1999.80
G2 X33.6600 Y9.0000 Z3.9167 I-1.5000 J0.0000 F1999.80
G2 X36.6600 Y9.0000 Z3.7333 I1.5000 J0.0000 F1999.80
G2 X33.6600 Y9.0000 Z3.5500 I-1.5000 J0.0000 F1999.80
G2 X36.6600 Y9.0000 Z3.3667 I1.5000 J0.0000 F1999.80
G2 X33.6600 Y9.0000 Z3.1833 I-1.5000 J0.0000 F1999.80
G2 X36.6600 Y9.0000 Z3.0000 I1.5000 J0.0000 F1999.80
G2 X33.6600 Y9.0000 Z3.0000 I-1.5000 J0.0000 F1999.80
G2 X36.6600 Y9.0000 Z3.0000 I1.5000 J0.0000 F1999.80
G0 Z8.0000
G0 X106.6600 Y9.0000
G0 Z8.0000
G1 Z5.2000 F999.60
G2 X103.6600 Y9.0000 Z5.0167 I-1.5000 J0.0000 F1999.80
G2 X106.6600 Y9.0000 Z4.8333 I1.5000 J0.0000 F1999.80
G2 X103.6600 Y9.0000 Z4.6500 I-1.5000 J0.0000 F1999.80
G2 X106.6600 Y9.0000 Z4.4667 I1.5000 J0.0000 F1999.80
G2 X103.6600 Y9.0000 Z4.2833 I-1.5000 J0.0000 F1999.80
G2 X106.6600 Y9.0000 Z4.1000 I1.5000 J0.0000 F1999.80
G2 X103.6600 Y9.0000 Z3.9167 I-1.5000 J0.0000 F1999.80
G2 X106.6600 Y9.0000 Z3.7333 I1.5000 J0.0000 F1999.80
G2 X103.6600 Y9.0000 Z3.5500 I-1.5000 J0.0000 F1999.80
G2 X106.6600 Y9.0000 Z3.3667 I1.5000 J0.0000 F1999.80
G2 X103.6600 Y9.0000 Z3.1833 I-1.5000 J0.0000 F1999.80
G2 X106.6600 Y9.0000 Z3.0000 I1.5000 J0.0000 F1999.80
G2 X103.6600 Y9.0000 Z3.0000 I-1.5000 J0.0000 F1999.80
G2 X106.6600 Y9.0000 Z3.0000 I1.5000 J0.0000 F1999.80
G0 Z8.0000
G0 X106.6600 Y71.0000
G0 Z8.0000
G1 Z5.2000 F999.60
G2 X103.6600 Y71.0000 Z5.0167 I-1.5000 J0.0000 F1999.80
G2 X106.6600 Y71.0000 Z4.8333 I1.5000 J0.0000 F1999.80
G2 X103.6600 Y71.0000 Z4.6500 I-1.5000 J0.0000 F1999.80
G2 X106.6600 Y71.0000 Z4.4667 I1.5000 J0.0000 F1999.80
G2 X103.6600 Y71.0000 Z4.2833 I-1.5000 J0.0000 F1999.80
G2 X106.6600 Y71.0000 Z4.1000 I1.5000 J0.0000 F1999.80
G2 X103.6600 Y71.0000 Z3.9167 I-1.5000 J0.0000 F1999.80
G2 X106.6600 Y71.0000 Z3.7333 I1.5000 J0.0000 F1999.80
G2 X103.6600 Y71.0000 Z3.5500 I-1.5000 J0.0000 F1999.80
G2 X106.6600 Y71.0000 Z3.3667 I1.5000 J0.0000 F1999.80
G2 X103.6600 Y71.0000 Z3.1833 I-1.5000 J0.0000 F1999.80
G2 X106.6600 Y71.0000 Z3.0000 I1.5000 J0.0000 F1999.80
G2 X103.6600 Y71.0000 Z3.0000 I-1.5000 J0.0000 F1999.80
G2 X106.6600 Y71.0000 Z3.0000 I1.5000 J0.0000 F1999.80
G0 Z8.0000
G0 X86.6600 Y103.5000
G0 Z8.0000
G1 Z5.2000 F999.60
G2 X83.6600 Y103.5000 Z5.0167 I-1.5000 J0.0000 F1999.80
G2 X86.6600 Y103.5000 Z4.8333 I1.5000 J0.0000 F1999.80
G2 X83.6600 Y103.5000 Z4.6500 I-1.5000 J0.0000 F1999.80
G2 X86.6600 Y103.5000 Z4.4667 I1.5000 J0.0000 F1999.80
G2 X83.6600 Y103.5000 Z4.2833 I-1.5000 J0.0000 F1999.80
G2 X86.6600 Y103.5000 Z4.1000 I1.5000 J0.0000 F1999.80
G2 X83.6600 Y103.5000 Z3.9167 I-1.5000 J0.0000 F1999.80
G2 X86.6600 Y103.5000 Z3.7333 I1.5000 J0.0000 F1999.80
G2 X83.6600 Y103.5000 Z3.5500 I-1.5000 J0.0000 F1999.80
G2 X86.6600 Y103.5000 Z3.3667 I1.5000 J0.0000 F1999.80
G2 X83.6600 Y103.5000 Z3.1833 I-1.5000 J0.0000 F1999.80
G2 X86.6600 Y103.5000 Z3.0000 I1.5000 J0.0000 F1999.80
G2 X83.6600 Y103.5000 Z3.0000 I-1.5000 J0.0000 F1999.80
G2 X86.6600 Y103.5000 Z3.0000 I1.5000 J0.0000 F1999.80
G0 Z8.0000
G0 X127.9100 Y105.2500
G0 Z8.0000
G1 Z5.2000 F999.60
G2 X124.9100 Y105.2500 Z5.0167 I-1.5000 J0.0000 F1999.80
G2 X127.9100 Y105.2500 Z4.8333 I1.5000 J0.0000 F1999.80
G2 X124.9100 Y105.2500 Z4.6500 I-1.5000 J0.0000 F1999.80
G2 X127.9100 Y105.2500 Z4.4667 I1.5000 J0.0000 F1999.80
G2 X124.9100 Y105.2500 Z4.2833 I-1.5000 J0.0000 F1999.80
G2 X127.9100 Y105.2500 Z4.1000 I1.5000 J0.0000 F1999.80
G2 X124.9100 Y105.2500 Z3.9167 I-1.5000 J0.0000 F1999.80
G2 X127.9100 Y105.2500 Z3.7333 I1.5000 J0.0000 F1999.80
G2 X124.9100 Y105.2500 Z3.5500 I-1.5000 J0.0000 F1999.80
G2 X127.9100 Y105.2500 Z3.3667 I1.5000 J0.0000 F1999.80
G2 X124.9100 Y105.2500 Z3.1833 I-1.5000 J0.0000 F1999.80
G2 X127.9100 Y105.2500 Z3.0000 I1.5000 J0.0000 F1999.80
G2 X124.9100 Y105.2500 Z3.0000 I-1.5000 J0.0000 F1999.80
G2 X127.9100 Y105.2500 Z3.0000 I1.5000 J0.0000 F1999.80
G0 Z8.0000
G0 X165.4100 Y105.2500
G0 Z8.0000
G1 Z5.2000 F999.60
G2 X162.4100 Y105.2500 Z5.0167 I-1.5000 J0.0000 F1999.80
G2 X165.4100 Y105.2500 Z4.8333 I1.5000 J0.0000 F1999.80
G2 X162.4100 Y105.2500 Z4.6500 I-1.5000 J0.0000 F1999.80
G2 X165.4100 Y105.2500 Z4.4667 I1.5000 J0.0000 F1999.80
G2 X162.4100 Y105.2500 Z4.2833 I-1.5000 J0.0000 F1999.80
G2 X165.4100 Y105.2500 Z4.1000 I1.5000 J0.0000 F1999.80
G2 X162.4100 Y105.2500 Z3.9167 I-1.5000 J0.0000 F1999.80
G2 X165.4100 Y105.2500 Z3.7333 I1.5000 J0.0000 F1999.80
G2 X162.4100 Y105.2500 Z3.5500 I-1.5000 J0.0000 F1999.80
G2 X165.4100 Y105.2500 Z3.3667 I1.5000 J0.0000 F1999.80
G2 X162.4100 Y105.2500 Z3.1833 I-1.5000 J0.0000 F1999.80
G2 X165.4100 Y105.2500 Z3.0000 I1.5000 J0.0000 F1999.80
G2 X162.4100 Y105.2500 Z3.0000 I-1.5000 J0.0000 F1999.80
G2 X165.4100 Y105.2500 Z3.0000 I1.5000 J0.0000 F1999.80
G0 Z8.0000
G0 X165.4100 Y161.7500
G0 Z8.0000
G1 Z5.2000 F999.60
G2 X162.4100 Y161.7500 Z5.0167 I-1.5000 J0.0000 F1999.80
G2 X165.4100 Y161.7500 Z4.8333 I1.5000 J0.0000 F1999.80
G2 X162.4100 Y161.7500 Z4.6500 I-1.5000 J0.0000 F1999.80
G2 X165.4100 Y161.7500 Z4.4667 I1.5000 J0.0000 F1999.80
G2 X162.4100 Y161.7500 Z4.2833 I-1.5000 J0.0000 F1999.80
G2 X165.4100 Y161.7500 Z4.1000 I1.5000 J0.0000 F1999.80
G2 X162.4100 Y161.7500 Z3.9167 I-1.5000 J0.0000 F1999.80
G2 X165.4100 Y161.7500 Z3.7333 I1.5000 J0.0000 F1999.80
G2 X162.4100 Y161.7500 Z3.5500 I-1.5000 J0.0000 F1999.80
G2 X165.4100 Y161.7500 Z3.3667 I1.5000 J0.0000 F1999.80
G2 X162.4100 Y161.7500 Z3.1833 I-1.5000 J0.0000 F1999.80
G2 X165.4100 Y161.7500 Z3.0000 I1.5000 J0.0000 F1999.80
G2 X162.4100 Y161.7500 Z3.0000 I-1.5000 J0.0000 F1999.80
G2 X165.4100 Y161.7500 Z3.0000 I1.5000 J0.0000 F1999.80
G0 Z8.0000
G0 X127.9100 Y161.7500
G0 Z8.0000
G1 Z5.2000 F999.60
G2 X124.9100 Y161.7500 Z5.0167 I-1.5000 J0.0000 F1999.80
G2 X127.9100 Y161.7500 Z4.8333 I1.5000 J0.0000 F1999.80
G2 X124.9100 Y161.7500 Z4.6500 I-1.5000 J0.0000 F1999.80
G2 X127.9100 Y161.7500 Z4.4667 I1.5000 J0.0000 F1999.80
G2 X124.9100 Y161.7500 Z4.2833 I-1.5000 J0.0000 F1999.80
G2 X127.9100 Y161.7500 Z4.1000 I1.5000 J0.0000 F1999.80
G2 X124.9100 Y161.7500 Z3.9167 I-1.5000 J0.0000 F1999.80
G2 X127.9100 Y161.7500 Z3.7333 I1.5000 J0.0000 F1999.80
G2 X124.9100 Y161.7500 Z3.5500 I-1.5000 J0.0000 F1999.80
G2 X127.9100 Y161.7500 Z3.3667 I1.5000 J0.0000 F1999.80
G2 X124.9100 Y161.7500 Z3.1833 I-1.5000 J0.0000 F1999.80
G2 X127.9100 Y161.7500 Z3.0000 I1.5000 J0.0000 F1999.80
G2 X124.9100 Y161.7500 Z3.0000 I-1.5000 J0.0000 F1999.80
G2 X127.9100 Y161.7500 Z3.0000 I1.5000 J0.0000 F1999.80
G0 Z8.0000
G0 X133.2600 Y188.6000
G0 Z8.0000
G1 Z5.2000 F999.60
G2 X130.2600 Y188.6000 Z5.0167 I-1.5000 J0.0000 F1999.80
G2 X133.2600 Y188.6000 Z4.8333 I1.5000 J0.0000 F1999.80
G2 X130.2600 Y188.6000 Z4.6500 I-1.5000 J0.0000 F1999.80
G2 X133.2600 Y188.6000 Z4.4667 I1.5000 J0.0000 F1999.80
G2 X130.2600 Y188.6000 Z4.2833 I-1.5000 J0.0000 F1999.80
G2 X133.2600 Y188.6000 Z4.1000 I1.5000 J0.0000 F1999.80
G2 X130.2600 Y188.6000 Z3.9167 I-1.5000 J0.0000 F1999.80
G2 X133.2600 Y188.6000 Z3.7333 I1.5000 J0.0000 F1999.80
G2 X130.2600 Y188.6000 Z3.5500 I-1.5000 J0.0000 F1999.80
G2 X133.2600 Y188.6000 Z3.3667 I1.5000 J0.0000 F1999.80
G2 X130.2600 Y188.6000 Z3.1833 I-1.5000 J0.0000 F1999.80
G2 X133.2600 Y188.6000 Z3.0000 I1.5000 J0.0000 F1999.80
G2 X130.2600 Y188.6000 Z3.0000 I-1.5000 J0.0000 F1999.80
G2 X133.2600 Y188.6000 Z3.0000 I1.5000 J0.0000 F1999.80
G0 Z8.0000
G0 X160.0600 Y188.6000
G0 Z8.0000
G1 Z5.2000 F999.60
G2 X157.0600 Y188.6000 Z5.0167 I-1.5000 J0.0000 F1999.80
G2 X160.0600 Y188.6000 Z4.8333 I1.5000 J0.0000 F1999.80
G2 X157.0600 Y188.6000 Z4.6500 I-1.5000 J0.0000 F1999.80
G2 X160.0600 Y188.6000 Z4.4667 I1.5000 J0.0000 F1999.80
G2 X157.0600 Y188.6000 Z4.2833 I-1.5000 J0.0000 F1999.80
G2 X160.0600 Y188.6000 Z4.1000 I1.5000 J0.0000 F1999.80
G2 X157.0600 Y188.6000 Z3.9167 I-1.5000 J0.0000 F1999.80
G2 X160.0600 Y188.6000 Z3.7333 I1.5000 J0.0000 F1999.80
G2 X157.0600 Y188.6000 Z3.5500 I-1.5000 J0.0000 F1999.80
G2 X160.0600 Y188.6000 Z3.3667 I1.5000 J0.0000 F1999.80
G2 X157.0600 Y188.6000 Z3.1833 I-1.5000 J0.0000 F1999.80
G2 X160.0600 Y188.6000 Z3.0000 I1.5000 J0.0000 F1999.80
G2 X157.0600 Y188.6000 Z3.0000 I-1.5000 J0.0000 F1999.80
G2 X160.0600 Y188.6000 Z3.0000 I1.5000 J0.0000 F1999.80
G0 Z8.0000
G0 Z10.0000
(finish operation: Counterbore_Path)
(begin operation: Edge_Cut)
(Path: Edge_Cut)
(inactive operation)
(finish operation: Edge_Cut)
(begin postamble)
M5
G17 G90
; M2
