(Exported by FreeCAD)
(Post Processor: grbl_post)
(Output Time:2020-03-13 21:42:31.720215)
(begin preamble)
G17 G90
G21
(begin operation: T4: 2FluteWoodMill001)
(Path: T4: 2FluteWoodMill001)
(T4: 2FluteWoodMill001)
(begin toolchange)
; M6 T4
M3 S12000.0000
(finish operation: T4: 2FluteWoodMill001)
(begin operation: Through_Holes_Path)
(Path: Through_Holes_Path)
(inactive operation)
(finish operation: Through_Holes_Path)
(begin operation: Through_Holes_Path001)
(Path: Through_Holes_Path001)
(Through_Holes_Path001)
(helix cut operation)
G0 Z10.0000
G0 X11.6400 Y333.2600
G0 Z8.0000
G1 Z5.2000 F999.60
G2 X11.5400 Y333.2600 Z5.0071 I-0.0500 J0.0000 F1999.80
G2 X11.6400 Y333.2600 Z4.8143 I0.0500 J0.0000 F1999.80
G2 X11.5400 Y333.2600 Z4.6214 I-0.0500 J0.0000 F1999.80
G2 X11.6400 Y333.2600 Z4.4286 I0.0500 J0.0000 F1999.80
G2 X11.5400 Y333.2600 Z4.2357 I-0.0500 J0.0000 F1999.80
G2 X11.6400 Y333.2600 Z4.0429 I0.0500 J0.0000 F1999.80
G2 X11.5400 Y333.2600 Z3.8500 I-0.0500 J0.0000 F1999.80
G2 X11.6400 Y333.2600 Z3.6571 I0.0500 J0.0000 F1999.80
G2 X11.5400 Y333.2600 Z3.4643 I-0.0500 J0.0000 F1999.80
G2 X11.6400 Y333.2600 Z3.2714 I0.0500 J0.0000 F1999.80
G2 X11.5400 Y333.2600 Z3.0786 I-0.0500 J0.0000 F1999.80
G2 X11.6400 Y333.2600 Z2.8857 I0.0500 J0.0000 F1999.80
G2 X11.5400 Y333.2600 Z2.6929 I-0.0500 J0.0000 F1999.80
G2 X11.6400 Y333.2600 Z2.5000 I0.0500 J0.0000 F1999.80
G2 X11.5400 Y333.2600 Z2.3071 I-0.0500 J0.0000 F1999.80
G2 X11.6400 Y333.2600 Z2.1143 I0.0500 J0.0000 F1999.80
G2 X11.5400 Y333.2600 Z1.9214 I-0.0500 J0.0000 F1999.80
G2 X11.6400 Y333.2600 Z1.7286 I0.0500 J0.0000 F1999.80
G2 X11.5400 Y333.2600 Z1.5357 I-0.0500 J0.0000 F1999.80
G2 X11.6400 Y333.2600 Z1.3429 I0.0500 J0.0000 F1999.80
G2 X11.5400 Y333.2600 Z1.1500 I-0.0500 J0.0000 F1999.80
G2 X11.6400 Y333.2600 Z0.9571 I0.0500 J0.0000 F1999.80
G2 X11.5400 Y333.2600 Z0.7643 I-0.0500 J0.0000 F1999.80
G2 X11.6400 Y333.2600 Z0.5714 I0.0500 J0.0000 F1999.80
G2 X11.5400 Y333.2600 Z0.3786 I-0.0500 J0.0000 F1999.80
G2 X11.6400 Y333.2600 Z0.1857 I0.0500 J0.0000 F1999.80
G2 X11.5400 Y333.2600 Z-0.0071 I-0.0500 J0.0000 F1999.80
G2 X11.6400 Y333.2600 Z-0.2000 I0.0500 J0.0000 F1999.80
G2 X11.5400 Y333.2600 Z-0.2000 I-0.0500 J0.0000 F1999.80
G2 X11.6400 Y333.2600 Z-0.2000 I0.0500 J0.0000 F1999.80
G0 Z8.0000
G0 X35.7700 Y318.0200
G0 Z8.0000
G1 Z5.2000 F999.60
G2 X35.6700 Y318.0200 Z5.0071 I-0.0500 J0.0000 F1999.80
G2 X35.7700 Y318.0200 Z4.8143 I0.0500 J0.0000 F1999.80
G2 X35.6700 Y318.0200 Z4.6214 I-0.0500 J0.0000 F1999.80
G2 X35.7700 Y318.0200 Z4.4286 I0.0500 J0.0000 F1999.80
G2 X35.6700 Y318.0200 Z4.2357 I-0.0500 J0.0000 F1999.80
G2 X35.7700 Y318.0200 Z4.0429 I0.0500 J0.0000 F1999.80
G2 X35.6700 Y318.0200 Z3.8500 I-0.0500 J0.0000 F1999.80
G2 X35.7700 Y318.0200 Z3.6571 I0.0500 J0.0000 F1999.80
G2 X35.6700 Y318.0200 Z3.4643 I-0.0500 J0.0000 F1999.80
G2 X35.7700 Y318.0200 Z3.2714 I0.0500 J0.0000 F1999.80
G2 X35.6700 Y318.0200 Z3.0786 I-0.0500 J0.0000 F1999.80
G2 X35.7700 Y318.0200 Z2.8857 I0.0500 J0.0000 F1999.80
G2 X35.6700 Y318.0200 Z2.6929 I-0.0500 J0.0000 F1999.80
G2 X35.7700 Y318.0200 Z2.5000 I0.0500 J0.0000 F1999.80
G2 X35.6700 Y318.0200 Z2.3071 I-0.0500 J0.0000 F1999.80
G2 X35.7700 Y318.0200 Z2.1143 I0.0500 J0.0000 F1999.80
G2 X35.6700 Y318.0200 Z1.9214 I-0.0500 J0.0000 F1999.80
G2 X35.7700 Y318.0200 Z1.7286 I0.0500 J0.0000 F1999.80
G2 X35.6700 Y318.0200 Z1.5357 I-0.0500 J0.0000 F1999.80
G2 X35.7700 Y318.0200 Z1.3429 I0.0500 J0.0000 F1999.80
G2 X35.6700 Y318.0200 Z1.1500 I-0.0500 J0.0000 F1999.80
G2 X35.7700 Y318.0200 Z0.9571 I0.0500 J0.0000 F1999.80
G2 X35.6700 Y318.0200 Z0.7643 I-0.0500 J0.0000 F1999.80
G2 X35.7700 Y318.0200 Z0.5714 I0.0500 J0.0000 F1999.80
G2 X35.6700 Y318.0200 Z0.3786 I-0.0500 J0.0000 F1999.80
G2 X35.7700 Y318.0200 Z0.1857 I0.0500 J0.0000 F1999.80
G2 X35.6700 Y318.0200 Z-0.0071 I-0.0500 J0.0000 F1999.80
G2 X35.7700 Y318.0200 Z-0.2000 I0.0500 J0.0000 F1999.80
G2 X35.6700 Y318.0200 Z-0.2000 I-0.0500 J0.0000 F1999.80
G2 X35.7700 Y318.0200 Z-0.2000 I0.0500 J0.0000 F1999.80
G0 Z8.0000
G0 X35.7700 Y290.0800
G0 Z8.0000
G1 Z5.2000 F999.60
G2 X35.6700 Y290.0800 Z5.0071 I-0.0500 J0.0000 F1999.80
G2 X35.7700 Y290.0800 Z4.8143 I0.0500 J0.0000 F1999.80
G2 X35.6700 Y290.0800 Z4.6214 I-0.0500 J0.0000 F1999.80
G2 X35.7700 Y290.0800 Z4.4286 I0.0500 J0.0000 F1999.80
G2 X35.6700 Y290.0800 Z4.2357 I-0.0500 J0.0000 F1999.80
G2 X35.7700 Y290.0800 Z4.0429 I0.0500 J0.0000 F1999.80
G2 X35.6700 Y290.0800 Z3.8500 I-0.0500 J0.0000 F1999.80
G2 X35.7700 Y290.0800 Z3.6571 I0.0500 J0.0000 F1999.80
G2 X35.6700 Y290.0800 Z3.4643 I-0.0500 J0.0000 F1999.80
G2 X35.7700 Y290.0800 Z3.2714 I0.0500 J0.0000 F1999.80
G2 X35.6700 Y290.0800 Z3.0786 I-0.0500 J0.0000 F1999.80
G2 X35.7700 Y290.0800 Z2.8857 I0.0500 J0.0000 F1999.80
G2 X35.6700 Y290.0800 Z2.6929 I-0.0500 J0.0000 F1999.80
G2 X35.7700 Y290.0800 Z2.5000 I0.0500 J0.0000 F1999.80
G2 X35.6700 Y290.0800 Z2.3071 I-0.0500 J0.0000 F1999.80
G2 X35.7700 Y290.0800 Z2.1143 I0.0500 J0.0000 F1999.80
G2 X35.6700 Y290.0800 Z1.9214 I-0.0500 J0.0000 F1999.80
G2 X35.7700 Y290.0800 Z1.7286 I0.0500 J0.0000 F1999.80
G2 X35.6700 Y290.0800 Z1.5357 I-0.0500 J0.0000 F1999.80
G2 X35.7700 Y290.0800 Z1.3429 I0.0500 J0.0000 F1999.80
G2 X35.6700 Y290.0800 Z1.1500 I-0.0500 J0.0000 F1999.80
G2 X35.7700 Y290.0800 Z0.9571 I0.0500 J0.0000 F1999.80
G2 X35.6700 Y290.0800 Z0.7643 I-0.0500 J0.0000 F1999.80
G2 X35.7700 Y290.0800 Z0.5714 I0.0500 J0.0000 F1999.80
G2 X35.6700 Y290.0800 Z0.3786 I-0.0500 J0.0000 F1999.80
G2 X35.7700 Y290.0800 Z0.1857 I0.0500 J0.0000 F1999.80
G2 X35.6700 Y290.0800 Z-0.0071 I-0.0500 J0.0000 F1999.80
G2 X35.7700 Y290.0800 Z-0.2000 I0.0500 J0.0000 F1999.80
G2 X35.6700 Y290.0800 Z-0.2000 I-0.0500 J0.0000 F1999.80
G2 X35.7700 Y290.0800 Z-0.2000 I0.0500 J0.0000 F1999.80
G0 Z8.0000
G0 X5.2900 Y285.0000
G0 Z8.0000
G1 Z5.2000 F999.60
G2 X5.1900 Y285.0000 Z5.0071 I-0.0500 J0.0000 F1999.80
G2 X5.2900 Y285.0000 Z4.8143 I0.0500 J0.0000 F1999.80
G2 X5.1900 Y285.0000 Z4.6214 I-0.0500 J0.0000 F1999.80
G2 X5.2900 Y285.0000 Z4.4286 I0.0500 J0.0000 F1999.80
G2 X5.1900 Y285.0000 Z4.2357 I-0.0500 J0.0000 F1999.80
G2 X5.2900 Y285.0000 Z4.0429 I0.0500 J0.0000 F1999.80
G2 X5.1900 Y285.0000 Z3.8500 I-0.0500 J0.0000 F1999.80
G2 X5.2900 Y285.0000 Z3.6571 I0.0500 J0.0000 F1999.80
G2 X5.1900 Y285.0000 Z3.4643 I-0.0500 J0.0000 F1999.80
G2 X5.2900 Y285.0000 Z3.2714 I0.0500 J0.0000 F1999.80
G2 X5.1900 Y285.0000 Z3.0786 I-0.0500 J0.0000 F1999.80
G2 X5.2900 Y285.0000 Z2.8857 I0.0500 J0.0000 F1999.80
G2 X5.1900 Y285.0000 Z2.6929 I-0.0500 J0.0000 F1999.80
G2 X5.2900 Y285.0000 Z2.5000 I0.0500 J0.0000 F1999.80
G2 X5.1900 Y285.0000 Z2.3071 I-0.0500 J0.0000 F1999.80
G2 X5.2900 Y285.0000 Z2.1143 I0.0500 J0.0000 F1999.80
G2 X5.1900 Y285.0000 Z1.9214 I-0.0500 J0.0000 F1999.80
G2 X5.2900 Y285.0000 Z1.7286 I0.0500 J0.0000 F1999.80
G2 X5.1900 Y285.0000 Z1.5357 I-0.0500 J0.0000 F1999.80
G2 X5.2900 Y285.0000 Z1.3429 I0.0500 J0.0000 F1999.80
G2 X5.1900 Y285.0000 Z1.1500 I-0.0500 J0.0000 F1999.80
G2 X5.2900 Y285.0000 Z0.9571 I0.0500 J0.0000 F1999.80
G2 X5.1900 Y285.0000 Z0.7643 I-0.0500 J0.0000 F1999.80
G2 X5.2900 Y285.0000 Z0.5714 I0.0500 J0.0000 F1999.80
G2 X5.1900 Y285.0000 Z0.3786 I-0.0500 J0.0000 F1999.80
G2 X5.2900 Y285.0000 Z0.1857 I0.0500 J0.0000 F1999.80
G2 X5.1900 Y285.0000 Z-0.0071 I-0.0500 J0.0000 F1999.80
G2 X5.2900 Y285.0000 Z-0.2000 I0.0500 J0.0000 F1999.80
G2 X5.1900 Y285.0000 Z-0.2000 I-0.0500 J0.0000 F1999.80
G2 X5.2900 Y285.0000 Z-0.2000 I0.0500 J0.0000 F1999.80
G0 Z8.0000
G0 X86.5700 Y333.2600
G0 Z8.0000
G1 Z5.2000 F999.60
G2 X86.4700 Y333.2600 Z5.0071 I-0.0500 J0.0000 F1999.80
G2 X86.5700 Y333.2600 Z4.8143 I0.0500 J0.0000 F1999.80
G2 X86.4700 Y333.2600 Z4.6214 I-0.0500 J0.0000 F1999.80
G2 X86.5700 Y333.2600 Z4.4286 I0.0500 J0.0000 F1999.80
G2 X86.4700 Y333.2600 Z4.2357 I-0.0500 J0.0000 F1999.80
G2 X86.5700 Y333.2600 Z4.0429 I0.0500 J0.0000 F1999.80
G2 X86.4700 Y333.2600 Z3.8500 I-0.0500 J0.0000 F1999.80
G2 X86.5700 Y333.2600 Z3.6571 I0.0500 J0.0000 F1999.80
G2 X86.4700 Y333.2600 Z3.4643 I-0.0500 J0.0000 F1999.80
G2 X86.5700 Y333.2600 Z3.2714 I0.0500 J0.0000 F1999.80
G2 X86.4700 Y333.2600 Z3.0786 I-0.0500 J0.0000 F1999.80
G2 X86.5700 Y333.2600 Z2.8857 I0.0500 J0.0000 F1999.80
G2 X86.4700 Y333.2600 Z2.6929 I-0.0500 J0.0000 F1999.80
G2 X86.5700 Y333.2600 Z2.5000 I0.0500 J0.0000 F1999.80
G2 X86.4700 Y333.2600 Z2.3071 I-0.0500 J0.0000 F1999.80
G2 X86.5700 Y333.2600 Z2.1143 I0.0500 J0.0000 F1999.80
G2 X86.4700 Y333.2600 Z1.9214 I-0.0500 J0.0000 F1999.80
G2 X86.5700 Y333.2600 Z1.7286 I0.0500 J0.0000 F1999.80
G2 X86.4700 Y333.2600 Z1.5357 I-0.0500 J0.0000 F1999.80
G2 X86.5700 Y333.2600 Z1.3429 I0.0500 J0.0000 F1999.80
G2 X86.4700 Y333.2600 Z1.1500 I-0.0500 J0.0000 F1999.80
G2 X86.5700 Y333.2600 Z0.9571 I0.0500 J0.0000 F1999.80
G2 X86.4700 Y333.2600 Z0.7643 I-0.0500 J0.0000 F1999.80
G2 X86.5700 Y333.2600 Z0.5714 I0.0500 J0.0000 F1999.80
G2 X86.4700 Y333.2600 Z0.3786 I-0.0500 J0.0000 F1999.80
G2 X86.5700 Y333.2600 Z0.1857 I0.0500 J0.0000 F1999.80
G2 X86.4700 Y333.2600 Z-0.0071 I-0.0500 J0.0000 F1999.80
G2 X86.5700 Y333.2600 Z-0.2000 I0.0500 J0.0000 F1999.80
G2 X86.4700 Y333.2600 Z-0.2000 I-0.0500 J0.0000 F1999.80
G2 X86.5700 Y333.2600 Z-0.2000 I0.0500 J0.0000 F1999.80
G0 Z8.0000
G0 X87.8400 Y285.0000
G0 Z8.0000
G1 Z5.2000 F999.60
G2 X87.7400 Y285.0000 Z5.0071 I-0.0500 J0.0000 F1999.80
G2 X87.8400 Y285.0000 Z4.8143 I0.0500 J0.0000 F1999.80
G2 X87.7400 Y285.0000 Z4.6214 I-0.0500 J0.0000 F1999.80
G2 X87.8400 Y285.0000 Z4.4286 I0.0500 J0.0000 F1999.80
G2 X87.7400 Y285.0000 Z4.2357 I-0.0500 J0.0000 F1999.80
G2 X87.8400 Y285.0000 Z4.0429 I0.0500 J0.0000 F1999.80
G2 X87.7400 Y285.0000 Z3.8500 I-0.0500 J0.0000 F1999.80
G2 X87.8400 Y285.0000 Z3.6571 I0.0500 J0.0000 F1999.80
G2 X87.7400 Y285.0000 Z3.4643 I-0.0500 J0.0000 F1999.80
G2 X87.8400 Y285.0000 Z3.2714 I0.0500 J0.0000 F1999.80
G2 X87.7400 Y285.0000 Z3.0786 I-0.0500 J0.0000 F1999.80
G2 X87.8400 Y285.0000 Z2.8857 I0.0500 J0.0000 F1999.80
G2 X87.7400 Y285.0000 Z2.6929 I-0.0500 J0.0000 F1999.80
G2 X87.8400 Y285.0000 Z2.5000 I0.0500 J0.0000 F1999.80
G2 X87.7400 Y285.0000 Z2.3071 I-0.0500 J0.0000 F1999.80
G2 X87.8400 Y285.0000 Z2.1143 I0.0500 J0.0000 F1999.80
G2 X87.7400 Y285.0000 Z1.9214 I-0.0500 J0.0000 F1999.80
G2 X87.8400 Y285.0000 Z1.7286 I0.0500 J0.0000 F1999.80
G2 X87.7400 Y285.0000 Z1.5357 I-0.0500 J0.0000 F1999.80
G2 X87.8400 Y285.0000 Z1.3429 I0.0500 J0.0000 F1999.80
G2 X87.7400 Y285.0000 Z1.1500 I-0.0500 J0.0000 F1999.80
G2 X87.8400 Y285.0000 Z0.9571 I0.0500 J0.0000 F1999.80
G2 X87.7400 Y285.0000 Z0.7643 I-0.0500 J0.0000 F1999.80
G2 X87.8400 Y285.0000 Z0.5714 I0.0500 J0.0000 F1999.80
G2 X87.7400 Y285.0000 Z0.3786 I-0.0500 J0.0000 F1999.80
G2 X87.8400 Y285.0000 Z0.1857 I0.0500 J0.0000 F1999.80
G2 X87.7400 Y285.0000 Z-0.0071 I-0.0500 J0.0000 F1999.80
G2 X87.8400 Y285.0000 Z-0.2000 I0.0500 J0.0000 F1999.80
G2 X87.7400 Y285.0000 Z-0.2000 I-0.0500 J0.0000 F1999.80
G2 X87.8400 Y285.0000 Z-0.2000 I0.0500 J0.0000 F1999.80
G0 Z8.0000
G0 Z10.0000
(finish operation: Through_Holes_Path001)
(begin operation: Counterbore_Path)
(Path: Counterbore_Path)
(inactive operation)
(finish operation: Counterbore_Path)
(begin operation: Edge_Cut)
(Path: Edge_Cut)
(inactive operation)
(finish operation: Edge_Cut)
(begin postamble)
M5
G17 G90
; M2
