%
(Start /u01/home/nico/Projects/itadinanta/cnc_mill_prototype/gcode/holes.ngc)
(Exported by FreeCAD)
(Post Processor: kineticnc_post)
(Output Time: 2019-12-14 11:45:30.173065)
G90 (Absolute coordinates)
G17 (XY Plane selection)
G21 (Programming in mm)
G94 (Feedrate per minute)

(Diameter: 3.0)
M6 T3 (Change tool)
M3 S17000 (Spindle on)
G0 Z12.000 (To clearance plane)
G0 X60.531 Y-28.469
G1 Z12.000 F500 (Set feedrate on spot)
G0 
Z8.000 
G1 Z-0.300 
G2 X59.243 Y-33.274 I-2.031 J-2.031 F800.000 
G2 X57.757 Y-27.726 I-0.743 J2.774 
G2 X60.531 Y-28.469 I0.743 J-2.774 
G1 Z-0.700 F500.000 
G2 X59.243 Y-33.274 I-2.031 J-2.031 F800.000 
G2 X57.757 Y-27.726 I-0.743 J2.774 
G2 X60.531 Y-28.469 I0.743 J-2.774 
G1 Z-1.100 F500.000 
G2 X59.243 Y-33.274 I-2.031 J-2.031 F800.000 
G2 X57.757 Y-27.726 I-0.743 J2.774 
G2 X60.531 Y-28.469 I0.743 J-2.774 
G1 Z-1.500 F500.000 
G2 X59.243 Y-33.274 I-2.031 J-2.031 F800.000 
G2 X57.757 Y-27.726 I-0.743 J2.774 
G2 X60.531 Y-28.469 I0.743 J-2.774 
G1 Z-1.900 F500.000 
G2 X59.243 Y-33.274 I-2.031 J-2.031 F800.000 
G2 X57.757 Y-27.726 I-0.743 J2.774 
G2 X60.531 Y-28.469 I0.743 J-2.774 
G1 Z-2.300 F500.000 
G2 X59.243 Y-33.274 I-2.031 J-2.031 F800.000 
G2 X57.757 Y-27.726 I-0.743 J2.774 
G2 X60.531 Y-28.469 I0.743 J-2.774 
G1 Z-2.700 F500.000 
G2 X59.243 Y-33.274 I-2.031 J-2.031 F800.000 
G2 X57.757 Y-27.726 I-0.743 J2.774 
G2 X60.531 Y-28.469 I0.743 J-2.774 
G1 Z-3.100 F500.000 
G2 X59.243 Y-33.274 I-2.031 J-2.031 F800.000 
G2 X57.757 Y-27.726 I-0.743 J2.774 
G2 X60.531 Y-28.469 I0.743 J-2.774 
G1 Z-3.500 F500.000 
G2 X59.243 Y-33.274 I-2.031 J-2.031 F800.000 
G2 X57.757 Y-27.726 I-0.743 J2.774 
G2 X60.531 Y-28.469 I0.743 J-2.774 
G1 Z-3.900 F500.000 
G2 X59.243 Y-33.274 I-2.031 J-2.031 F800.000 
G2 X57.757 Y-27.726 I-0.743 J2.774 
G2 X60.531 Y-28.469 I0.743 J-2.774 
G1 Z-4.300 F500.000 
G2 X59.243 Y-33.274 I-2.031 J-2.031 F800.000 
G2 X57.757 Y-27.726 I-0.743 J2.774 
G2 X60.531 Y-28.469 I0.743 J-2.774 
G1 Z-4.700 F500.000 
G2 X59.243 Y-33.274 I-2.031 J-2.031 F800.000 
G2 X57.757 Y-27.726 I-0.743 J2.774 
G2 X60.531 Y-28.469 I0.743 J-2.774 
G1 Z-5.100 F500.000 
G2 X59.243 Y-33.274 I-2.031 J-2.031 F800.000 
G2 X57.757 Y-27.726 I-0.743 J2.774 
G2 X60.531 Y-28.469 I0.743 J-2.774 
G1 Z-5.200 F500.000 
G2 X59.243 Y-33.274 I-2.031 J-2.031 F800.000 
G2 X57.757 Y-27.726 I-0.743 J2.774 
G2 X60.531 Y-28.469 I0.743 J-2.774 
G0 Z12.000 
Y33.531 
Z8.000 
G1 Z-0.300 F500.000 
G2 X59.243 Y28.726 I-2.031 J-2.031 F800.000 
G2 X57.757 Y34.274 I-0.743 J2.774 
G2 X60.531 Y33.531 I0.743 J-2.774 
G1 Z-0.700 F500.000 
G2 X59.243 Y28.726 I-2.031 J-2.031 F800.000 
G2 X57.757 Y34.274 I-0.743 J2.774 
G2 X60.531 Y33.531 I0.743 J-2.774 
G1 Z-1.100 F500.000 
G2 X59.243 Y28.726 I-2.031 J-2.031 F800.000 
G2 X57.757 Y34.274 I-0.743 J2.774 
G2 X60.531 Y33.531 I0.743 J-2.774 
G1 Z-1.500 F500.000 
G2 X59.243 Y28.726 I-2.031 J-2.031 F800.000 
G2 X57.757 Y34.274 I-0.743 J2.774 
G2 X60.531 Y33.531 I0.743 J-2.774 
G1 Z-1.900 F500.000 
G2 X59.243 Y28.726 I-2.031 J-2.031 F800.000 
G2 X57.757 Y34.274 I-0.743 J2.774 
G2 X60.531 Y33.531 I0.743 J-2.774 
G1 Z-2.300 F500.000 
G2 X59.243 Y28.726 I-2.031 J-2.031 F800.000 
G2 X57.757 Y34.274 I-0.743 J2.774 
G2 X60.531 Y33.531 I0.743 J-2.774 
G1 Z-2.700 F500.000 
G2 X59.243 Y28.726 I-2.031 J-2.031 F800.000 
G2 X57.757 Y34.274 I-0.743 J2.774 
G2 X60.531 Y33.531 I0.743 J-2.774 
G1 Z-3.100 F500.000 
G2 X59.243 Y28.726 I-2.031 J-2.031 F800.000 
G2 X57.757 Y34.274 I-0.743 J2.774 
G2 X60.531 Y33.531 I0.743 J-2.774 
G1 Z-3.500 F500.000 
G2 X59.243 Y28.726 I-2.031 J-2.031 F800.000 
G2 X57.757 Y34.274 I-0.743 J2.774 
G2 X60.531 Y33.531 I0.743 J-2.774 
G1 Z-3.900 F500.000 
G2 X59.243 Y28.726 I-2.031 J-2.031 F800.000 
G2 X57.757 Y34.274 I-0.743 J2.774 
G2 X60.531 Y33.531 I0.743 J-2.774 
G1 Z-4.300 F500.000 
G2 X59.243 Y28.726 I-2.031 J-2.031 F800.000 
G2 X57.757 Y34.274 I-0.743 J2.774 
G2 X60.531 Y33.531 I0.743 J-2.774 
G1 Z-4.700 F500.000 
G2 X59.243 Y28.726 I-2.031 J-2.031 F800.000 
G2 X57.757 Y34.274 I-0.743 J2.774 
G2 X60.531 Y33.531 I0.743 J-2.774 
G1 Z-5.100 F500.000 
G2 X59.243 Y28.726 I-2.031 J-2.031 F800.000 
G2 X57.757 Y34.274 I-0.743 J2.774 
G2 X60.531 Y33.531 I0.743 J-2.774 
G1 Z-5.200 F500.000 
G2 X59.243 Y28.726 I-2.031 J-2.031 F800.000 
G2 X57.757 Y34.274 I-0.743 J2.774 
G2 X60.531 Y33.531 I0.743 J-2.774 
G0 Z12.000 
X-56.469 
Z8.000 
G1 Z-0.300 F500.000 
G2 X-57.757 Y28.726 I-2.031 J-2.031 F800.000 
G2 X-59.243 Y34.274 I-0.743 J2.774 
G2 X-56.469 Y33.531 I0.743 J-2.774 
G1 Z-0.700 F500.000 
G2 X-57.757 Y28.726 I-2.031 J-2.031 F800.000 
G2 X-59.243 Y34.274 I-0.743 J2.774 
G2 X-56.469 Y33.531 I0.743 J-2.774 
G1 Z-1.100 F500.000 
G2 X-57.757 Y28.726 I-2.031 J-2.031 F800.000 
G2 X-59.243 Y34.274 I-0.743 J2.774 
G2 X-56.469 Y33.531 I0.743 J-2.774 
G1 Z-1.500 F500.000 
G2 X-57.757 Y28.726 I-2.031 J-2.031 F800.000 
G2 X-59.243 Y34.274 I-0.743 J2.774 
G2 X-56.469 Y33.531 I0.743 J-2.774 
G1 Z-1.900 F500.000 
G2 X-57.757 Y28.726 I-2.031 J-2.031 F800.000 
G2 X-59.243 Y34.274 I-0.743 J2.774 
G2 X-56.469 Y33.531 I0.743 J-2.774 
G1 Z-2.300 F500.000 
G2 X-57.757 Y28.726 I-2.031 J-2.031 F800.000 
G2 X-59.243 Y34.274 I-0.743 J2.774 
G2 X-56.469 Y33.531 I0.743 J-2.774 
G1 Z-2.700 F500.000 
G2 X-57.757 Y28.726 I-2.031 J-2.031 F800.000 
G2 X-59.243 Y34.274 I-0.743 J2.774 
G2 X-56.469 Y33.531 I0.743 J-2.774 
G1 Z-3.100 F500.000 
G2 X-57.757 Y28.726 I-2.031 J-2.031 F800.000 
G2 X-59.243 Y34.274 I-0.743 J2.774 
G2 X-56.469 Y33.531 I0.743 J-2.774 
G1 Z-3.500 F500.000 
G2 X-57.757 Y28.726 I-2.031 J-2.031 F800.000 
G2 X-59.243 Y34.274 I-0.743 J2.774 
G2 X-56.469 Y33.531 I0.743 J-2.774 
G1 Z-3.900 F500.000 
G2 X-57.757 Y28.726 I-2.031 J-2.031 F800.000 
G2 X-59.243 Y34.274 I-0.743 J2.774 
G2 X-56.469 Y33.531 I0.743 J-2.774 
G1 Z-4.300 F500.000 
G2 X-57.757 Y28.726 I-2.031 J-2.031 F800.000 
G2 X-59.243 Y34.274 I-0.743 J2.774 
G2 X-56.469 Y33.531 I0.743 J-2.774 
G1 Z-4.700 F500.000 
G2 X-57.757 Y28.726 I-2.031 J-2.031 F800.000 
G2 X-59.243 Y34.274 I-0.743 J2.774 
G2 X-56.469 Y33.531 I0.743 J-2.774 
G1 Z-5.100 F500.000 
G2 X-57.757 Y28.726 I-2.031 J-2.031 F800.000 
G2 X-59.243 Y34.274 I-0.743 J2.774 
G2 X-56.469 Y33.531 I0.743 J-2.774 
G1 Z-5.200 F500.000 
G2 X-57.757 Y28.726 I-2.031 J-2.031 F800.000 
G2 X-59.243 Y34.274 I-0.743 J2.774 
G2 X-56.469 Y33.531 I0.743 J-2.774 
G0 Z12.000 
Y-28.469 
Z8.000 
G1 Z-0.300 F500.000 
G2 X-57.757 Y-33.274 I-2.031 J-2.031 F800.000 
G2 X-59.243 Y-27.726 I-0.743 J2.774 
G2 X-56.469 Y-28.469 I0.743 J-2.774 
G1 Z-0.700 F500.000 
G2 X-57.757 Y-33.274 I-2.031 J-2.031 F800.000 
G2 X-59.243 Y-27.726 I-0.743 J2.774 
G2 X-56.469 Y-28.469 I0.743 J-2.774 
G1 Z-1.100 F500.000 
G2 X-57.757 Y-33.274 I-2.031 J-2.031 F800.000 
G2 X-59.243 Y-27.726 I-0.743 J2.774 
G2 X-56.469 Y-28.469 I0.743 J-2.774 
G1 Z-1.500 F500.000 
G2 X-57.757 Y-33.274 I-2.031 J-2.031 F800.000 
G2 X-59.243 Y-27.726 I-0.743 J2.774 
G2 X-56.469 Y-28.469 I0.743 J-2.774 
G1 Z-1.900 F500.000 
G2 X-57.757 Y-33.274 I-2.031 J-2.031 F800.000 
G2 X-59.243 Y-27.726 I-0.743 J2.774 
G2 X-56.469 Y-28.469 I0.743 J-2.774 
G1 Z-2.300 F500.000 
G2 X-57.757 Y-33.274 I-2.031 J-2.031 F800.000 
G2 X-59.243 Y-27.726 I-0.743 J2.774 
G2 X-56.469 Y-28.469 I0.743 J-2.774 
G1 Z-2.700 F500.000 
G2 X-57.757 Y-33.274 I-2.031 J-2.031 F800.000 
G2 X-59.243 Y-27.726 I-0.743 J2.774 
G2 X-56.469 Y-28.469 I0.743 J-2.774 
G1 Z-3.100 F500.000 
G2 X-57.757 Y-33.274 I-2.031 J-2.031 F800.000 
G2 X-59.243 Y-27.726 I-0.743 J2.774 
G2 X-56.469 Y-28.469 I0.743 J-2.774 
G1 Z-3.500 F500.000 
G2 X-57.757 Y-33.274 I-2.031 J-2.031 F800.000 
G2 X-59.243 Y-27.726 I-0.743 J2.774 
G2 X-56.469 Y-28.469 I0.743 J-2.774 
G1 Z-3.900 F500.000 
G2 X-57.757 Y-33.274 I-2.031 J-2.031 F800.000 
G2 X-59.243 Y-27.726 I-0.743 J2.774 
G2 X-56.469 Y-28.469 I0.743 J-2.774 
G1 Z-4.300 F500.000 
G2 X-57.757 Y-33.274 I-2.031 J-2.031 F800.000 
G2 X-59.243 Y-27.726 I-0.743 J2.774 
G2 X-56.469 Y-28.469 I0.743 J-2.774 
G1 Z-4.700 F500.000 
G2 X-57.757 Y-33.274 I-2.031 J-2.031 F800.000 
G2 X-59.243 Y-27.726 I-0.743 J2.774 
G2 X-56.469 Y-28.469 I0.743 J-2.774 
G1 Z-5.100 F500.000 
G2 X-57.757 Y-33.274 I-2.031 J-2.031 F800.000 
G2 X-59.243 Y-27.726 I-0.743 J2.774 
G2 X-56.469 Y-28.469 I0.743 J-2.774 
G1 Z-5.200 F500.000 
G2 X-57.757 Y-33.274 I-2.031 J-2.031 F800.000 
G2 X-59.243 Y-27.726 I-0.743 J2.774 
G2 X-56.469 Y-28.469 I0.743 J-2.774 
G0 Z12.000 
Y-15.969 
Z8.000 
G1 Z-0.300 F500.000 
G2 X-57.757 Y-20.774 I-2.031 J-2.031 F800.000 
G2 X-59.243 Y-15.226 I-0.743 J2.774 
G2 X-56.469 Y-15.969 I0.743 J-2.774 
G1 Z-0.700 F500.000 
G2 X-57.757 Y-20.774 I-2.031 J-2.031 F800.000 
G2 X-59.243 Y-15.226 I-0.743 J2.774 
G2 X-56.469 Y-15.969 I0.743 J-2.774 
G1 Z-1.100 F500.000 
G2 X-57.757 Y-20.774 I-2.031 J-2.031 F800.000 
G2 X-59.243 Y-15.226 I-0.743 J2.774 
G2 X-56.469 Y-15.969 I0.743 J-2.774 
G1 Z-1.500 F500.000 
G2 X-57.757 Y-20.774 I-2.031 J-2.031 F800.000 
G2 X-59.243 Y-15.226 I-0.743 J2.774 
G2 X-56.469 Y-15.969 I0.743 J-2.774 
G1 Z-1.900 F500.000 
G2 X-57.757 Y-20.774 I-2.031 J-2.031 F800.000 
G2 X-59.243 Y-15.226 I-0.743 J2.774 
G2 X-56.469 Y-15.969 I0.743 J-2.774 
G1 Z-2.300 F500.000 
G2 X-57.757 Y-20.774 I-2.031 J-2.031 F800.000 
G2 X-59.243 Y-15.226 I-0.743 J2.774 
G2 X-56.469 Y-15.969 I0.743 J-2.774 
G1 Z-2.700 F500.000 
G2 X-57.757 Y-20.774 I-2.031 J-2.031 F800.000 
G2 X-59.243 Y-15.226 I-0.743 J2.774 
G2 X-56.469 Y-15.969 I0.743 J-2.774 
G1 Z-3.100 F500.000 
G2 X-57.757 Y-20.774 I-2.031 J-2.031 F800.000 
G2 X-59.243 Y-15.226 I-0.743 J2.774 
G2 X-56.469 Y-15.969 I0.743 J-2.774 
G1 Z-3.500 F500.000 
G2 X-57.757 Y-20.774 I-2.031 J-2.031 F800.000 
G2 X-59.243 Y-15.226 I-0.743 J2.774 
G2 X-56.469 Y-15.969 I0.743 J-2.774 
G1 Z-3.900 F500.000 
G2 X-57.757 Y-20.774 I-2.031 J-2.031 F800.000 
G2 X-59.243 Y-15.226 I-0.743 J2.774 
G2 X-56.469 Y-15.969 I0.743 J-2.774 
G1 Z-4.300 F500.000 
G2 X-57.757 Y-20.774 I-2.031 J-2.031 F800.000 
G2 X-59.243 Y-15.226 I-0.743 J2.774 
G2 X-56.469 Y-15.969 I0.743 J-2.774 
G1 Z-4.700 F500.000 
G2 X-57.757 Y-20.774 I-2.031 J-2.031 F800.000 
G2 X-59.243 Y-15.226 I-0.743 J2.774 
G2 X-56.469 Y-15.969 I0.743 J-2.774 
G1 Z-5.100 F500.000 
G2 X-57.757 Y-20.774 I-2.031 J-2.031 F800.000 
G2 X-59.243 Y-15.226 I-0.743 J2.774 
G2 X-56.469 Y-15.969 I0.743 J-2.774 
G1 Z-5.200 F500.000 
G2 X-57.757 Y-20.774 I-2.031 J-2.031 F800.000 
G2 X-59.243 Y-15.226 I-0.743 J2.774 
G2 X-56.469 Y-15.969 I0.743 J-2.774 
G0 Z12.000 
X60.531 
Z8.000 
G1 Z-0.300 F500.000 
G2 X59.243 Y-20.774 I-2.031 J-2.031 F800.000 
G2 X57.757 Y-15.226 I-0.743 J2.774 
G2 X60.531 Y-15.969 I0.743 J-2.774 
G1 Z-0.700 F500.000 
G2 X59.243 Y-20.774 I-2.031 J-2.031 F800.000 
G2 X57.757 Y-15.226 I-0.743 J2.774 
G2 X60.531 Y-15.969 I0.743 J-2.774 
G1 Z-1.100 F500.000 
G2 X59.243 Y-20.774 I-2.031 J-2.031 F800.000 
G2 X57.757 Y-15.226 I-0.743 J2.774 
G2 X60.531 Y-15.969 I0.743 J-2.774 
G1 Z-1.500 F500.000 
G2 X59.243 Y-20.774 I-2.031 J-2.031 F800.000 
G2 X57.757 Y-15.226 I-0.743 J2.774 
G2 X60.531 Y-15.969 I0.743 J-2.774 
G1 Z-1.900 F500.000 
G2 X59.243 Y-20.774 I-2.031 J-2.031 F800.000 
G2 X57.757 Y-15.226 I-0.743 J2.774 
G2 X60.531 Y-15.969 I0.743 J-2.774 
G1 Z-2.300 F500.000 
G2 X59.243 Y-20.774 I-2.031 J-2.031 F800.000 
G2 X57.757 Y-15.226 I-0.743 J2.774 
G2 X60.531 Y-15.969 I0.743 J-2.774 
G1 Z-2.700 F500.000 
G2 X59.243 Y-20.774 I-2.031 J-2.031 F800.000 
G2 X57.757 Y-15.226 I-0.743 J2.774 
G2 X60.531 Y-15.969 I0.743 J-2.774 
G1 Z-3.100 F500.000 
G2 X59.243 Y-20.774 I-2.031 J-2.031 F800.000 
G2 X57.757 Y-15.226 I-0.743 J2.774 
G2 X60.531 Y-15.969 I0.743 J-2.774 
G1 Z-3.500 F500.000 
G2 X59.243 Y-20.774 I-2.031 J-2.031 F800.000 
G2 X57.757 Y-15.226 I-0.743 J2.774 
G2 X60.531 Y-15.969 I0.743 J-2.774 
G1 Z-3.900 F500.000 
G2 X59.243 Y-20.774 I-2.031 J-2.031 F800.000 
G2 X57.757 Y-15.226 I-0.743 J2.774 
G2 X60.531 Y-15.969 I0.743 J-2.774 
G1 Z-4.300 F500.000 
G2 X59.243 Y-20.774 I-2.031 J-2.031 F800.000 
G2 X57.757 Y-15.226 I-0.743 J2.774 
G2 X60.531 Y-15.969 I0.743 J-2.774 
G1 Z-4.700 F500.000 
G2 X59.243 Y-20.774 I-2.031 J-2.031 F800.000 
G2 X57.757 Y-15.226 I-0.743 J2.774 
G2 X60.531 Y-15.969 I0.743 J-2.774 
G1 Z-5.100 F500.000 
G2 X59.243 Y-20.774 I-2.031 J-2.031 F800.000 
G2 X57.757 Y-15.226 I-0.743 J2.774 
G2 X60.531 Y-15.969 I0.743 J-2.774 
G1 Z-5.200 F500.000 
G2 X59.243 Y-20.774 I-2.031 J-2.031 F800.000 
G2 X57.757 Y-15.226 I-0.743 J2.774 
G2 X60.531 Y-15.969 I0.743 J-2.774 
G0 Z12.000 
X10.738 Y10.738 
Z8.000 
G1 Z-0.300 F500.000 
G2 X10.357 Y9.019 I-0.738 J-0.738 F800.000 
G2 X9.643 Y10.981 I-0.357 J0.981 
G2 X10.738 Y10.738 I0.357 J-0.981 
G1 X10.738 Z-0.700 F500.000 
G2 X10.357 Y9.019 I-0.738 J-0.738 F800.000 
G2 X9.643 Y10.981 I-0.357 J0.981 
G2 X10.738 Y10.738 I0.357 J-0.981 
G1 Y10.738 Z-1.100 F500.000 
G2 X10.357 Y9.019 I-0.738 J-0.738 F800.000 
G2 X9.643 Y10.981 I-0.357 J0.981 
G2 X10.738 Y10.738 I0.357 J-0.981 
G1 X10.738 Z-1.500 F500.000 
G2 X10.357 Y9.019 I-0.738 J-0.738 F800.000 
G2 X9.643 Y10.981 I-0.357 J0.981 
G2 X10.738 Y10.738 I0.357 J-0.981 
G1 Z-1.900 F500.000 
G2 X10.357 Y9.019 I-0.738 J-0.738 F800.000 
G2 X9.643 Y10.981 I-0.357 J0.981 
G2 X10.738 Y10.738 I0.357 J-0.981 
G1 Z-2.300 F500.000 
G2 X10.357 Y9.019 I-0.738 J-0.738 F800.000 
G2 X9.643 Y10.981 I-0.357 J0.981 
G2 X10.738 Y10.738 I0.357 J-0.981 
G1 Z-2.700 F500.000 
G2 X10.357 Y9.019 I-0.738 J-0.738 F800.000 
G2 X9.643 Y10.981 I-0.357 J0.981 
G2 X10.738 Y10.738 I0.357 J-0.981 
G1 Z-3.100 F500.000 
G2 X10.357 Y9.019 I-0.738 J-0.738 F800.000 
G2 X9.643 Y10.981 I-0.357 J0.981 
G2 X10.738 Y10.738 I0.357 J-0.981 
G1 Z-3.500 F500.000 
G2 X10.357 Y9.019 I-0.738 J-0.738 F800.000 
G2 X9.643 Y10.981 I-0.357 J0.981 
G2 X10.738 Y10.738 I0.357 J-0.981 
G1 Z-3.900 F500.000 
G2 X10.357 Y9.019 I-0.738 J-0.738 F800.000 
G2 X9.643 Y10.981 I-0.357 J0.981 
G2 X10.738 Y10.738 I0.357 J-0.981 
G1 Z-4.300 F500.000 
G2 X10.357 Y9.019 I-0.738 J-0.738 F800.000 
G2 X9.643 Y10.981 I-0.357 J0.981 
G2 X10.738 Y10.738 I0.357 J-0.981 
G1 Z-4.700 F500.000 
G2 X10.357 Y9.019 I-0.738 J-0.738 F800.000 
G2 X9.643 Y10.981 I-0.357 J0.981 
G2 X10.738 Y10.738 I0.357 J-0.981 
G1 Z-5.100 F500.000 
G2 X10.357 Y9.019 I-0.738 J-0.738 F800.000 
G2 X9.643 Y10.981 I-0.357 J0.981 
G2 X10.738 Y10.738 I0.357 J-0.981 
G1 Z-5.200 F500.000 
G2 X10.357 Y9.019 I-0.738 J-0.738 F800.000 
G2 X9.643 Y10.981 I-0.357 J0.981 
G2 X10.738 Y10.738 I0.357 J-0.981 
G0 Z12.000 
X-9.262 Y-9.262 
Z8.000 
G1 Z-0.300 F500.000 
G2 X-9.019 Y-9.643 I-0.738 J-0.738 F800.000 
G2 X-9.643 Y-10.981 I-0.981 J-0.357 
G2 X-10.981 Y-10.357 I-0.357 J0.981 
G2 X-9.262 Y-9.262 I0.981 J0.357 
G1 Z-0.700 F500.000 
G2 X-9.019 Y-9.643 I-0.738 J-0.738 F800.000 
G2 X-9.643 Y-10.981 I-0.981 J-0.357 
G2 X-10.981 Y-10.357 I-0.357 J0.981 
G2 X-9.262 Y-9.262 I0.981 J0.357 
G1 Z-1.100 F500.000 
G2 X-9.019 Y-9.643 I-0.738 J-0.738 F800.000 
G2 X-9.643 Y-10.981 I-0.981 J-0.357 
G2 X-10.981 Y-10.357 I-0.357 J0.981 
G2 X-9.262 Y-9.262 I0.981 J0.357 
G1 Z-1.500 F500.000 
G2 X-9.019 Y-9.643 I-0.738 J-0.738 F800.000 
G2 X-9.643 Y-10.981 I-0.981 J-0.357 
G2 X-10.981 Y-10.357 I-0.357 J0.981 
G2 X-9.262 Y-9.262 I0.981 J0.357 
G1 Z-1.900 F500.000 
G2 X-9.019 Y-9.643 I-0.738 J-0.738 F800.000 
G2 X-9.643 Y-10.981 I-0.981 J-0.357 
G2 X-10.981 Y-10.357 I-0.357 J0.981 
G2 X-9.262 Y-9.262 I0.981 J0.357 
G1 Z-2.300 F500.000 
G2 X-9.019 Y-9.643 I-0.738 J-0.738 F800.000 
G2 X-9.643 Y-10.981 I-0.981 J-0.357 
G2 X-10.981 Y-10.357 I-0.357 J0.981 
G2 X-9.262 Y-9.262 I0.981 J0.357 
G1 Z-2.700 F500.000 
G2 X-9.019 Y-9.643 I-0.738 J-0.738 F800.000 
G2 X-9.643 Y-10.981 I-0.981 J-0.357 
G2 X-10.981 Y-10.357 I-0.357 J0.981 
G2 X-9.262 Y-9.262 I0.981 J0.357 
G1 Z-3.100 F500.000 
G2 X-9.019 Y-9.643 I-0.738 J-0.738 F800.000 
G2 X-9.643 Y-10.981 I-0.981 J-0.357 
G2 X-10.981 Y-10.357 I-0.357 J0.981 
G2 X-9.262 Y-9.262 I0.981 J0.357 
G1 Z-3.500 F500.000 
G2 X-9.019 Y-9.643 I-0.738 J-0.738 F800.000 
G2 X-9.643 Y-10.981 I-0.981 J-0.357 
G2 X-10.981 Y-10.357 I-0.357 J0.981 
G2 X-9.262 Y-9.262 I0.981 J0.357 
G1 Z-3.900 F500.000 
G2 X-9.019 Y-9.643 I-0.738 J-0.738 F800.000 
G2 X-9.643 Y-10.981 I-0.981 J-0.357 
G2 X-10.981 Y-10.357 I-0.357 J0.981 
G2 X-9.262 Y-9.262 I0.981 J0.357 
G1 Z-4.300 F500.000 
G2 X-9.019 Y-9.643 I-0.738 J-0.738 F800.000 
G2 X-9.643 Y-10.981 I-0.981 J-0.357 
G2 X-10.981 Y-10.357 I-0.357 J0.981 
G2 X-9.262 Y-9.262 I0.981 J0.357 
G1 Z-4.700 F500.000 
G2 X-9.019 Y-9.643 I-0.738 J-0.738 F800.000 
G2 X-9.643 Y-10.981 I-0.981 J-0.357 
G2 X-10.981 Y-10.357 I-0.357 J0.981 
G2 X-9.262 Y-9.262 I0.981 J0.357 
G1 Z-5.100 F500.000 
G2 X-9.019 Y-9.643 I-0.738 J-0.738 F800.000 
G2 X-9.643 Y-10.981 I-0.981 J-0.357 
G2 X-10.981 Y-10.357 I-0.357 J0.981 
G2 X-9.262 Y-9.262 I0.981 J0.357 
G1 Z-5.200 F500.000 
G2 X-9.019 Y-9.643 I-0.738 J-0.738 F800.000 
G2 X-9.643 Y-10.981 I-0.981 J-0.357 
G2 X-10.981 Y-10.357 I-0.357 J0.981 
G2 X-9.262 Y-9.262 I0.981 J0.357 
G0 Z12.000 
X30.738 Y-9.262 
Z8.000 
G1 Z-0.300 F500.000 
G2 X30.357 Y-10.981 I-0.738 J-0.738 F800.000 
G2 X29.643 Y-9.019 I-0.357 J0.981 
G2 X30.738 Y-9.262 I0.357 J-0.981 
G1 Y-9.262 Z-0.700 F500.000 
G2 X30.357 Y-10.981 I-0.738 J-0.738 F800.000 
G2 X29.643 Y-9.019 I-0.357 J0.981 
G2 X30.738 Y-9.262 I0.357 J-0.981 
G1 Z-1.100 F500.000 
G2 X30.357 Y-10.981 I-0.738 J-0.738 F800.000 
G2 X29.643 Y-9.019 I-0.357 J0.981 
G2 X30.738 Y-9.262 I0.357 J-0.981 
G1 Z-1.500 F500.000 
G2 X30.357 Y-10.981 I-0.738 J-0.738 F800.000 
G2 X29.643 Y-9.019 I-0.357 J0.981 
G2 X30.738 Y-9.262 I0.357 J-0.981 
G1 Z-1.900 F500.000 
G2 X30.357 Y-10.981 I-0.738 J-0.738 F800.000 
G2 X29.643 Y-9.019 I-0.357 J0.981 
G2 X30.738 Y-9.262 I0.357 J-0.981 
G1 Z-2.300 F500.000 
G2 X30.357 Y-10.981 I-0.738 J-0.738 F800.000 
G2 X29.643 Y-9.019 I-0.357 J0.981 
G2 X30.738 Y-9.262 I0.357 J-0.981 
G1 Z-2.700 F500.000 
G2 X30.357 Y-10.981 I-0.738 J-0.738 F800.000 
G2 X29.643 Y-9.019 I-0.357 J0.981 
G2 X30.738 Y-9.262 I0.357 J-0.981 
G1 Z-3.100 F500.000 
G2 X30.357 Y-10.981 I-0.738 J-0.738 F800.000 
G2 X29.643 Y-9.019 I-0.357 J0.981 
G2 X30.738 Y-9.262 I0.357 J-0.981 
G1 Z-3.500 F500.000 
G2 X30.357 Y-10.981 I-0.738 J-0.738 F800.000 
G2 X29.643 Y-9.019 I-0.357 J0.981 
G2 X30.738 Y-9.262 I0.357 J-0.981 
G1 Z-3.900 F500.000 
G2 X30.357 Y-10.981 I-0.738 J-0.738 F800.000 
G2 X29.643 Y-9.019 I-0.357 J0.981 
G2 X30.738 Y-9.262 I0.357 J-0.981 
G1 Z-4.300 F500.000 
G2 X30.357 Y-10.981 I-0.738 J-0.738 F800.000 
G2 X29.643 Y-9.019 I-0.357 J0.981 
G2 X30.738 Y-9.262 I0.357 J-0.981 
G1 Z-4.700 F500.000 
G2 X30.357 Y-10.981 I-0.738 J-0.738 F800.000 
G2 X29.643 Y-9.019 I-0.357 J0.981 
G2 X30.738 Y-9.262 I0.357 J-0.981 
G1 Z-5.100 F500.000 
G2 X30.357 Y-10.981 I-0.738 J-0.738 F800.000 
G2 X29.643 Y-9.019 I-0.357 J0.981 
G2 X30.738 Y-9.262 I0.357 J-0.981 
G1 Z-5.200 F500.000 
G2 X30.357 Y-10.981 I-0.738 J-0.738 F800.000 
G2 X29.643 Y-9.019 I-0.357 J0.981 
G2 X30.738 Y-9.262 I0.357 J-0.981 
G0 Z12.000 
X-9.262 Y30.738 
Z8.000 
G1 Z-0.300 F500.000 
G2 X-9.643 Y29.019 I-0.738 J-0.738 F800.000 
G2 X-10.357 Y30.981 I-0.357 J0.981 
G2 X-9.262 Y30.738 I0.357 J-0.981 
G1 X-9.262 Z-0.700 F500.000 
G2 X-9.643 Y29.019 I-0.738 J-0.738 F800.000 
G2 X-10.357 Y30.981 I-0.357 J0.981 
G2 X-9.262 Y30.738 I0.357 J-0.981 
G1 Z-1.100 F500.000 
G2 X-9.643 Y29.019 I-0.738 J-0.738 F800.000 
G2 X-10.357 Y30.981 I-0.357 J0.981 
G2 X-9.262 Y30.738 I0.357 J-0.981 
G1 Z-1.500 F500.000 
G2 X-9.643 Y29.019 I-0.738 J-0.738 F800.000 
G2 X-10.357 Y30.981 I-0.357 J0.981 
G2 X-9.262 Y30.738 I0.357 J-0.981 
G1 Z-1.900 F500.000 
G2 X-9.643 Y29.019 I-0.738 J-0.738 F800.000 
G2 X-10.357 Y30.981 I-0.357 J0.981 
G2 X-9.262 Y30.738 I0.357 J-0.981 
G1 Z-2.300 F500.000 
G2 X-9.643 Y29.019 I-0.738 J-0.738 F800.000 
G2 X-10.357 Y30.981 I-0.357 J0.981 
G2 X-9.262 Y30.738 I0.357 J-0.981 
G1 Z-2.700 F500.000 
G2 X-9.643 Y29.019 I-0.738 J-0.738 F800.000 
G2 X-10.357 Y30.981 I-0.357 J0.981 
G2 X-9.262 Y30.738 I0.357 J-0.981 
G1 Z-3.100 F500.000 
G2 X-9.643 Y29.019 I-0.738 J-0.738 F800.000 
G2 X-10.357 Y30.981 I-0.357 J0.981 
G2 X-9.262 Y30.738 I0.357 J-0.981 
G1 Z-3.500 F500.000 
G2 X-9.643 Y29.019 I-0.738 J-0.738 F800.000 
G2 X-10.357 Y30.981 I-0.357 J0.981 
G2 X-9.262 Y30.738 I0.357 J-0.981 
G1 Z-3.900 F500.000 
G2 X-9.643 Y29.019 I-0.738 J-0.738 F800.000 
G2 X-10.357 Y30.981 I-0.357 J0.981 
G2 X-9.262 Y30.738 I0.357 J-0.981 
G1 Z-4.300 F500.000 
G2 X-9.643 Y29.019 I-0.738 J-0.738 F800.000 
G2 X-10.357 Y30.981 I-0.357 J0.981 
G2 X-9.262 Y30.738 I0.357 J-0.981 
G1 Z-4.700 F500.000 
G2 X-9.643 Y29.019 I-0.738 J-0.738 F800.000 
G2 X-10.357 Y30.981 I-0.357 J0.981 
G2 X-9.262 Y30.738 I0.357 J-0.981 
G1 Z-5.100 F500.000 
G2 X-9.643 Y29.019 I-0.738 J-0.738 F800.000 
G2 X-10.357 Y30.981 I-0.357 J0.981 
G2 X-9.262 Y30.738 I0.357 J-0.981 
G1 Z-5.200 F500.000 
G2 X-9.643 Y29.019 I-0.738 J-0.738 F800.000 
G2 X-10.357 Y30.981 I-0.357 J0.981 
G2 X-9.262 Y30.738 I0.357 J-0.981 
G0 Z12.000 
X-29.262 Y10.738 
Z8.000 
G1 Z-0.300 F500.000 
G2 X-29.643 Y9.019 I-0.738 J-0.738 F800.000 
G2 X-30.357 Y10.981 I-0.357 J0.981 
G2 X-29.262 Y10.738 I0.357 J-0.981 
G1 Y10.738 Z-0.700 F500.000 
G2 X-29.643 Y9.019 I-0.738 J-0.738 F800.000 
G2 X-30.357 Y10.981 I-0.357 J0.981 
G2 X-29.262 Y10.738 I0.357 J-0.981 
G1 Z-1.100 F500.000 
G2 X-29.643 Y9.019 I-0.738 J-0.738 F800.000 
G2 X-30.357 Y10.981 I-0.357 J0.981 
G2 X-29.262 Y10.738 I0.357 J-0.981 
G1 Z-1.500 F500.000 
G2 X-29.643 Y9.019 I-0.738 J-0.738 F800.000 
G2 X-30.357 Y10.981 I-0.357 J0.981 
G2 X-29.262 Y10.738 I0.357 J-0.981 
G1 Z-1.900 F500.000 
G2 X-29.643 Y9.019 I-0.738 J-0.738 F800.000 
G2 X-30.357 Y10.981 I-0.357 J0.981 
G2 X-29.262 Y10.738 I0.357 J-0.981 
G1 Z-2.300 F500.000 
G2 X-29.643 Y9.019 I-0.738 J-0.738 F800.000 
G2 X-30.357 Y10.981 I-0.357 J0.981 
G2 X-29.262 Y10.738 I0.357 J-0.981 
G1 Z-2.700 F500.000 
G2 X-29.643 Y9.019 I-0.738 J-0.738 F800.000 
G2 X-30.357 Y10.981 I-0.357 J0.981 
G2 X-29.262 Y10.738 I0.357 J-0.981 
G1 Z-3.100 F500.000 
G2 X-29.643 Y9.019 I-0.738 J-0.738 F800.000 
G2 X-30.357 Y10.981 I-0.357 J0.981 
G2 X-29.262 Y10.738 I0.357 J-0.981 
G1 Z-3.500 F500.000 
G2 X-29.643 Y9.019 I-0.738 J-0.738 F800.000 
G2 X-30.357 Y10.981 I-0.357 J0.981 
G2 X-29.262 Y10.738 I0.357 J-0.981 
G1 Z-3.900 F500.000 
G2 X-29.643 Y9.019 I-0.738 J-0.738 F800.000 
G2 X-30.357 Y10.981 I-0.357 J0.981 
G2 X-29.262 Y10.738 I0.357 J-0.981 
G1 Z-4.300 F500.000 
G2 X-29.643 Y9.019 I-0.738 J-0.738 F800.000 
G2 X-30.357 Y10.981 I-0.357 J0.981 
G2 X-29.262 Y10.738 I0.357 J-0.981 
G1 Z-4.700 F500.000 
G2 X-29.643 Y9.019 I-0.738 J-0.738 F800.000 
G2 X-30.357 Y10.981 I-0.357 J0.981 
G2 X-29.262 Y10.738 I0.357 J-0.981 
G1 Z-5.100 F500.000 
G2 X-29.643 Y9.019 I-0.738 J-0.738 F800.000 
G2 X-30.357 Y10.981 I-0.357 J0.981 
G2 X-29.262 Y10.738 I0.357 J-0.981 
G1 Z-5.200 F500.000 
G2 X-29.643 Y9.019 I-0.738 J-0.738 F800.000 
G2 X-30.357 Y10.981 I-0.357 J0.981 
G2 X-29.262 Y10.738 I0.357 J-0.981 
G0 Z12.000 
X10.738 Y-29.262 
Z8.000 
G1 Z-0.300 F500.000 
G2 X10.357 Y-30.981 I-0.738 J-0.738 F800.000 
G2 X9.019 Y-30.357 I-0.357 J0.981 
G2 X9.643 Y-29.019 I0.981 J0.357 
G2 X10.738 Y-29.262 I0.357 J-0.981 
G1 X10.738 Z-0.700 F500.000 
G2 X10.357 Y-30.981 I-0.738 J-0.738 F800.000 
G2 X9.019 Y-30.357 I-0.357 J0.981 
G2 X9.643 Y-29.019 I0.981 J0.357 
G2 X10.738 Y-29.262 I0.357 J-0.981 
G1 Z-1.100 F500.000 
G2 X10.357 Y-30.981 I-0.738 J-0.738 F800.000 
G2 X9.019 Y-30.357 I-0.357 J0.981 
G2 X9.643 Y-29.019 I0.981 J0.357 
G2 X10.738 Y-29.262 I0.357 J-0.981 
G1 Z-1.500 F500.000 
G2 X10.357 Y-30.981 I-0.738 J-0.738 F800.000 
G2 X9.019 Y-30.357 I-0.357 J0.981 
G2 X9.643 Y-29.019 I0.981 J0.357 
G2 X10.738 Y-29.262 I0.357 J-0.981 
G1 Z-1.900 F500.000 
G2 X10.357 Y-30.981 I-0.738 J-0.738 F800.000 
G2 X9.019 Y-30.357 I-0.357 J0.981 
G2 X9.643 Y-29.019 I0.981 J0.357 
G2 X10.738 Y-29.262 I0.357 J-0.981 
G1 Z-2.300 F500.000 
G2 X10.357 Y-30.981 I-0.738 J-0.738 F800.000 
G2 X9.019 Y-30.357 I-0.357 J0.981 
G2 X9.643 Y-29.019 I0.981 J0.357 
G2 X10.738 Y-29.262 I0.357 J-0.981 
G1 Z-2.700 F500.000 
G2 X10.357 Y-30.981 I-0.738 J-0.738 F800.000 
G2 X9.019 Y-30.357 I-0.357 J0.981 
G2 X9.643 Y-29.019 I0.981 J0.357 
G2 X10.738 Y-29.262 I0.357 J-0.981 
G1 Z-3.100 F500.000 
G2 X10.357 Y-30.981 I-0.738 J-0.738 F800.000 
G2 X9.019 Y-30.357 I-0.357 J0.981 
G2 X9.643 Y-29.019 I0.981 J0.357 
G2 X10.738 Y-29.262 I0.357 J-0.981 
G1 Z-3.500 F500.000 
G2 X10.357 Y-30.981 I-0.738 J-0.738 F800.000 
G2 X9.019 Y-30.357 I-0.357 J0.981 
G2 X9.643 Y-29.019 I0.981 J0.357 
G2 X10.738 Y-29.262 I0.357 J-0.981 
G1 Z-3.900 F500.000 
G2 X10.357 Y-30.981 I-0.738 J-0.738 F800.000 
G2 X9.019 Y-30.357 I-0.357 J0.981 
G2 X9.643 Y-29.019 I0.981 J0.357 
G2 X10.738 Y-29.262 I0.357 J-0.981 
G1 Z-4.300 F500.000 
G2 X10.357 Y-30.981 I-0.738 J-0.738 F800.000 
G2 X9.019 Y-30.357 I-0.357 J0.981 
G2 X9.643 Y-29.019 I0.981 J0.357 
G2 X10.738 Y-29.262 I0.357 J-0.981 
G1 Z-4.700 F500.000 
G2 X10.357 Y-30.981 I-0.738 J-0.738 F800.000 
G2 X9.019 Y-30.357 I-0.357 J0.981 
G2 X9.643 Y-29.019 I0.981 J0.357 
G2 X10.738 Y-29.262 I0.357 J-0.981 
G1 Z-5.100 F500.000 
G2 X10.357 Y-30.981 I-0.738 J-0.738 F800.000 
G2 X9.019 Y-30.357 I-0.357 J0.981 
G2 X9.643 Y-29.019 I0.981 J0.357 
G2 X10.738 Y-29.262 I0.357 J-0.981 
G1 Z-5.200 F500.000 
G2 X10.357 Y-30.981 I-0.738 J-0.738 F800.000 
G2 X9.019 Y-30.357 I-0.357 J0.981 
G2 X9.643 Y-29.019 I0.981 J0.357 
G2 X10.738 Y-29.262 I0.357 J-0.981 
G0 Z12.000 
X30.738 Y30.738 
Z8.000 
G1 Z-0.300 F500.000 
G2 X30.357 Y29.019 I-0.738 J-0.738 F800.000 
G2 X29.643 Y30.981 I-0.357 J0.981 
G2 X30.738 Y30.738 I0.357 J-0.981 
G1 Z-0.700 F500.000 
G2 X30.357 Y29.019 I-0.738 J-0.738 F800.000 
G2 X29.643 Y30.981 I-0.357 J0.981 
G2 X30.738 Y30.738 I0.357 J-0.981 
G1 Z-1.100 F500.000 
G2 X30.357 Y29.019 I-0.738 J-0.738 F800.000 
G2 X29.643 Y30.981 I-0.357 J0.981 
G2 X30.738 Y30.738 I0.357 J-0.981 
G1 Z-1.500 F500.000 
G2 X30.357 Y29.019 I-0.738 J-0.738 F800.000 
G2 X29.643 Y30.981 I-0.357 J0.981 
G2 X30.738 Y30.738 I0.357 J-0.981 
G1 Z-1.900 F500.000 
G2 X30.357 Y29.019 I-0.738 J-0.738 F800.000 
G2 X29.643 Y30.981 I-0.357 J0.981 
G2 X30.738 Y30.738 I0.357 J-0.981 
G1 Z-2.300 F500.000 
G2 X30.357 Y29.019 I-0.738 J-0.738 F800.000 
G2 X29.643 Y30.981 I-0.357 J0.981 
G2 X30.738 Y30.738 I0.357 J-0.981 
G1 Z-2.700 F500.000 
G2 X30.357 Y29.019 I-0.738 J-0.738 F800.000 
G2 X29.643 Y30.981 I-0.357 J0.981 
G2 X30.738 Y30.738 I0.357 J-0.981 
G1 Z-3.100 F500.000 
G2 X30.357 Y29.019 I-0.738 J-0.738 F800.000 
G2 X29.643 Y30.981 I-0.357 J0.981 
G2 X30.738 Y30.738 I0.357 J-0.981 
G1 Z-3.500 F500.000 
G2 X30.357 Y29.019 I-0.738 J-0.738 F800.000 
G2 X29.643 Y30.981 I-0.357 J0.981 
G2 X30.738 Y30.738 I0.357 J-0.981 
G1 Z-3.900 F500.000 
G2 X30.357 Y29.019 I-0.738 J-0.738 F800.000 
G2 X29.643 Y30.981 I-0.357 J0.981 
G2 X30.738 Y30.738 I0.357 J-0.981 
G1 Z-4.300 F500.000 
G2 X30.357 Y29.019 I-0.738 J-0.738 F800.000 
G2 X29.643 Y30.981 I-0.357 J0.981 
G2 X30.738 Y30.738 I0.357 J-0.981 
G1 Z-4.700 F500.000 
G2 X30.357 Y29.019 I-0.738 J-0.738 F800.000 
G2 X29.643 Y30.981 I-0.357 J0.981 
G2 X30.738 Y30.738 I0.357 J-0.981 
G1 Z-5.100 F500.000 
G2 X30.357 Y29.019 I-0.738 J-0.738 F800.000 
G2 X29.643 Y30.981 I-0.357 J0.981 
G2 X30.738 Y30.738 I0.357 J-0.981 
G1 Z-5.200 F500.000 
G2 X30.357 Y29.019 I-0.738 J-0.738 F800.000 
G2 X29.643 Y30.981 I-0.357 J0.981 
G2 X30.738 Y30.738 I0.357 J-0.981 
G0 Z12.000 
X-29.262 Y-29.262 
Z8.000 
G1 Z-0.300 F500.000 
G2 X-29.643 Y-30.981 I-0.738 J-0.738 F800.000 
G2 X-30.981 Y-30.357 I-0.357 J0.981 
G2 X-30.357 Y-29.019 I0.981 J0.357 
G2 X-29.262 Y-29.262 I0.357 J-0.981 
G1 Z-0.700 F500.000 
G2 X-29.643 Y-30.981 I-0.738 J-0.738 F800.000 
G2 X-30.981 Y-30.357 I-0.357 J0.981 
G2 X-30.357 Y-29.019 I0.981 J0.357 
G2 X-29.262 Y-29.262 I0.357 J-0.981 
G1 Z-1.100 F500.000 
G2 X-29.643 Y-30.981 I-0.738 J-0.738 F800.000 
G2 X-30.981 Y-30.357 I-0.357 J0.981 
G2 X-30.357 Y-29.019 I0.981 J0.357 
G2 X-29.262 Y-29.262 I0.357 J-0.981 
G1 Z-1.500 F500.000 
G2 X-29.643 Y-30.981 I-0.738 J-0.738 F800.000 
G2 X-30.981 Y-30.357 I-0.357 J0.981 
G2 X-30.357 Y-29.019 I0.981 J0.357 
G2 X-29.262 Y-29.262 I0.357 J-0.981 
G1 Z-1.900 F500.000 
G2 X-29.643 Y-30.981 I-0.738 J-0.738 F800.000 
G2 X-30.981 Y-30.357 I-0.357 J0.981 
G2 X-30.357 Y-29.019 I0.981 J0.357 
G2 X-29.262 Y-29.262 I0.357 J-0.981 
G1 Z-2.300 F500.000 
G2 X-29.643 Y-30.981 I-0.738 J-0.738 F800.000 
G2 X-30.981 Y-30.357 I-0.357 J0.981 
G2 X-30.357 Y-29.019 I0.981 J0.357 
G2 X-29.262 Y-29.262 I0.357 J-0.981 
G1 Z-2.700 F500.000 
G2 X-29.643 Y-30.981 I-0.738 J-0.738 F800.000 
G2 X-30.981 Y-30.357 I-0.357 J0.981 
G2 X-30.357 Y-29.019 I0.981 J0.357 
G2 X-29.262 Y-29.262 I0.357 J-0.981 
G1 Z-3.100 F500.000 
G2 X-29.643 Y-30.981 I-0.738 J-0.738 F800.000 
G2 X-30.981 Y-30.357 I-0.357 J0.981 
G2 X-30.357 Y-29.019 I0.981 J0.357 
G2 X-29.262 Y-29.262 I0.357 J-0.981 
G1 Z-3.500 F500.000 
G2 X-29.643 Y-30.981 I-0.738 J-0.738 F800.000 
G2 X-30.981 Y-30.357 I-0.357 J0.981 
G2 X-30.357 Y-29.019 I0.981 J0.357 
G2 X-29.262 Y-29.262 I0.357 J-0.981 
G1 Z-3.900 F500.000 
G2 X-29.643 Y-30.981 I-0.738 J-0.738 F800.000 
G2 X-30.981 Y-30.357 I-0.357 J0.981 
G2 X-30.357 Y-29.019 I0.981 J0.357 
G2 X-29.262 Y-29.262 I0.357 J-0.981 
G1 Z-4.300 F500.000 
G2 X-29.643 Y-30.981 I-0.738 J-0.738 F800.000 
G2 X-30.981 Y-30.357 I-0.357 J0.981 
G2 X-30.357 Y-29.019 I0.981 J0.357 
G2 X-29.262 Y-29.262 I0.357 J-0.981 
G1 Z-4.700 F500.000 
G2 X-29.643 Y-30.981 I-0.738 J-0.738 F800.000 
G2 X-30.981 Y-30.357 I-0.357 J0.981 
G2 X-30.357 Y-29.019 I0.981 J0.357 
G2 X-29.262 Y-29.262 I0.357 J-0.981 
G1 Z-5.100 F500.000 
G2 X-29.643 Y-30.981 I-0.738 J-0.738 F800.000 
G2 X-30.981 Y-30.357 I-0.357 J0.981 
G2 X-30.357 Y-29.019 I0.981 J0.357 
G2 X-29.262 Y-29.262 I0.357 J-0.981 
G1 Z-5.200 F500.000 
G2 X-29.643 Y-30.981 I-0.738 J-0.738 F800.000 
G2 X-30.981 Y-30.357 I-0.357 J0.981 
G2 X-30.357 Y-29.019 I0.981 J0.357 
G2 X-29.262 Y-29.262 I0.357 J-0.981 
G0 Z12.000 
X10.738 Y-69.262 
Z8.000 
G1 Z-0.300 F500.000 
G2 X10.357 Y-70.981 I-0.738 J-0.738 F800.000 
G2 X9.019 Y-70.357 I-0.357 J0.981 
G2 X9.643 Y-69.019 I0.981 J0.357 
G2 X10.738 Y-69.262 I0.357 J-0.981 
G1 X10.738 Z-0.700 F500.000 
G2 X10.357 Y-70.981 I-0.738 J-0.738 F800.000 
G2 X9.019 Y-70.357 I-0.357 J0.981 
G2 X9.643 Y-69.019 I0.981 J0.357 
G2 X10.738 Y-69.262 I0.357 J-0.981 
G1 X10.738 Z-1.100 F500.000 
G2 X10.357 Y-70.981 I-0.738 J-0.738 F800.000 
G2 X9.019 Y-70.357 I-0.357 J0.981 
G2 X9.643 Y-69.019 I0.981 J0.357 
G2 X10.738 Y-69.262 I0.357 J-0.981 
G1 X10.738 Z-1.500 F500.000 
G2 X10.357 Y-70.981 I-0.738 J-0.738 F800.000 
G2 X9.019 Y-70.357 I-0.357 J0.981 
G2 X9.643 Y-69.019 I0.981 J0.357 
G2 X10.738 Y-69.262 I0.357 J-0.981 
G1 X10.738 Z-1.900 F500.000 
G2 X10.357 Y-70.981 I-0.738 J-0.738 F800.000 
G2 X9.019 Y-70.357 I-0.357 J0.981 
G2 X9.643 Y-69.019 I0.981 J0.357 
G2 X10.738 Y-69.262 I0.357 J-0.981 
G1 X10.738 Z-2.300 F500.000 
G2 X10.357 Y-70.981 I-0.738 J-0.738 F800.000 
G2 X9.019 Y-70.357 I-0.357 J0.981 
G2 X9.643 Y-69.019 I0.981 J0.357 
G2 X10.738 Y-69.262 I0.357 J-0.981 
G1 X10.738 Z-2.700 F500.000 
G2 X10.357 Y-70.981 I-0.738 J-0.738 F800.000 
G2 X9.019 Y-70.357 I-0.357 J0.981 
G2 X9.643 Y-69.019 I0.981 J0.357 
G2 X10.738 Y-69.262 I0.357 J-0.981 
G1 X10.738 Z-3.100 F500.000 
G2 X10.357 Y-70.981 I-0.738 J-0.738 F800.000 
G2 X9.019 Y-70.357 I-0.357 J0.981 
G2 X9.643 Y-69.019 I0.981 J0.357 
G2 X10.738 Y-69.262 I0.357 J-0.981 
G1 X10.738 Z-3.500 F500.000 
G2 X10.357 Y-70.981 I-0.738 J-0.738 F800.000 
G2 X9.019 Y-70.357 I-0.357 J0.981 
G2 X9.643 Y-69.019 I0.981 J0.357 
G2 X10.738 Y-69.262 I0.357 J-0.981 
G1 X10.738 Z-3.900 F500.000 
G2 X10.357 Y-70.981 I-0.738 J-0.738 F800.000 
G2 X9.019 Y-70.357 I-0.357 J0.981 
G2 X9.643 Y-69.019 I0.981 J0.357 
G2 X10.738 Y-69.262 I0.357 J-0.981 
G1 X10.738 Z-4.300 F500.000 
G2 X10.357 Y-70.981 I-0.738 J-0.738 F800.000 
G2 X9.019 Y-70.357 I-0.357 J0.981 
G2 X9.643 Y-69.019 I0.981 J0.357 
G2 X10.738 Y-69.262 I0.357 J-0.981 
G1 X10.738 Z-4.700 F500.000 
G2 X10.357 Y-70.981 I-0.738 J-0.738 F800.000 
G2 X9.019 Y-70.357 I-0.357 J0.981 
G2 X9.643 Y-69.019 I0.981 J0.357 
G2 X10.738 Y-69.262 I0.357 J-0.981 
G1 X10.738 Z-5.100 F500.000 
G2 X10.357 Y-70.981 I-0.738 J-0.738 F800.000 
G2 X9.019 Y-70.357 I-0.357 J0.981 
G2 X9.643 Y-69.019 I0.981 J0.357 
G2 X10.738 Y-69.262 I0.357 J-0.981 
G1 X10.738 Z-5.200 F500.000 
G2 X10.357 Y-70.981 I-0.738 J-0.738 F800.000 
G2 X9.019 Y-70.357 I-0.357 J0.981 
G2 X9.643 Y-69.019 I0.981 J0.357 
G2 X10.738 Y-69.262 I0.357 J-0.981 
G0 Z12.000 
X-9.262 Y-49.262 
Z8.000 
G1 Z-0.300 F500.000 
G2 X-9.643 Y-50.981 I-0.738 J-0.738 F800.000 
G2 X-10.981 Y-50.357 I-0.357 J0.981 
G2 X-10.357 Y-49.019 I0.981 J0.357 
G2 X-9.262 Y-49.262 I0.357 J-0.981 
G1 Z-0.700 F500.000 
G2 X-9.643 Y-50.981 I-0.738 J-0.738 F800.000 
G2 X-10.981 Y-50.357 I-0.357 J0.981 
G2 X-10.357 Y-49.019 I0.981 J0.357 
G2 X-9.262 Y-49.262 I0.357 J-0.981 
G1 Z-1.100 F500.000 
G2 X-9.643 Y-50.981 I-0.738 J-0.738 F800.000 
G2 X-10.981 Y-50.357 I-0.357 J0.981 
G2 X-10.357 Y-49.019 I0.981 J0.357 
G2 X-9.262 Y-49.262 I0.357 J-0.981 
G1 Z-1.500 F500.000 
G2 X-9.643 Y-50.981 I-0.738 J-0.738 F800.000 
G2 X-10.981 Y-50.357 I-0.357 J0.981 
G2 X-10.357 Y-49.019 I0.981 J0.357 
G2 X-9.262 Y-49.262 I0.357 J-0.981 
G1 Z-1.900 F500.000 
G2 X-9.643 Y-50.981 I-0.738 J-0.738 F800.000 
G2 X-10.981 Y-50.357 I-0.357 J0.981 
G2 X-10.357 Y-49.019 I0.981 J0.357 
G2 X-9.262 Y-49.262 I0.357 J-0.981 
G1 Z-2.300 F500.000 
G2 X-9.643 Y-50.981 I-0.738 J-0.738 F800.000 
G2 X-10.981 Y-50.357 I-0.357 J0.981 
G2 X-10.357 Y-49.019 I0.981 J0.357 
G2 X-9.262 Y-49.262 I0.357 J-0.981 
G1 Z-2.700 F500.000 
G2 X-9.643 Y-50.981 I-0.738 J-0.738 F800.000 
G2 X-10.981 Y-50.357 I-0.357 J0.981 
G2 X-10.357 Y-49.019 I0.981 J0.357 
G2 X-9.262 Y-49.262 I0.357 J-0.981 
G1 Z-3.100 F500.000 
G2 X-9.643 Y-50.981 I-0.738 J-0.738 F800.000 
G2 X-10.981 Y-50.357 I-0.357 J0.981 
G2 X-10.357 Y-49.019 I0.981 J0.357 
G2 X-9.262 Y-49.262 I0.357 J-0.981 
G1 Z-3.500 F500.000 
G2 X-9.643 Y-50.981 I-0.738 J-0.738 F800.000 
G2 X-10.981 Y-50.357 I-0.357 J0.981 
G2 X-10.357 Y-49.019 I0.981 J0.357 
G2 X-9.262 Y-49.262 I0.357 J-0.981 
G1 Z-3.900 F500.000 
G2 X-9.643 Y-50.981 I-0.738 J-0.738 F800.000 
G2 X-10.981 Y-50.357 I-0.357 J0.981 
G2 X-10.357 Y-49.019 I0.981 J0.357 
G2 X-9.262 Y-49.262 I0.357 J-0.981 
G1 Z-4.300 F500.000 
G2 X-9.643 Y-50.981 I-0.738 J-0.738 F800.000 
G2 X-10.981 Y-50.357 I-0.357 J0.981 
G2 X-10.357 Y-49.019 I0.981 J0.357 
G2 X-9.262 Y-49.262 I0.357 J-0.981 
G1 Z-4.700 F500.000 
G2 X-9.643 Y-50.981 I-0.738 J-0.738 F800.000 
G2 X-10.981 Y-50.357 I-0.357 J0.981 
G2 X-10.357 Y-49.019 I0.981 J0.357 
G2 X-9.262 Y-49.262 I0.357 J-0.981 
G1 Z-5.100 F500.000 
G2 X-9.643 Y-50.981 I-0.738 J-0.738 F800.000 
G2 X-10.981 Y-50.357 I-0.357 J0.981 
G2 X-10.357 Y-49.019 I0.981 J0.357 
G2 X-9.262 Y-49.262 I0.357 J-0.981 
G1 Z-5.200 F500.000 
G2 X-9.643 Y-50.981 I-0.738 J-0.738 F800.000 
G2 X-10.981 Y-50.357 I-0.357 J0.981 
G2 X-10.357 Y-49.019 I0.981 J0.357 
G2 X-9.262 Y-49.262 I0.357 J-0.981 
G0 Z12.000 
X10.738 Y50.738 
Z8.000 
G1 Z-0.300 F500.000 
G2 X10.357 Y49.019 I-0.738 J-0.738 F800.000 
G2 X9.643 Y50.981 I-0.357 J0.981 
G2 X10.738 Y50.738 I0.357 J-0.981 
G1 Z-0.700 F500.000 
G2 X10.357 Y49.019 I-0.738 J-0.738 F800.000 
G2 X9.643 Y50.981 I-0.357 J0.981 
G2 X10.738 Y50.738 I0.357 J-0.981 
G1 Z-1.100 F500.000 
G2 X10.357 Y49.019 I-0.738 J-0.738 F800.000 
G2 X9.643 Y50.981 I-0.357 J0.981 
G2 X10.738 Y50.738 I0.357 J-0.981 
G1 Z-1.500 F500.000 
G2 X10.357 Y49.019 I-0.738 J-0.738 F800.000 
G2 X9.643 Y50.981 I-0.357 J0.981 
G2 X10.738 Y50.738 I0.357 J-0.981 
G1 Z-1.900 F500.000 
G2 X10.357 Y49.019 I-0.738 J-0.738 F800.000 
G2 X9.643 Y50.981 I-0.357 J0.981 
G2 X10.738 Y50.738 I0.357 J-0.981 
G1 Z-2.300 F500.000 
G2 X10.357 Y49.019 I-0.738 J-0.738 F800.000 
G2 X9.643 Y50.981 I-0.357 J0.981 
G2 X10.738 Y50.738 I0.357 J-0.981 
G1 Z-2.700 F500.000 
G2 X10.357 Y49.019 I-0.738 J-0.738 F800.000 
G2 X9.643 Y50.981 I-0.357 J0.981 
G2 X10.738 Y50.738 I0.357 J-0.981 
G1 Z-3.100 F500.000 
G2 X10.357 Y49.019 I-0.738 J-0.738 F800.000 
G2 X9.643 Y50.981 I-0.357 J0.981 
G2 X10.738 Y50.738 I0.357 J-0.981 
G1 Z-3.500 F500.000 
G2 X10.357 Y49.019 I-0.738 J-0.738 F800.000 
G2 X9.643 Y50.981 I-0.357 J0.981 
G2 X10.738 Y50.738 I0.357 J-0.981 
G1 Z-3.900 F500.000 
G2 X10.357 Y49.019 I-0.738 J-0.738 F800.000 
G2 X9.643 Y50.981 I-0.357 J0.981 
G2 X10.738 Y50.738 I0.357 J-0.981 
G1 Z-4.300 F500.000 
G2 X10.357 Y49.019 I-0.738 J-0.738 F800.000 
G2 X9.643 Y50.981 I-0.357 J0.981 
G2 X10.738 Y50.738 I0.357 J-0.981 
G1 Z-4.700 F500.000 
G2 X10.357 Y49.019 I-0.738 J-0.738 F800.000 
G2 X9.643 Y50.981 I-0.357 J0.981 
G2 X10.738 Y50.738 I0.357 J-0.981 
G1 Z-5.100 F500.000 
G2 X10.357 Y49.019 I-0.738 J-0.738 F800.000 
G2 X9.643 Y50.981 I-0.357 J0.981 
G2 X10.738 Y50.738 I0.357 J-0.981 
G1 Z-5.200 F500.000 
G2 X10.357 Y49.019 I-0.738 J-0.738 F800.000 
G2 X9.643 Y50.981 I-0.357 J0.981 
G2 X10.738 Y50.738 I0.357 J-0.981 
G0 Z12.000 
X-9.262 Y70.738 
Z8.000 
G1 Z-0.300 F500.000 
G2 X-9.019 Y70.357 I-0.738 J-0.738 F800.000 
G2 X-9.643 Y69.019 I-0.981 J-0.357 
G2 X-10.981 Y69.643 I-0.357 J0.981 
G2 X-9.262 Y70.738 I0.981 J0.357 
G1 Z-0.700 F500.000 
G2 X-9.019 Y70.357 I-0.738 J-0.738 F800.000 
G2 X-9.643 Y69.019 I-0.981 J-0.357 
G2 X-10.981 Y69.643 I-0.357 J0.981 
G2 X-9.262 Y70.738 I0.981 J0.357 
G1 Z-1.100 F500.000 
G2 X-9.019 Y70.357 I-0.738 J-0.738 F800.000 
G2 X-9.643 Y69.019 I-0.981 J-0.357 
G2 X-10.981 Y69.643 I-0.357 J0.981 
G2 X-9.262 Y70.738 I0.981 J0.357 
G1 Z-1.500 F500.000 
G2 X-9.019 Y70.357 I-0.738 J-0.738 F800.000 
G2 X-9.643 Y69.019 I-0.981 J-0.357 
G2 X-10.981 Y69.643 I-0.357 J0.981 
G2 X-9.262 Y70.738 I0.981 J0.357 
G1 Z-1.900 F500.000 
G2 X-9.019 Y70.357 I-0.738 J-0.738 F800.000 
G2 X-9.643 Y69.019 I-0.981 J-0.357 
G2 X-10.981 Y69.643 I-0.357 J0.981 
G2 X-9.262 Y70.738 I0.981 J0.357 
G1 Z-2.300 F500.000 
G2 X-9.019 Y70.357 I-0.738 J-0.738 F800.000 
G2 X-9.643 Y69.019 I-0.981 J-0.357 
G2 X-10.981 Y69.643 I-0.357 J0.981 
G2 X-9.262 Y70.738 I0.981 J0.357 
G1 Z-2.700 F500.000 
G2 X-9.019 Y70.357 I-0.738 J-0.738 F800.000 
G2 X-9.643 Y69.019 I-0.981 J-0.357 
G2 X-10.981 Y69.643 I-0.357 J0.981 
G2 X-9.262 Y70.738 I0.981 J0.357 
G1 Z-3.100 F500.000 
G2 X-9.019 Y70.357 I-0.738 J-0.738 F800.000 
G2 X-9.643 Y69.019 I-0.981 J-0.357 
G2 X-10.981 Y69.643 I-0.357 J0.981 
G2 X-9.262 Y70.738 I0.981 J0.357 
G1 Z-3.500 F500.000 
G2 X-9.019 Y70.357 I-0.738 J-0.738 F800.000 
G2 X-9.643 Y69.019 I-0.981 J-0.357 
G2 X-10.981 Y69.643 I-0.357 J0.981 
G2 X-9.262 Y70.738 I0.981 J0.357 
G1 Z-3.900 F500.000 
G2 X-9.019 Y70.357 I-0.738 J-0.738 F800.000 
G2 X-9.643 Y69.019 I-0.981 J-0.357 
G2 X-10.981 Y69.643 I-0.357 J0.981 
G2 X-9.262 Y70.738 I0.981 J0.357 
G1 Z-4.300 F500.000 
G2 X-9.019 Y70.357 I-0.738 J-0.738 F800.000 
G2 X-9.643 Y69.019 I-0.981 J-0.357 
G2 X-10.981 Y69.643 I-0.357 J0.981 
G2 X-9.262 Y70.738 I0.981 J0.357 
G1 Z-4.700 F500.000 
G2 X-9.019 Y70.357 I-0.738 J-0.738 F800.000 
G2 X-9.643 Y69.019 I-0.981 J-0.357 
G2 X-10.981 Y69.643 I-0.357 J0.981 
G2 X-9.262 Y70.738 I0.981 J0.357 
G1 Z-5.100 F500.000 
G2 X-9.019 Y70.357 I-0.738 J-0.738 F800.000 
G2 X-9.643 Y69.019 I-0.981 J-0.357 
G2 X-10.981 Y69.643 I-0.357 J0.981 
G2 X-9.262 Y70.738 I0.981 J0.357 
G1 Z-5.200 F500.000 
G2 X-9.019 Y70.357 I-0.738 J-0.738 F800.000 
G2 X-9.643 Y69.019 I-0.981 J-0.357 
G2 X-10.981 Y69.643 I-0.357 J0.981 
G2 X-9.262 Y70.738 I0.981 J0.357 
G0 Z12.000 
X-29.262 Y-69.262 
Z8.000 
G1 Z-0.300 F500.000 
G2 X-29.643 Y-70.981 I-0.738 J-0.738 F800.000 
G2 X-30.981 Y-70.357 I-0.357 J0.981 
G2 X-30.357 Y-69.019 I0.981 J0.357 
G2 X-29.262 Y-69.262 I0.357 J-0.981 
G1 X-29.262 Z-0.700 F500.000 
G2 X-29.643 Y-70.981 I-0.738 J-0.738 F800.000 
G2 X-30.981 Y-70.357 I-0.357 J0.981 
G2 X-30.357 Y-69.019 I0.981 J0.357 
G2 X-29.262 Y-69.262 I0.357 J-0.981 
G1 X-29.262 Z-1.100 F500.000 
G2 X-29.643 Y-70.981 I-0.738 J-0.738 F800.000 
G2 X-30.981 Y-70.357 I-0.357 J0.981 
G2 X-30.357 Y-69.019 I0.981 J0.357 
G2 X-29.262 Y-69.262 I0.357 J-0.981 
G1 X-29.262 Z-1.500 F500.000 
G2 X-29.643 Y-70.981 I-0.738 J-0.738 F800.000 
G2 X-30.981 Y-70.357 I-0.357 J0.981 
G2 X-30.357 Y-69.019 I0.981 J0.357 
G2 X-29.262 Y-69.262 I0.357 J-0.981 
G1 X-29.262 Z-1.900 F500.000 
G2 X-29.643 Y-70.981 I-0.738 J-0.738 F800.000 
G2 X-30.981 Y-70.357 I-0.357 J0.981 
G2 X-30.357 Y-69.019 I0.981 J0.357 
G2 X-29.262 Y-69.262 I0.357 J-0.981 
G1 X-29.262 Z-2.300 F500.000 
G2 X-29.643 Y-70.981 I-0.738 J-0.738 F800.000 
G2 X-30.981 Y-70.357 I-0.357 J0.981 
G2 X-30.357 Y-69.019 I0.981 J0.357 
G2 X-29.262 Y-69.262 I0.357 J-0.981 
G1 X-29.262 Z-2.700 F500.000 
G2 X-29.643 Y-70.981 I-0.738 J-0.738 F800.000 
G2 X-30.981 Y-70.357 I-0.357 J0.981 
G2 X-30.357 Y-69.019 I0.981 J0.357 
G2 X-29.262 Y-69.262 I0.357 J-0.981 
G1 X-29.262 Z-3.100 F500.000 
G2 X-29.643 Y-70.981 I-0.738 J-0.738 F800.000 
G2 X-30.981 Y-70.357 I-0.357 J0.981 
G2 X-30.357 Y-69.019 I0.981 J0.357 
G2 X-29.262 Y-69.262 I0.357 J-0.981 
G1 X-29.262 Z-3.500 F500.000 
G2 X-29.643 Y-70.981 I-0.738 J-0.738 F800.000 
G2 X-30.981 Y-70.357 I-0.357 J0.981 
G2 X-30.357 Y-69.019 I0.981 J0.357 
G2 X-29.262 Y-69.262 I0.357 J-0.981 
G1 X-29.262 Z-3.900 F500.000 
G2 X-29.643 Y-70.981 I-0.738 J-0.738 F800.000 
G2 X-30.981 Y-70.357 I-0.357 J0.981 
G2 X-30.357 Y-69.019 I0.981 J0.357 
G2 X-29.262 Y-69.262 I0.357 J-0.981 
G1 X-29.262 Z-4.300 F500.000 
G2 X-29.643 Y-70.981 I-0.738 J-0.738 F800.000 
G2 X-30.981 Y-70.357 I-0.357 J0.981 
G2 X-30.357 Y-69.019 I0.981 J0.357 
G2 X-29.262 Y-69.262 I0.357 J-0.981 
G1 X-29.262 Z-4.700 F500.000 
G2 X-29.643 Y-70.981 I-0.738 J-0.738 F800.000 
G2 X-30.981 Y-70.357 I-0.357 J0.981 
G2 X-30.357 Y-69.019 I0.981 J0.357 
G2 X-29.262 Y-69.262 I0.357 J-0.981 
G1 X-29.262 Z-5.100 F500.000 
G2 X-29.643 Y-70.981 I-0.738 J-0.738 F800.000 
G2 X-30.981 Y-70.357 I-0.357 J0.981 
G2 X-30.357 Y-69.019 I0.981 J0.357 
G2 X-29.262 Y-69.262 I0.357 J-0.981 
G1 X-29.262 Z-5.200 F500.000 
G2 X-29.643 Y-70.981 I-0.738 J-0.738 F800.000 
G2 X-30.981 Y-70.357 I-0.357 J0.981 
G2 X-30.357 Y-69.019 I0.981 J0.357 
G2 X-29.262 Y-69.262 I0.357 J-0.981 
G0 Z12.000 
X30.738 Y-49.262 
Z8.000 
G1 Z-0.300 F500.000 
G2 X30.357 Y-50.981 I-0.738 J-0.738 F800.000 
G2 X29.019 Y-50.357 I-0.357 J0.981 
G2 X29.643 Y-49.019 I0.981 J0.357 
G2 X30.738 Y-49.262 I0.357 J-0.981 
G1 Z-0.700 F500.000 
G2 X30.357 Y-50.981 I-0.738 J-0.738 F800.000 
G2 X29.019 Y-50.357 I-0.357 J0.981 
G2 X29.643 Y-49.019 I0.981 J0.357 
G2 X30.738 Y-49.262 I0.357 J-0.981 
G1 Z-1.100 F500.000 
G2 X30.357 Y-50.981 I-0.738 J-0.738 F800.000 
G2 X29.019 Y-50.357 I-0.357 J0.981 
G2 X29.643 Y-49.019 I0.981 J0.357 
G2 X30.738 Y-49.262 I0.357 J-0.981 
G1 Z-1.500 F500.000 
G2 X30.357 Y-50.981 I-0.738 J-0.738 F800.000 
G2 X29.019 Y-50.357 I-0.357 J0.981 
G2 X29.643 Y-49.019 I0.981 J0.357 
G2 X30.738 Y-49.262 I0.357 J-0.981 
G1 Z-1.900 F500.000 
G2 X30.357 Y-50.981 I-0.738 J-0.738 F800.000 
G2 X29.019 Y-50.357 I-0.357 J0.981 
G2 X29.643 Y-49.019 I0.981 J0.357 
G2 X30.738 Y-49.262 I0.357 J-0.981 
G1 Z-2.300 F500.000 
G2 X30.357 Y-50.981 I-0.738 J-0.738 F800.000 
G2 X29.019 Y-50.357 I-0.357 J0.981 
G2 X29.643 Y-49.019 I0.981 J0.357 
G2 X30.738 Y-49.262 I0.357 J-0.981 
G1 Z-2.700 F500.000 
G2 X30.357 Y-50.981 I-0.738 J-0.738 F800.000 
G2 X29.019 Y-50.357 I-0.357 J0.981 
G2 X29.643 Y-49.019 I0.981 J0.357 
G2 X30.738 Y-49.262 I0.357 J-0.981 
G1 Z-3.100 F500.000 
G2 X30.357 Y-50.981 I-0.738 J-0.738 F800.000 
G2 X29.019 Y-50.357 I-0.357 J0.981 
G2 X29.643 Y-49.019 I0.981 J0.357 
G2 X30.738 Y-49.262 I0.357 J-0.981 
G1 Z-3.500 F500.000 
G2 X30.357 Y-50.981 I-0.738 J-0.738 F800.000 
G2 X29.019 Y-50.357 I-0.357 J0.981 
G2 X29.643 Y-49.019 I0.981 J0.357 
G2 X30.738 Y-49.262 I0.357 J-0.981 
G1 Z-3.900 F500.000 
G2 X30.357 Y-50.981 I-0.738 J-0.738 F800.000 
G2 X29.019 Y-50.357 I-0.357 J0.981 
G2 X29.643 Y-49.019 I0.981 J0.357 
G2 X30.738 Y-49.262 I0.357 J-0.981 
G1 Z-4.300 F500.000 
G2 X30.357 Y-50.981 I-0.738 J-0.738 F800.000 
G2 X29.019 Y-50.357 I-0.357 J0.981 
G2 X29.643 Y-49.019 I0.981 J0.357 
G2 X30.738 Y-49.262 I0.357 J-0.981 
G1 Z-4.700 F500.000 
G2 X30.357 Y-50.981 I-0.738 J-0.738 F800.000 
G2 X29.019 Y-50.357 I-0.357 J0.981 
G2 X29.643 Y-49.019 I0.981 J0.357 
G2 X30.738 Y-49.262 I0.357 J-0.981 
G1 Z-5.100 F500.000 
G2 X30.357 Y-50.981 I-0.738 J-0.738 F800.000 
G2 X29.019 Y-50.357 I-0.357 J0.981 
G2 X29.643 Y-49.019 I0.981 J0.357 
G2 X30.738 Y-49.262 I0.357 J-0.981 
G1 Z-5.200 F500.000 
G2 X30.357 Y-50.981 I-0.738 J-0.738 F800.000 
G2 X29.019 Y-50.357 I-0.357 J0.981 
G2 X29.643 Y-49.019 I0.981 J0.357 
G2 X30.738 Y-49.262 I0.357 J-0.981 
G0 Z12.000 
X30.738 Y70.738 
Z8.000 
G1 Z-0.300 F500.000 
G2 X30.981 Y70.357 I-0.738 J-0.738 F800.000 
G2 X30.357 Y69.019 I-0.981 J-0.357 
G2 X29.019 Y69.643 I-0.357 J0.981 
G2 X30.738 Y70.738 I0.981 J0.357 
G1 Z-0.700 F500.000 
G2 X30.981 Y70.357 I-0.738 J-0.738 F800.000 
G2 X30.357 Y69.019 I-0.981 J-0.357 
G2 X29.019 Y69.643 I-0.357 J0.981 
G2 X30.738 Y70.738 I0.981 J0.357 
G1 Z-1.100 F500.000 
G2 X30.981 Y70.357 I-0.738 J-0.738 F800.000 
G2 X30.357 Y69.019 I-0.981 J-0.357 
G2 X29.019 Y69.643 I-0.357 J0.981 
G2 X30.738 Y70.738 I0.981 J0.357 
G1 Z-1.500 F500.000 
G2 X30.981 Y70.357 I-0.738 J-0.738 F800.000 
G2 X30.357 Y69.019 I-0.981 J-0.357 
G2 X29.019 Y69.643 I-0.357 J0.981 
G2 X30.738 Y70.738 I0.981 J0.357 
G1 Z-1.900 F500.000 
G2 X30.981 Y70.357 I-0.738 J-0.738 F800.000 
G2 X30.357 Y69.019 I-0.981 J-0.357 
G2 X29.019 Y69.643 I-0.357 J0.981 
G2 X30.738 Y70.738 I0.981 J0.357 
G1 Z-2.300 F500.000 
G2 X30.981 Y70.357 I-0.738 J-0.738 F800.000 
G2 X30.357 Y69.019 I-0.981 J-0.357 
G2 X29.019 Y69.643 I-0.357 J0.981 
G2 X30.738 Y70.738 I0.981 J0.357 
G1 Z-2.700 F500.000 
G2 X30.981 Y70.357 I-0.738 J-0.738 F800.000 
G2 X30.357 Y69.019 I-0.981 J-0.357 
G2 X29.019 Y69.643 I-0.357 J0.981 
G2 X30.738 Y70.738 I0.981 J0.357 
G1 Z-3.100 F500.000 
G2 X30.981 Y70.357 I-0.738 J-0.738 F800.000 
G2 X30.357 Y69.019 I-0.981 J-0.357 
G2 X29.019 Y69.643 I-0.357 J0.981 
G2 X30.738 Y70.738 I0.981 J0.357 
G1 Z-3.500 F500.000 
G2 X30.981 Y70.357 I-0.738 J-0.738 F800.000 
G2 X30.357 Y69.019 I-0.981 J-0.357 
G2 X29.019 Y69.643 I-0.357 J0.981 
G2 X30.738 Y70.738 I0.981 J0.357 
G1 Z-3.900 F500.000 
G2 X30.981 Y70.357 I-0.738 J-0.738 F800.000 
G2 X30.357 Y69.019 I-0.981 J-0.357 
G2 X29.019 Y69.643 I-0.357 J0.981 
G2 X30.738 Y70.738 I0.981 J0.357 
G1 Z-4.300 F500.000 
G2 X30.981 Y70.357 I-0.738 J-0.738 F800.000 
G2 X30.357 Y69.019 I-0.981 J-0.357 
G2 X29.019 Y69.643 I-0.357 J0.981 
G2 X30.738 Y70.738 I0.981 J0.357 
G1 Z-4.700 F500.000 
G2 X30.981 Y70.357 I-0.738 J-0.738 F800.000 
G2 X30.357 Y69.019 I-0.981 J-0.357 
G2 X29.019 Y69.643 I-0.357 J0.981 
G2 X30.738 Y70.738 I0.981 J0.357 
G1 Z-5.100 F500.000 
G2 X30.981 Y70.357 I-0.738 J-0.738 F800.000 
G2 X30.357 Y69.019 I-0.981 J-0.357 
G2 X29.019 Y69.643 I-0.357 J0.981 
G2 X30.738 Y70.738 I0.981 J0.357 
G1 Z-5.200 F500.000 
G2 X30.981 Y70.357 I-0.738 J-0.738 F800.000 
G2 X30.357 Y69.019 I-0.981 J-0.357 
G2 X29.019 Y69.643 I-0.357 J0.981 
G2 X30.738 Y70.738 I0.981 J0.357 
G0 Z12.000 
X-29.262 Y50.738 
Z8.000 
G1 Z-0.300 F500.000 
G2 X-29.643 Y49.019 I-0.738 J-0.738 F800.000 
G2 X-30.357 Y50.981 I-0.357 J0.981 
G2 X-29.262 Y50.738 I0.357 J-0.981 
G1 Z-0.700 F500.000 
G2 X-29.643 Y49.019 I-0.738 J-0.738 F800.000 
G2 X-30.357 Y50.981 I-0.357 J0.981 
G2 X-29.262 Y50.738 I0.357 J-0.981 
G1 Z-1.100 F500.000 
G2 X-29.643 Y49.019 I-0.738 J-0.738 F800.000 
G2 X-30.357 Y50.981 I-0.357 J0.981 
G2 X-29.262 Y50.738 I0.357 J-0.981 
G1 Z-1.500 F500.000 
G2 X-29.643 Y49.019 I-0.738 J-0.738 F800.000 
G2 X-30.357 Y50.981 I-0.357 J0.981 
G2 X-29.262 Y50.738 I0.357 J-0.981 
G1 Z-1.900 F500.000 
G2 X-29.643 Y49.019 I-0.738 J-0.738 F800.000 
G2 X-30.357 Y50.981 I-0.357 J0.981 
G2 X-29.262 Y50.738 I0.357 J-0.981 
G1 Z-2.300 F500.000 
G2 X-29.643 Y49.019 I-0.738 J-0.738 F800.000 
G2 X-30.357 Y50.981 I-0.357 J0.981 
G2 X-29.262 Y50.738 I0.357 J-0.981 
G1 Z-2.700 F500.000 
G2 X-29.643 Y49.019 I-0.738 J-0.738 F800.000 
G2 X-30.357 Y50.981 I-0.357 J0.981 
G2 X-29.262 Y50.738 I0.357 J-0.981 
G1 Z-3.100 F500.000 
G2 X-29.643 Y49.019 I-0.738 J-0.738 F800.000 
G2 X-30.357 Y50.981 I-0.357 J0.981 
G2 X-29.262 Y50.738 I0.357 J-0.981 
G1 Z-3.500 F500.000 
G2 X-29.643 Y49.019 I-0.738 J-0.738 F800.000 
G2 X-30.357 Y50.981 I-0.357 J0.981 
G2 X-29.262 Y50.738 I0.357 J-0.981 
G1 Z-3.900 F500.000 
G2 X-29.643 Y49.019 I-0.738 J-0.738 F800.000 
G2 X-30.357 Y50.981 I-0.357 J0.981 
G2 X-29.262 Y50.738 I0.357 J-0.981 
G1 Z-4.300 F500.000 
G2 X-29.643 Y49.019 I-0.738 J-0.738 F800.000 
G2 X-30.357 Y50.981 I-0.357 J0.981 
G2 X-29.262 Y50.738 I0.357 J-0.981 
G1 Z-4.700 F500.000 
G2 X-29.643 Y49.019 I-0.738 J-0.738 F800.000 
G2 X-30.357 Y50.981 I-0.357 J0.981 
G2 X-29.262 Y50.738 I0.357 J-0.981 
G1 Z-5.100 F500.000 
G2 X-29.643 Y49.019 I-0.738 J-0.738 F800.000 
G2 X-30.357 Y50.981 I-0.357 J0.981 
G2 X-29.262 Y50.738 I0.357 J-0.981 
G1 Z-5.200 F500.000 
G2 X-29.643 Y49.019 I-0.738 J-0.738 F800.000 
G2 X-30.357 Y50.981 I-0.357 J0.981 
G2 X-29.262 Y50.738 I0.357 J-0.981 
G0 Z12.000 
M5 (Spindle off)
M30 (End of program)
%