(Exported by FreeCAD)
(Post Processor: grbl_post)
(Output Time:2019-12-26 18:08:59.431761)
(begin preamble)
G17 G90
G21
(begin operation: T4: 2FluteWoodMill)
(Path: T4: 2FluteWoodMill)
(T4: 2FluteWoodMill)
(begin toolchange)
; M6 T4
M3 S6000.0000
(finish operation: T4: 2FluteWoodMill)
(begin operation: Profile_Faces)
(Path: Profile_Faces)
(Profile_Faces)
(Compensated Tool Path. Diameter: 3.0)
G0 Z12.0000
G0 X-69.9714 Y-39.9714 Z8.0000
G0 Z12.0000
G1 X-69.9714 Y-39.9714 Z-0.5000 F30000.00
G2 X-69.9824 Y-40.0365 Z-0.5000 I-0.0286 J-0.0286 F60000.00
G2 X-70.0176 Y-39.9635 Z-0.5000 I-0.0176 J0.0365 F60000.00
G2 X-69.9714 Y-39.9714 Z-0.5000 I0.0176 J-0.0365 F60000.00
G1 X-69.9714 Y-39.9714 Z-1.0000 F30000.00
G2 X-69.9824 Y-40.0365 Z-1.0000 I-0.0286 J-0.0286 F60000.00
G2 X-70.0176 Y-39.9635 Z-1.0000 I-0.0176 J0.0365 F60000.00
G2 X-69.9714 Y-39.9714 Z-1.0000 I0.0176 J-0.0365 F60000.00
G1 X-69.9714 Y-39.9714 Z-1.5000 F30000.00
G2 X-69.9824 Y-40.0365 Z-1.5000 I-0.0286 J-0.0286 F60000.00
G2 X-70.0176 Y-39.9635 Z-1.5000 I-0.0176 J0.0365 F60000.00
G2 X-69.9714 Y-39.9714 Z-1.5000 I0.0176 J-0.0365 F60000.00
G1 X-69.9714 Y-39.9714 Z-2.0000 F30000.00
G2 X-69.9824 Y-40.0365 Z-2.0000 I-0.0286 J-0.0286 F60000.00
G2 X-70.0176 Y-39.9635 Z-2.0000 I-0.0176 J0.0365 F60000.00
G2 X-69.9714 Y-39.9714 Z-2.0000 I0.0176 J-0.0365 F60000.00
G1 X-69.9714 Y-39.9714 Z-2.5000 F30000.00
G2 X-69.9824 Y-40.0365 Z-2.5000 I-0.0286 J-0.0286 F60000.00
G2 X-70.0176 Y-39.9635 Z-2.5000 I-0.0176 J0.0365 F60000.00
G2 X-69.9714 Y-39.9714 Z-2.5000 I0.0176 J-0.0365 F60000.00
G1 X-69.9714 Y-39.9714 Z-3.0000 F30000.00
G2 X-69.9824 Y-40.0365 Z-3.0000 I-0.0286 J-0.0286 F60000.00
G2 X-70.0176 Y-39.9635 Z-3.0000 I-0.0176 J0.0365 F60000.00
G2 X-69.9714 Y-39.9714 Z-3.0000 I0.0176 J-0.0365 F60000.00
G1 X-69.9714 Y-39.9714 Z-3.5000 F30000.00
G2 X-69.9824 Y-40.0365 Z-3.5000 I-0.0286 J-0.0286 F60000.00
G2 X-70.0176 Y-39.9635 Z-3.5000 I-0.0176 J0.0365 F60000.00
G2 X-69.9714 Y-39.9714 Z-3.5000 I0.0176 J-0.0365 F60000.00
G1 X-69.9714 Y-39.9714 Z-4.0000 F30000.00
G2 X-69.9824 Y-40.0365 Z-4.0000 I-0.0286 J-0.0286 F60000.00
G2 X-70.0176 Y-39.9635 Z-4.0000 I-0.0176 J0.0365 F60000.00
G2 X-69.9714 Y-39.9714 Z-4.0000 I0.0176 J-0.0365 F60000.00
G1 X-69.9714 Y-39.9714 Z-4.5000 F30000.00
G2 X-69.9824 Y-40.0365 Z-4.5000 I-0.0286 J-0.0286 F60000.00
G2 X-70.0176 Y-39.9635 Z-4.5000 I-0.0176 J0.0365 F60000.00
G2 X-69.9714 Y-39.9714 Z-4.5000 I0.0176 J-0.0365 F60000.00
G1 X-69.9714 Y-39.9714 Z-5.0000 F30000.00
G2 X-69.9824 Y-40.0365 Z-5.0000 I-0.0286 J-0.0286 F60000.00
G2 X-70.0176 Y-39.9635 Z-5.0000 I-0.0176 J0.0365 F60000.00
G2 X-69.9714 Y-39.9714 Z-5.0000 I0.0176 J-0.0365 F60000.00
G1 X-69.9714 Y-39.9714 Z-5.5000 F30000.00
G2 X-69.9824 Y-40.0365 Z-5.5000 I-0.0286 J-0.0286 F60000.00
G2 X-70.0176 Y-39.9635 Z-5.5000 I-0.0176 J0.0365 F60000.00
G2 X-69.9714 Y-39.9714 Z-5.5000 I0.0176 J-0.0365 F60000.00
G0 Z12.0000
G0 X-69.9714 Y40.0286 Z8.0000
G0 Z12.0000
G1 X-69.9714 Y40.0286 Z-0.5000 F30000.00
G2 X-69.9824 Y39.9635 Z-0.5000 I-0.0286 J-0.0286 F60000.00
G2 X-70.0176 Y40.0365 Z-0.5000 I-0.0176 J0.0365 F60000.00
G2 X-69.9714 Y40.0286 Z-0.5000 I0.0176 J-0.0365 F60000.00
G1 X-69.9714 Y40.0286 Z-1.0000 F30000.00
G2 X-69.9824 Y39.9635 Z-1.0000 I-0.0286 J-0.0286 F60000.00
G2 X-70.0176 Y40.0365 Z-1.0000 I-0.0176 J0.0365 F60000.00
G2 X-69.9714 Y40.0286 Z-1.0000 I0.0176 J-0.0365 F60000.00
G1 X-69.9714 Y40.0286 Z-1.5000 F30000.00
G2 X-69.9824 Y39.9635 Z-1.5000 I-0.0286 J-0.0286 F60000.00
G2 X-70.0176 Y40.0365 Z-1.5000 I-0.0176 J0.0365 F60000.00
G2 X-69.9714 Y40.0286 Z-1.5000 I0.0176 J-0.0365 F60000.00
G1 X-69.9714 Y40.0286 Z-2.0000 F30000.00
G2 X-69.9824 Y39.9635 Z-2.0000 I-0.0286 J-0.0286 F60000.00
G2 X-70.0176 Y40.0365 Z-2.0000 I-0.0176 J0.0365 F60000.00
G2 X-69.9714 Y40.0286 Z-2.0000 I0.0176 J-0.0365 F60000.00
G1 X-69.9714 Y40.0286 Z-2.5000 F30000.00
G2 X-69.9824 Y39.9635 Z-2.5000 I-0.0286 J-0.0286 F60000.00
G2 X-70.0176 Y40.0365 Z-2.5000 I-0.0176 J0.0365 F60000.00
G2 X-69.9714 Y40.0286 Z-2.5000 I0.0176 J-0.0365 F60000.00
G1 X-69.9714 Y40.0286 Z-3.0000 F30000.00
G2 X-69.9824 Y39.9635 Z-3.0000 I-0.0286 J-0.0286 F60000.00
G2 X-70.0176 Y40.0365 Z-3.0000 I-0.0176 J0.0365 F60000.00
G2 X-69.9714 Y40.0286 Z-3.0000 I0.0176 J-0.0365 F60000.00
G1 X-69.9714 Y40.0286 Z-3.5000 F30000.00
G2 X-69.9824 Y39.9635 Z-3.5000 I-0.0286 J-0.0286 F60000.00
G2 X-70.0176 Y40.0365 Z-3.5000 I-0.0176 J0.0365 F60000.00
G2 X-69.9714 Y40.0286 Z-3.5000 I0.0176 J-0.0365 F60000.00
G1 X-69.9714 Y40.0286 Z-4.0000 F30000.00
G2 X-69.9824 Y39.9635 Z-4.0000 I-0.0286 J-0.0286 F60000.00
G2 X-70.0176 Y40.0365 Z-4.0000 I-0.0176 J0.0365 F60000.00
G2 X-69.9714 Y40.0286 Z-4.0000 I0.0176 J-0.0365 F60000.00
G1 X-69.9714 Y40.0286 Z-4.5000 F30000.00
G2 X-69.9824 Y39.9635 Z-4.5000 I-0.0286 J-0.0286 F60000.00
G2 X-70.0176 Y40.0365 Z-4.5000 I-0.0176 J0.0365 F60000.00
G2 X-69.9714 Y40.0286 Z-4.5000 I0.0176 J-0.0365 F60000.00
G1 X-69.9714 Y40.0286 Z-5.0000 F30000.00
G2 X-69.9824 Y39.9635 Z-5.0000 I-0.0286 J-0.0286 F60000.00
G2 X-70.0176 Y40.0365 Z-5.0000 I-0.0176 J0.0365 F60000.00
G2 X-69.9714 Y40.0286 Z-5.0000 I0.0176 J-0.0365 F60000.00
G1 X-69.9714 Y40.0286 Z-5.5000 F30000.00
G2 X-69.9824 Y39.9635 Z-5.5000 I-0.0286 J-0.0286 F60000.00
G2 X-70.0176 Y40.0365 Z-5.5000 I-0.0176 J0.0365 F60000.00
G2 X-69.9714 Y40.0286 Z-5.5000 I0.0176 J-0.0365 F60000.00
G0 Z12.0000
G0 X60.0286 Y-39.9714 Z8.0000
G0 Z12.0000
G1 X60.0286 Y-39.9714 Z-0.5000 F30000.00
G2 X60.0365 Y-39.9824 Z-0.5000 I-0.0286 J-0.0286 F60000.00
G2 X59.9635 Y-40.0176 Z-0.5000 I-0.0365 J-0.0176 F60000.00
G2 X60.0286 Y-39.9714 Z-0.5000 I0.0365 J0.0176 F60000.00
G1 X60.0286 Y-39.9714 Z-1.0000 F30000.00
G2 X60.0365 Y-39.9824 Z-1.0000 I-0.0286 J-0.0286 F60000.00
G2 X59.9635 Y-40.0176 Z-1.0000 I-0.0365 J-0.0176 F60000.00
G2 X60.0286 Y-39.9714 Z-1.0000 I0.0365 J0.0176 F60000.00
G1 X60.0286 Y-39.9714 Z-1.5000 F30000.00
G2 X60.0365 Y-39.9824 Z-1.5000 I-0.0286 J-0.0286 F60000.00
G2 X59.9635 Y-40.0176 Z-1.5000 I-0.0365 J-0.0176 F60000.00
G2 X60.0286 Y-39.9714 Z-1.5000 I0.0365 J0.0176 F60000.00
G1 X60.0286 Y-39.9714 Z-2.0000 F30000.00
G2 X60.0365 Y-39.9824 Z-2.0000 I-0.0286 J-0.0286 F60000.00
G2 X59.9635 Y-40.0176 Z-2.0000 I-0.0365 J-0.0176 F60000.00
G2 X60.0286 Y-39.9714 Z-2.0000 I0.0365 J0.0176 F60000.00
G1 X60.0286 Y-39.9714 Z-2.5000 F30000.00
G2 X60.0365 Y-39.9824 Z-2.5000 I-0.0286 J-0.0286 F60000.00
G2 X59.9635 Y-40.0176 Z-2.5000 I-0.0365 J-0.0176 F60000.00
G2 X60.0286 Y-39.9714 Z-2.5000 I0.0365 J0.0176 F60000.00
G1 X60.0286 Y-39.9714 Z-3.0000 F30000.00
G2 X60.0365 Y-39.9824 Z-3.0000 I-0.0286 J-0.0286 F60000.00
G2 X59.9635 Y-40.0176 Z-3.0000 I-0.0365 J-0.0176 F60000.00
G2 X60.0286 Y-39.9714 Z-3.0000 I0.0365 J0.0176 F60000.00
G1 X60.0286 Y-39.9714 Z-3.5000 F30000.00
G2 X60.0365 Y-39.9824 Z-3.5000 I-0.0286 J-0.0286 F60000.00
G2 X59.9635 Y-40.0176 Z-3.5000 I-0.0365 J-0.0176 F60000.00
G2 X60.0286 Y-39.9714 Z-3.5000 I0.0365 J0.0176 F60000.00
G1 X60.0286 Y-39.9714 Z-4.0000 F30000.00
G2 X60.0365 Y-39.9824 Z-4.0000 I-0.0286 J-0.0286 F60000.00
G2 X59.9635 Y-40.0176 Z-4.0000 I-0.0365 J-0.0176 F60000.00
G2 X60.0286 Y-39.9714 Z-4.0000 I0.0365 J0.0176 F60000.00
G1 X60.0286 Y-39.9714 Z-4.5000 F30000.00
G2 X60.0365 Y-39.9824 Z-4.5000 I-0.0286 J-0.0286 F60000.00
G2 X59.9635 Y-40.0176 Z-4.5000 I-0.0365 J-0.0176 F60000.00
G2 X60.0286 Y-39.9714 Z-4.5000 I0.0365 J0.0176 F60000.00
G1 X60.0286 Y-39.9714 Z-5.0000 F30000.00
G2 X60.0365 Y-39.9824 Z-5.0000 I-0.0286 J-0.0286 F60000.00
G2 X59.9635 Y-40.0176 Z-5.0000 I-0.0365 J-0.0176 F60000.00
G2 X60.0286 Y-39.9714 Z-5.0000 I0.0365 J0.0176 F60000.00
G1 X60.0286 Y-39.9714 Z-5.5000 F30000.00
G2 X60.0365 Y-39.9824 Z-5.5000 I-0.0286 J-0.0286 F60000.00
G2 X59.9635 Y-40.0176 Z-5.5000 I-0.0365 J-0.0176 F60000.00
G2 X60.0286 Y-39.9714 Z-5.5000 I0.0365 J0.0176 F60000.00
G0 Z12.0000
G0 X60.0286 Y40.0286 Z8.0000
G0 Z12.0000
G1 X60.0286 Y40.0286 Z-0.5000 F30000.00
G2 X60.0365 Y40.0176 Z-0.5000 I-0.0286 J-0.0286 F60000.00
G2 X59.9635 Y39.9824 Z-0.5000 I-0.0365 J-0.0176 F60000.00
G2 X60.0286 Y40.0286 Z-0.5000 I0.0365 J0.0176 F60000.00
G1 X60.0286 Y40.0286 Z-1.0000 F30000.00
G2 X60.0365 Y40.0176 Z-1.0000 I-0.0286 J-0.0286 F60000.00
G2 X59.9635 Y39.9824 Z-1.0000 I-0.0365 J-0.0176 F60000.00
G2 X60.0286 Y40.0286 Z-1.0000 I0.0365 J0.0176 F60000.00
G1 X60.0286 Y40.0286 Z-1.5000 F30000.00
G2 X60.0365 Y40.0176 Z-1.5000 I-0.0286 J-0.0286 F60000.00
G2 X59.9635 Y39.9824 Z-1.5000 I-0.0365 J-0.0176 F60000.00
G2 X60.0286 Y40.0286 Z-1.5000 I0.0365 J0.0176 F60000.00
G1 X60.0286 Y40.0286 Z-2.0000 F30000.00
G2 X60.0365 Y40.0176 Z-2.0000 I-0.0286 J-0.0286 F60000.00
G2 X59.9635 Y39.9824 Z-2.0000 I-0.0365 J-0.0176 F60000.00
G2 X60.0286 Y40.0286 Z-2.0000 I0.0365 J0.0176 F60000.00
G1 X60.0286 Y40.0286 Z-2.5000 F30000.00
G2 X60.0365 Y40.0176 Z-2.5000 I-0.0286 J-0.0286 F60000.00
G2 X59.9635 Y39.9824 Z-2.5000 I-0.0365 J-0.0176 F60000.00
G2 X60.0286 Y40.0286 Z-2.5000 I0.0365 J0.0176 F60000.00
G1 X60.0286 Y40.0286 Z-3.0000 F30000.00
G2 X60.0365 Y40.0176 Z-3.0000 I-0.0286 J-0.0286 F60000.00
G2 X59.9635 Y39.9824 Z-3.0000 I-0.0365 J-0.0176 F60000.00
G2 X60.0286 Y40.0286 Z-3.0000 I0.0365 J0.0176 F60000.00
G1 X60.0286 Y40.0286 Z-3.5000 F30000.00
G2 X60.0365 Y40.0176 Z-3.5000 I-0.0286 J-0.0286 F60000.00
G2 X59.9635 Y39.9824 Z-3.5000 I-0.0365 J-0.0176 F60000.00
G2 X60.0286 Y40.0286 Z-3.5000 I0.0365 J0.0176 F60000.00
G1 X60.0286 Y40.0286 Z-4.0000 F30000.00
G2 X60.0365 Y40.0176 Z-4.0000 I-0.0286 J-0.0286 F60000.00
G2 X59.9635 Y39.9824 Z-4.0000 I-0.0365 J-0.0176 F60000.00
G2 X60.0286 Y40.0286 Z-4.0000 I0.0365 J0.0176 F60000.00
G1 X60.0286 Y40.0286 Z-4.5000 F30000.00
G2 X60.0365 Y40.0176 Z-4.5000 I-0.0286 J-0.0286 F60000.00
G2 X59.9635 Y39.9824 Z-4.5000 I-0.0365 J-0.0176 F60000.00
G2 X60.0286 Y40.0286 Z-4.5000 I0.0365 J0.0176 F60000.00
G1 X60.0286 Y40.0286 Z-5.0000 F30000.00
G2 X60.0365 Y40.0176 Z-5.0000 I-0.0286 J-0.0286 F60000.00
G2 X59.9635 Y39.9824 Z-5.0000 I-0.0365 J-0.0176 F60000.00
G2 X60.0286 Y40.0286 Z-5.0000 I0.0365 J0.0176 F60000.00
G1 X60.0286 Y40.0286 Z-5.5000 F30000.00
G2 X60.0365 Y40.0176 Z-5.5000 I-0.0286 J-0.0286 F60000.00
G2 X59.9635 Y39.9824 Z-5.5000 I-0.0365 J-0.0176 F60000.00
G2 X60.0286 Y40.0286 Z-5.5000 I0.0365 J0.0176 F60000.00
G0 Z12.0000
G0 X-79.9714 Y-37.4714 Z8.0000
G0 Z12.0000
G1 X-79.9714 Y-37.4714 Z-0.5000 F30000.00
G2 X-79.9824 Y-37.5365 Z-0.5000 I-0.0286 J-0.0286 F60000.00
G2 X-80.0176 Y-37.4635 Z-0.5000 I-0.0176 J0.0365 F60000.00
G2 X-79.9714 Y-37.4714 Z-0.5000 I0.0176 J-0.0365 F60000.00
G1 X-79.9714 Y-37.4714 Z-1.0000 F30000.00
G2 X-79.9824 Y-37.5365 Z-1.0000 I-0.0286 J-0.0286 F60000.00
G2 X-80.0176 Y-37.4635 Z-1.0000 I-0.0176 J0.0365 F60000.00
G2 X-79.9714 Y-37.4714 Z-1.0000 I0.0176 J-0.0365 F60000.00
G1 X-79.9714 Y-37.4714 Z-1.5000 F30000.00
G2 X-79.9824 Y-37.5365 Z-1.5000 I-0.0286 J-0.0286 F60000.00
G2 X-80.0176 Y-37.4635 Z-1.5000 I-0.0176 J0.0365 F60000.00
G2 X-79.9714 Y-37.4714 Z-1.5000 I0.0176 J-0.0365 F60000.00
G1 X-79.9714 Y-37.4714 Z-2.0000 F30000.00
G2 X-79.9824 Y-37.5365 Z-2.0000 I-0.0286 J-0.0286 F60000.00
G2 X-80.0176 Y-37.4635 Z-2.0000 I-0.0176 J0.0365 F60000.00
G2 X-79.9714 Y-37.4714 Z-2.0000 I0.0176 J-0.0365 F60000.00
G1 X-79.9714 Y-37.4714 Z-2.5000 F30000.00
G2 X-79.9824 Y-37.5365 Z-2.5000 I-0.0286 J-0.0286 F60000.00
G2 X-80.0176 Y-37.4635 Z-2.5000 I-0.0176 J0.0365 F60000.00
G2 X-79.9714 Y-37.4714 Z-2.5000 I0.0176 J-0.0365 F60000.00
G1 X-79.9714 Y-37.4714 Z-3.0000 F30000.00
G2 X-79.9824 Y-37.5365 Z-3.0000 I-0.0286 J-0.0286 F60000.00
G2 X-80.0176 Y-37.4635 Z-3.0000 I-0.0176 J0.0365 F60000.00
G2 X-79.9714 Y-37.4714 Z-3.0000 I0.0176 J-0.0365 F60000.00
G1 X-79.9714 Y-37.4714 Z-3.5000 F30000.00
G2 X-79.9824 Y-37.5365 Z-3.5000 I-0.0286 J-0.0286 F60000.00
G2 X-80.0176 Y-37.4635 Z-3.5000 I-0.0176 J0.0365 F60000.00
G2 X-79.9714 Y-37.4714 Z-3.5000 I0.0176 J-0.0365 F60000.00
G1 X-79.9714 Y-37.4714 Z-4.0000 F30000.00
G2 X-79.9824 Y-37.5365 Z-4.0000 I-0.0286 J-0.0286 F60000.00
G2 X-80.0176 Y-37.4635 Z-4.0000 I-0.0176 J0.0365 F60000.00
G2 X-79.9714 Y-37.4714 Z-4.0000 I0.0176 J-0.0365 F60000.00
G1 X-79.9714 Y-37.4714 Z-4.5000 F30000.00
G2 X-79.9824 Y-37.5365 Z-4.5000 I-0.0286 J-0.0286 F60000.00
G2 X-80.0176 Y-37.4635 Z-4.5000 I-0.0176 J0.0365 F60000.00
G2 X-79.9714 Y-37.4714 Z-4.5000 I0.0176 J-0.0365 F60000.00
G1 X-79.9714 Y-37.4714 Z-5.0000 F30000.00
G2 X-79.9824 Y-37.5365 Z-5.0000 I-0.0286 J-0.0286 F60000.00
G2 X-80.0176 Y-37.4635 Z-5.0000 I-0.0176 J0.0365 F60000.00
G2 X-79.9714 Y-37.4714 Z-5.0000 I0.0176 J-0.0365 F60000.00
G1 X-79.9714 Y-37.4714 Z-5.5000 F30000.00
G2 X-79.9824 Y-37.5365 Z-5.5000 I-0.0286 J-0.0286 F60000.00
G2 X-80.0176 Y-37.4635 Z-5.5000 I-0.0176 J0.0365 F60000.00
G2 X-79.9714 Y-37.4714 Z-5.5000 I0.0176 J-0.0365 F60000.00
G0 Z12.0000
G0 X-79.9714 Y37.5286 Z8.0000
G0 Z12.0000
G1 X-79.9714 Y37.5286 Z-0.5000 F30000.00
G2 X-79.9824 Y37.4635 Z-0.5000 I-0.0286 J-0.0286 F60000.00
G2 X-80.0176 Y37.5365 Z-0.5000 I-0.0176 J0.0365 F60000.00
G2 X-79.9714 Y37.5286 Z-0.5000 I0.0176 J-0.0365 F60000.00
G1 X-79.9714 Y37.5286 Z-1.0000 F30000.00
G2 X-79.9824 Y37.4635 Z-1.0000 I-0.0286 J-0.0286 F60000.00
G2 X-80.0176 Y37.5365 Z-1.0000 I-0.0176 J0.0365 F60000.00
G2 X-79.9714 Y37.5286 Z-1.0000 I0.0176 J-0.0365 F60000.00
G1 X-79.9714 Y37.5286 Z-1.5000 F30000.00
G2 X-79.9824 Y37.4635 Z-1.5000 I-0.0286 J-0.0286 F60000.00
G2 X-80.0176 Y37.5365 Z-1.5000 I-0.0176 J0.0365 F60000.00
G2 X-79.9714 Y37.5286 Z-1.5000 I0.0176 J-0.0365 F60000.00
G1 X-79.9714 Y37.5286 Z-2.0000 F30000.00
G2 X-79.9824 Y37.4635 Z-2.0000 I-0.0286 J-0.0286 F60000.00
G2 X-80.0176 Y37.5365 Z-2.0000 I-0.0176 J0.0365 F60000.00
G2 X-79.9714 Y37.5286 Z-2.0000 I0.0176 J-0.0365 F60000.00
G1 X-79.9714 Y37.5286 Z-2.5000 F30000.00
G2 X-79.9824 Y37.4635 Z-2.5000 I-0.0286 J-0.0286 F60000.00
G2 X-80.0176 Y37.5365 Z-2.5000 I-0.0176 J0.0365 F60000.00
G2 X-79.9714 Y37.5286 Z-2.5000 I0.0176 J-0.0365 F60000.00
G1 X-79.9714 Y37.5286 Z-3.0000 F30000.00
G2 X-79.9824 Y37.4635 Z-3.0000 I-0.0286 J-0.0286 F60000.00
G2 X-80.0176 Y37.5365 Z-3.0000 I-0.0176 J0.0365 F60000.00
G2 X-79.9714 Y37.5286 Z-3.0000 I0.0176 J-0.0365 F60000.00
G1 X-79.9714 Y37.5286 Z-3.5000 F30000.00
G2 X-79.9824 Y37.4635 Z-3.5000 I-0.0286 J-0.0286 F60000.00
G2 X-80.0176 Y37.5365 Z-3.5000 I-0.0176 J0.0365 F60000.00
G2 X-79.9714 Y37.5286 Z-3.5000 I0.0176 J-0.0365 F60000.00
G1 X-79.9714 Y37.5286 Z-4.0000 F30000.00
G2 X-79.9824 Y37.4635 Z-4.0000 I-0.0286 J-0.0286 F60000.00
G2 X-80.0176 Y37.5365 Z-4.0000 I-0.0176 J0.0365 F60000.00
G2 X-79.9714 Y37.5286 Z-4.0000 I0.0176 J-0.0365 F60000.00
G1 X-79.9714 Y37.5286 Z-4.5000 F30000.00
G2 X-79.9824 Y37.4635 Z-4.5000 I-0.0286 J-0.0286 F60000.00
G2 X-80.0176 Y37.5365 Z-4.5000 I-0.0176 J0.0365 F60000.00
G2 X-79.9714 Y37.5286 Z-4.5000 I0.0176 J-0.0365 F60000.00
G1 X-79.9714 Y37.5286 Z-5.0000 F30000.00
G2 X-79.9824 Y37.4635 Z-5.0000 I-0.0286 J-0.0286 F60000.00
G2 X-80.0176 Y37.5365 Z-5.0000 I-0.0176 J0.0365 F60000.00
G2 X-79.9714 Y37.5286 Z-5.0000 I0.0176 J-0.0365 F60000.00
G1 X-79.9714 Y37.5286 Z-5.5000 F30000.00
G2 X-79.9824 Y37.4635 Z-5.5000 I-0.0286 J-0.0286 F60000.00
G2 X-80.0176 Y37.5365 Z-5.5000 I-0.0176 J0.0365 F60000.00
G2 X-79.9714 Y37.5286 Z-5.5000 I0.0176 J-0.0365 F60000.00
G0 Z12.0000
G0 X50.0286 Y-37.4714 Z8.0000
G0 Z12.0000
G1 X50.0286 Y-37.4714 Z-0.5000 F30000.00
G2 X50.0176 Y-37.5365 Z-0.5000 I-0.0286 J-0.0286 F60000.00
G2 X49.9824 Y-37.4635 Z-0.5000 I-0.0176 J0.0365 F60000.00
G2 X50.0286 Y-37.4714 Z-0.5000 I0.0176 J-0.0365 F60000.00
G1 X50.0286 Y-37.4714 Z-1.0000 F30000.00
G2 X50.0176 Y-37.5365 Z-1.0000 I-0.0286 J-0.0286 F60000.00
G2 X49.9824 Y-37.4635 Z-1.0000 I-0.0176 J0.0365 F60000.00
G2 X50.0286 Y-37.4714 Z-1.0000 I0.0176 J-0.0365 F60000.00
G1 X50.0286 Y-37.4714 Z-1.5000 F30000.00
G2 X50.0176 Y-37.5365 Z-1.5000 I-0.0286 J-0.0286 F60000.00
G2 X49.9824 Y-37.4635 Z-1.5000 I-0.0176 J0.0365 F60000.00
G2 X50.0286 Y-37.4714 Z-1.5000 I0.0176 J-0.0365 F60000.00
G1 X50.0286 Y-37.4714 Z-2.0000 F30000.00
G2 X50.0176 Y-37.5365 Z-2.0000 I-0.0286 J-0.0286 F60000.00
G2 X49.9824 Y-37.4635 Z-2.0000 I-0.0176 J0.0365 F60000.00
G2 X50.0286 Y-37.4714 Z-2.0000 I0.0176 J-0.0365 F60000.00
G1 X50.0286 Y-37.4714 Z-2.5000 F30000.00
G2 X50.0176 Y-37.5365 Z-2.5000 I-0.0286 J-0.0286 F60000.00
G2 X49.9824 Y-37.4635 Z-2.5000 I-0.0176 J0.0365 F60000.00
G2 X50.0286 Y-37.4714 Z-2.5000 I0.0176 J-0.0365 F60000.00
G1 X50.0286 Y-37.4714 Z-3.0000 F30000.00
G2 X50.0176 Y-37.5365 Z-3.0000 I-0.0286 J-0.0286 F60000.00
G2 X49.9824 Y-37.4635 Z-3.0000 I-0.0176 J0.0365 F60000.00
G2 X50.0286 Y-37.4714 Z-3.0000 I0.0176 J-0.0365 F60000.00
G1 X50.0286 Y-37.4714 Z-3.5000 F30000.00
G2 X50.0176 Y-37.5365 Z-3.5000 I-0.0286 J-0.0286 F60000.00
G2 X49.9824 Y-37.4635 Z-3.5000 I-0.0176 J0.0365 F60000.00
G2 X50.0286 Y-37.4714 Z-3.5000 I0.0176 J-0.0365 F60000.00
G1 X50.0286 Y-37.4714 Z-4.0000 F30000.00
G2 X50.0176 Y-37.5365 Z-4.0000 I-0.0286 J-0.0286 F60000.00
G2 X49.9824 Y-37.4635 Z-4.0000 I-0.0176 J0.0365 F60000.00
G2 X50.0286 Y-37.4714 Z-4.0000 I0.0176 J-0.0365 F60000.00
G1 X50.0286 Y-37.4714 Z-4.5000 F30000.00
G2 X50.0176 Y-37.5365 Z-4.5000 I-0.0286 J-0.0286 F60000.00
G2 X49.9824 Y-37.4635 Z-4.5000 I-0.0176 J0.0365 F60000.00
G2 X50.0286 Y-37.4714 Z-4.5000 I0.0176 J-0.0365 F60000.00
G1 X50.0286 Y-37.4714 Z-5.0000 F30000.00
G2 X50.0176 Y-37.5365 Z-5.0000 I-0.0286 J-0.0286 F60000.00
G2 X49.9824 Y-37.4635 Z-5.0000 I-0.0176 J0.0365 F60000.00
G2 X50.0286 Y-37.4714 Z-5.0000 I0.0176 J-0.0365 F60000.00
G1 X50.0286 Y-37.4714 Z-5.5000 F30000.00
G2 X50.0176 Y-37.5365 Z-5.5000 I-0.0286 J-0.0286 F60000.00
G2 X49.9824 Y-37.4635 Z-5.5000 I-0.0176 J0.0365 F60000.00
G2 X50.0286 Y-37.4714 Z-5.5000 I0.0176 J-0.0365 F60000.00
G0 Z12.0000
G0 X50.0286 Y37.5286 Z8.0000
G0 Z12.0000
G1 X50.0286 Y37.5286 Z-0.5000 F30000.00
G2 X50.0176 Y37.4635 Z-0.5000 I-0.0286 J-0.0286 F60000.00
G2 X49.9824 Y37.5365 Z-0.5000 I-0.0176 J0.0365 F60000.00
G2 X50.0286 Y37.5286 Z-0.5000 I0.0176 J-0.0365 F60000.00
G1 X50.0286 Y37.5286 Z-1.0000 F30000.00
G2 X50.0176 Y37.4635 Z-1.0000 I-0.0286 J-0.0286 F60000.00
G2 X49.9824 Y37.5365 Z-1.0000 I-0.0176 J0.0365 F60000.00
G2 X50.0286 Y37.5286 Z-1.0000 I0.0176 J-0.0365 F60000.00
G1 X50.0286 Y37.5286 Z-1.5000 F30000.00
G2 X50.0176 Y37.4635 Z-1.5000 I-0.0286 J-0.0286 F60000.00
G2 X49.9824 Y37.5365 Z-1.5000 I-0.0176 J0.0365 F60000.00
G2 X50.0286 Y37.5286 Z-1.5000 I0.0176 J-0.0365 F60000.00
G1 X50.0286 Y37.5286 Z-2.0000 F30000.00
G2 X50.0176 Y37.4635 Z-2.0000 I-0.0286 J-0.0286 F60000.00
G2 X49.9824 Y37.5365 Z-2.0000 I-0.0176 J0.0365 F60000.00
G2 X50.0286 Y37.5286 Z-2.0000 I0.0176 J-0.0365 F60000.00
G1 X50.0286 Y37.5286 Z-2.5000 F30000.00
G2 X50.0176 Y37.4635 Z-2.5000 I-0.0286 J-0.0286 F60000.00
G2 X49.9824 Y37.5365 Z-2.5000 I-0.0176 J0.0365 F60000.00
G2 X50.0286 Y37.5286 Z-2.5000 I0.0176 J-0.0365 F60000.00
G1 X50.0286 Y37.5286 Z-3.0000 F30000.00
G2 X50.0176 Y37.4635 Z-3.0000 I-0.0286 J-0.0286 F60000.00
G2 X49.9824 Y37.5365 Z-3.0000 I-0.0176 J0.0365 F60000.00
G2 X50.0286 Y37.5286 Z-3.0000 I0.0176 J-0.0365 F60000.00
G1 X50.0286 Y37.5286 Z-3.5000 F30000.00
G2 X50.0176 Y37.4635 Z-3.5000 I-0.0286 J-0.0286 F60000.00
G2 X49.9824 Y37.5365 Z-3.5000 I-0.0176 J0.0365 F60000.00
G2 X50.0286 Y37.5286 Z-3.5000 I0.0176 J-0.0365 F60000.00
G1 X50.0286 Y37.5286 Z-4.0000 F30000.00
G2 X50.0176 Y37.4635 Z-4.0000 I-0.0286 J-0.0286 F60000.00
G2 X49.9824 Y37.5365 Z-4.0000 I-0.0176 J0.0365 F60000.00
G2 X50.0286 Y37.5286 Z-4.0000 I0.0176 J-0.0365 F60000.00
G1 X50.0286 Y37.5286 Z-4.5000 F30000.00
G2 X50.0176 Y37.4635 Z-4.5000 I-0.0286 J-0.0286 F60000.00
G2 X49.9824 Y37.5365 Z-4.5000 I-0.0176 J0.0365 F60000.00
G2 X50.0286 Y37.5286 Z-4.5000 I0.0176 J-0.0365 F60000.00
G1 X50.0286 Y37.5286 Z-5.0000 F30000.00
G2 X50.0176 Y37.4635 Z-5.0000 I-0.0286 J-0.0286 F60000.00
G2 X49.9824 Y37.5365 Z-5.0000 I-0.0176 J0.0365 F60000.00
G2 X50.0286 Y37.5286 Z-5.0000 I0.0176 J-0.0365 F60000.00
G1 X50.0286 Y37.5286 Z-5.5000 F30000.00
G2 X50.0176 Y37.4635 Z-5.5000 I-0.0286 J-0.0286 F60000.00
G2 X49.9824 Y37.5365 Z-5.5000 I-0.0176 J0.0365 F60000.00
G2 X50.0286 Y37.5286 Z-5.5000 I0.0176 J-0.0365 F60000.00
G0 Z12.0000
G0 X91.0607 Y56.0607 Z8.0000
G0 Z12.0000
G1 X91.0607 Y56.0607 Z-0.5000 F30000.00
G3 X90.0000 Y56.5000 Z-0.5000 I-1.0607 J-1.0607 F60000.00
G1 X-90.0000 Y56.5000 Z-0.5000 F60000.00
G3 X-91.5000 Y55.0000 Z-0.5000 I0.0000 J-1.5000 F60000.00
G1 X-91.5000 Y-55.0000 Z-0.5000 F60000.00
G3 X-90.0000 Y-56.5000 Z-0.5000 I1.5000 J0.0000 F60000.00
G1 X90.0000 Y-56.5000 Z-0.5000 F60000.00
G3 X91.5000 Y-55.0000 Z-0.5000 I-0.0000 J1.5000 F60000.00
G1 X91.5000 Y55.0000 Z-0.5000 F60000.00
G3 X91.0607 Y56.0607 Z-0.5000 I-1.5000 J-0.0000 F60000.00
G1 X91.0607 Y56.0607 Z-1.0000 F30000.00
G3 X90.0000 Y56.5000 Z-1.0000 I-1.0607 J-1.0607 F60000.00
G1 X-90.0000 Y56.5000 Z-1.0000 F60000.00
G3 X-91.5000 Y55.0000 Z-1.0000 I0.0000 J-1.5000 F60000.00
G1 X-91.5000 Y-55.0000 Z-1.0000 F60000.00
G3 X-90.0000 Y-56.5000 Z-1.0000 I1.5000 J0.0000 F60000.00
G1 X90.0000 Y-56.5000 Z-1.0000 F60000.00
G3 X91.5000 Y-55.0000 Z-1.0000 I-0.0000 J1.5000 F60000.00
G1 X91.5000 Y55.0000 Z-1.0000 F60000.00
G3 X91.0607 Y56.0607 Z-1.0000 I-1.5000 J-0.0000 F60000.00
G1 X91.0607 Y56.0607 Z-1.5000 F30000.00
G3 X90.0000 Y56.5000 Z-1.5000 I-1.0607 J-1.0607 F60000.00
G1 X-90.0000 Y56.5000 Z-1.5000 F60000.00
G3 X-91.5000 Y55.0000 Z-1.5000 I0.0000 J-1.5000 F60000.00
G1 X-91.5000 Y-55.0000 Z-1.5000 F60000.00
G3 X-90.0000 Y-56.5000 Z-1.5000 I1.5000 J0.0000 F60000.00
G1 X90.0000 Y-56.5000 Z-1.5000 F60000.00
G3 X91.5000 Y-55.0000 Z-1.5000 I-0.0000 J1.5000 F60000.00
G1 X91.5000 Y55.0000 Z-1.5000 F60000.00
G3 X91.0607 Y56.0607 Z-1.5000 I-1.5000 J-0.0000 F60000.00
G1 X91.0607 Y56.0607 Z-2.0000 F30000.00
G3 X90.0000 Y56.5000 Z-2.0000 I-1.0607 J-1.0607 F60000.00
G1 X-90.0000 Y56.5000 Z-2.0000 F60000.00
G3 X-91.5000 Y55.0000 Z-2.0000 I0.0000 J-1.5000 F60000.00
G1 X-91.5000 Y-55.0000 Z-2.0000 F60000.00
G3 X-90.0000 Y-56.5000 Z-2.0000 I1.5000 J0.0000 F60000.00
G1 X90.0000 Y-56.5000 Z-2.0000 F60000.00
G3 X91.5000 Y-55.0000 Z-2.0000 I-0.0000 J1.5000 F60000.00
G1 X91.5000 Y55.0000 Z-2.0000 F60000.00
G3 X91.0607 Y56.0607 Z-2.0000 I-1.5000 J-0.0000 F60000.00
G1 X91.0607 Y56.0607 Z-2.5000 F30000.00
G3 X90.0000 Y56.5000 Z-2.5000 I-1.0607 J-1.0607 F60000.00
G1 X-90.0000 Y56.5000 Z-2.5000 F60000.00
G3 X-91.5000 Y55.0000 Z-2.5000 I0.0000 J-1.5000 F60000.00
G1 X-91.5000 Y-55.0000 Z-2.5000 F60000.00
G3 X-90.0000 Y-56.5000 Z-2.5000 I1.5000 J0.0000 F60000.00
G1 X90.0000 Y-56.5000 Z-2.5000 F60000.00
G3 X91.5000 Y-55.0000 Z-2.5000 I-0.0000 J1.5000 F60000.00
G1 X91.5000 Y55.0000 Z-2.5000 F60000.00
G3 X91.0607 Y56.0607 Z-2.5000 I-1.5000 J-0.0000 F60000.00
G1 X91.0607 Y56.0607 Z-3.0000 F30000.00
G3 X90.0000 Y56.5000 Z-3.0000 I-1.0607 J-1.0607 F60000.00
G1 X-90.0000 Y56.5000 Z-3.0000 F60000.00
G3 X-91.5000 Y55.0000 Z-3.0000 I0.0000 J-1.5000 F60000.00
G1 X-91.5000 Y-55.0000 Z-3.0000 F60000.00
G3 X-90.0000 Y-56.5000 Z-3.0000 I1.5000 J0.0000 F60000.00
G1 X90.0000 Y-56.5000 Z-3.0000 F60000.00
G3 X91.5000 Y-55.0000 Z-3.0000 I-0.0000 J1.5000 F60000.00
G1 X91.5000 Y55.0000 Z-3.0000 F60000.00
G3 X91.0607 Y56.0607 Z-3.0000 I-1.5000 J-0.0000 F60000.00
G1 X91.0607 Y56.0607 Z-3.5000 F30000.00
G3 X90.0000 Y56.5000 Z-3.5000 I-1.0607 J-1.0607 F60000.00
G1 X-90.0000 Y56.5000 Z-3.5000 F60000.00
G3 X-91.5000 Y55.0000 Z-3.5000 I0.0000 J-1.5000 F60000.00
G1 X-91.5000 Y-55.0000 Z-3.5000 F60000.00
G3 X-90.0000 Y-56.5000 Z-3.5000 I1.5000 J0.0000 F60000.00
G1 X90.0000 Y-56.5000 Z-3.5000 F60000.00
G3 X91.5000 Y-55.0000 Z-3.5000 I-0.0000 J1.5000 F60000.00
G1 X91.5000 Y55.0000 Z-3.5000 F60000.00
G3 X91.0607 Y56.0607 Z-3.5000 I-1.5000 J-0.0000 F60000.00
G1 X91.0607 Y56.0607 Z-4.0000 F30000.00
G3 X90.0000 Y56.5000 Z-4.0000 I-1.0607 J-1.0607 F60000.00
G1 X-90.0000 Y56.5000 Z-4.0000 F60000.00
G3 X-91.5000 Y55.0000 Z-4.0000 I0.0000 J-1.5000 F60000.00
G1 X-91.5000 Y-55.0000 Z-4.0000 F60000.00
G3 X-90.0000 Y-56.5000 Z-4.0000 I1.5000 J0.0000 F60000.00
G1 X90.0000 Y-56.5000 Z-4.0000 F60000.00
G3 X91.5000 Y-55.0000 Z-4.0000 I-0.0000 J1.5000 F60000.00
G1 X91.5000 Y55.0000 Z-4.0000 F60000.00
G3 X91.0607 Y56.0607 Z-4.0000 I-1.5000 J-0.0000 F60000.00
G1 X91.0607 Y56.0607 Z-4.5000 F30000.00
G3 X90.0000 Y56.5000 Z-4.5000 I-1.0607 J-1.0607 F60000.00
G1 X-90.0000 Y56.5000 Z-4.5000 F60000.00
G3 X-91.5000 Y55.0000 Z-4.5000 I0.0000 J-1.5000 F60000.00
G1 X-91.5000 Y-55.0000 Z-4.5000 F60000.00
G3 X-90.0000 Y-56.5000 Z-4.5000 I1.5000 J0.0000 F60000.00
G1 X90.0000 Y-56.5000 Z-4.5000 F60000.00
G3 X91.5000 Y-55.0000 Z-4.5000 I-0.0000 J1.5000 F60000.00
G1 X91.5000 Y55.0000 Z-4.5000 F60000.00
G3 X91.0607 Y56.0607 Z-4.5000 I-1.5000 J-0.0000 F60000.00
G1 X91.0607 Y56.0607 Z-5.0000 F30000.00
G3 X90.0000 Y56.5000 Z-5.0000 I-1.0607 J-1.0607 F60000.00
G1 X-90.0000 Y56.5000 Z-5.0000 F60000.00
G3 X-91.5000 Y55.0000 Z-5.0000 I0.0000 J-1.5000 F60000.00
G1 X-91.5000 Y-55.0000 Z-5.0000 F60000.00
G3 X-90.0000 Y-56.5000 Z-5.0000 I1.5000 J0.0000 F60000.00
G1 X90.0000 Y-56.5000 Z-5.0000 F60000.00
G3 X91.5000 Y-55.0000 Z-5.0000 I-0.0000 J1.5000 F60000.00
G1 X91.5000 Y55.0000 Z-5.0000 F60000.00
G3 X91.0607 Y56.0607 Z-5.0000 I-1.5000 J-0.0000 F60000.00
G1 X91.0607 Y56.0607 Z-5.5000 F30000.00
G3 X90.0000 Y56.5000 Z-5.5000 I-1.0607 J-1.0607 F60000.00
G1 X-90.0000 Y56.5000 Z-5.5000 F60000.00
G3 X-91.5000 Y55.0000 Z-5.5000 I0.0000 J-1.5000 F60000.00
G1 X-91.5000 Y-55.0000 Z-5.5000 F60000.00
G3 X-90.0000 Y-56.5000 Z-5.5000 I1.5000 J0.0000 F60000.00
G1 X90.0000 Y-56.5000 Z-5.5000 F60000.00
G3 X91.5000 Y-55.0000 Z-5.5000 I-0.0000 J1.5000 F60000.00
G1 X91.5000 Y55.0000 Z-5.5000 F60000.00
G3 X91.0607 Y56.0607 Z-5.5000 I-1.5000 J-0.0000 F60000.00
G0 Z8.0000
(finish operation: Profile_Faces)
(begin postamble)
M5
G17 G90
; M2
