%
(Start /u01/home/nico/Projects/itadinanta/cnc_mill_prototype/gcode/profile.ngc)
(Exported by FreeCAD)
(Post Processor: kineticnc_post)
(Output Time: 2019-12-14 11:45:17.065980)
G90 (Absolute coordinates)
G17 (XY Plane selection)
G21 (Programming in mm)
G94 (Feedrate per minute)

(Diameter: 3.0)
M6 T3 (Change tool)
M3 S17000 (Spindle on)
G0 Z12.000 (To clearance plane)
G0 X41.498 Y80.077
G1 Z12.000 F500 (Set feedrate on spot)
G0 
Z8.000 
G1 Z-0.300 
G3 X40.000 Y81.500 I-1.498 J-0.077 F800.000 
G1 X-40.000 Y81.500 
G3 X-41.500 Y80.000 I0.000 J-1.500 
G1 X-41.500 Y52.033 
G2 X-50.033 Y43.500 I-8.504 J-0.029 
G1 X-67.500 Y43.500 
G3 X-69.000 Y42.000 I0.000 J-1.500 
G1 Y-42.000 
G3 X-67.500 Y-43.500 I1.500 J0.000 
G1 X-50.033 Y-43.500 
G2 X-41.500 Y-52.033 I0.029 J-8.504 
G1 X-41.500 Y-80.000 
G3 X-40.000 Y-81.500 I1.500 J0.000 
G1 X40.000 
G3 X41.500 Y-80.000 I-0.000 J1.500 
G1 X41.500 Y-52.033 
G2 X50.033 Y-43.500 I8.504 J0.029 
G1 X67.500 Y-43.500 
G3 X69.000 Y-42.000 I-0.000 J1.500 
G1 Y42.000 
G3 X67.500 Y43.500 I-1.500 J-0.000 
G1 X50.033 Y43.500 
G2 X41.500 Y52.033 I-0.029 J8.504 
G1 X41.500 Y80.000 
G3 X41.498 Y80.077 I-1.500 J-0.000 
G1 Z-0.700 F500.000 
G3 X40.000 Y81.500 I-1.498 J-0.077 F800.000 
G1 X-40.000 Y81.500 
G3 X-41.500 Y80.000 I0.000 J-1.500 
G1 X-41.500 Y52.033 
G2 X-50.033 Y43.500 I-8.504 J-0.029 
G1 X-67.500 Y43.500 
G3 X-69.000 Y42.000 I0.000 J-1.500 
G1 Y-42.000 
G3 X-67.500 Y-43.500 I1.500 J0.000 
G1 X-50.033 Y-43.500 
G2 X-41.500 Y-52.033 I0.029 J-8.504 
G1 X-41.500 Y-80.000 
G3 X-40.000 Y-81.500 I1.500 J0.000 
G1 X40.000 
G3 X41.500 Y-80.000 I-0.000 J1.500 
G1 X41.500 Y-52.033 
G2 X50.033 Y-43.500 I8.504 J0.029 
G1 X67.500 Y-43.500 
G3 X69.000 Y-42.000 I-0.000 J1.500 
G1 Y42.000 
G3 X67.500 Y43.500 I-1.500 J-0.000 
G1 X50.033 Y43.500 
G2 X41.500 Y52.033 I-0.029 J8.504 
G1 X41.500 Y80.000 
G3 X41.498 Y80.077 I-1.500 J-0.000 
G1 Z-1.100 F500.000 
G3 X40.000 Y81.500 I-1.498 J-0.077 F800.000 
G1 X-40.000 Y81.500 
G3 X-41.500 Y80.000 I0.000 J-1.500 
G1 X-41.500 Y52.033 
G2 X-50.033 Y43.500 I-8.504 J-0.029 
G1 X-67.500 Y43.500 
G3 X-69.000 Y42.000 I0.000 J-1.500 
G1 Y-42.000 
G3 X-67.500 Y-43.500 I1.500 J0.000 
G1 X-50.033 Y-43.500 
G2 X-41.500 Y-52.033 I0.029 J-8.504 
G1 X-41.500 Y-80.000 
G3 X-40.000 Y-81.500 I1.500 J0.000 
G1 X40.000 
G3 X41.500 Y-80.000 I-0.000 J1.500 
G1 X41.500 Y-52.033 
G2 X50.033 Y-43.500 I8.504 J0.029 
G1 X67.500 Y-43.500 
G3 X69.000 Y-42.000 I-0.000 J1.500 
G1 Y42.000 
G3 X67.500 Y43.500 I-1.500 J-0.000 
G1 X50.033 Y43.500 
G2 X41.500 Y52.033 I-0.029 J8.504 
G1 X41.500 Y80.000 
G3 X41.498 Y80.077 I-1.500 J-0.000 
G1 Z-1.500 F500.000 
G3 X40.000 Y81.500 I-1.498 J-0.077 F800.000 
G1 X-40.000 Y81.500 
G3 X-41.500 Y80.000 I0.000 J-1.500 
G1 X-41.500 Y52.033 
G2 X-50.033 Y43.500 I-8.504 J-0.029 
G1 X-67.500 Y43.500 
G3 X-69.000 Y42.000 I0.000 J-1.500 
G1 Y-42.000 
G3 X-67.500 Y-43.500 I1.500 J0.000 
G1 X-50.033 Y-43.500 
G2 X-41.500 Y-52.033 I0.029 J-8.504 
G1 X-41.500 Y-80.000 
G3 X-40.000 Y-81.500 I1.500 J0.000 
G1 X40.000 
G3 X41.500 Y-80.000 I-0.000 J1.500 
G1 X41.500 Y-52.033 
G2 X50.033 Y-43.500 I8.504 J0.029 
G1 X67.500 Y-43.500 
G3 X69.000 Y-42.000 I-0.000 J1.500 
G1 Y42.000 
G3 X67.500 Y43.500 I-1.500 J-0.000 
G1 X50.033 Y43.500 
G2 X41.500 Y52.033 I-0.029 J8.504 
G1 X41.500 Y80.000 
G3 X41.498 Y80.077 I-1.500 J-0.000 
G1 Z-1.900 F500.000 
G3 X40.000 Y81.500 I-1.498 J-0.077 F800.000 
G1 X-40.000 Y81.500 
G3 X-41.500 Y80.000 I0.000 J-1.500 
G1 X-41.500 Y52.033 
G2 X-50.033 Y43.500 I-8.504 J-0.029 
G1 X-67.500 Y43.500 
G3 X-69.000 Y42.000 I0.000 J-1.500 
G1 Y-42.000 
G3 X-67.500 Y-43.500 I1.500 J0.000 
G1 X-50.033 Y-43.500 
G2 X-41.500 Y-52.033 I0.029 J-8.504 
G1 X-41.500 Y-80.000 
G3 X-40.000 Y-81.500 I1.500 J0.000 
G1 X40.000 
G3 X41.500 Y-80.000 I-0.000 J1.500 
G1 X41.500 Y-52.033 
G2 X50.033 Y-43.500 I8.504 J0.029 
G1 X67.500 Y-43.500 
G3 X69.000 Y-42.000 I-0.000 J1.500 
G1 Y42.000 
G3 X67.500 Y43.500 I-1.500 J-0.000 
G1 X50.033 Y43.500 
G2 X41.500 Y52.033 I-0.029 J8.504 
G1 X41.500 Y80.000 
G3 X41.498 Y80.077 I-1.500 J-0.000 
G1 Z-2.300 F500.000 
G3 X40.000 Y81.500 I-1.498 J-0.077 F800.000 
G1 X-40.000 Y81.500 
G3 X-41.500 Y80.000 I0.000 J-1.500 
G1 X-41.500 Y52.033 
G2 X-50.033 Y43.500 I-8.504 J-0.029 
G1 X-67.500 Y43.500 
G3 X-69.000 Y42.000 I0.000 J-1.500 
G1 Y-42.000 
G3 X-67.500 Y-43.500 I1.500 J0.000 
G1 X-50.033 Y-43.500 
G2 X-41.500 Y-52.033 I0.029 J-8.504 
G1 X-41.500 Y-80.000 
G3 X-40.000 Y-81.500 I1.500 J0.000 
G1 X40.000 
G3 X41.500 Y-80.000 I-0.000 J1.500 
G1 X41.500 Y-52.033 
G2 X50.033 Y-43.500 I8.504 J0.029 
G1 X67.500 Y-43.500 
G3 X69.000 Y-42.000 I-0.000 J1.500 
G1 Y42.000 
G3 X67.500 Y43.500 I-1.500 J-0.000 
G1 X50.033 Y43.500 
G2 X41.500 Y52.033 I-0.029 J8.504 
G1 X41.500 Y80.000 
G3 X41.498 Y80.077 I-1.500 J-0.000 
G1 Z-2.700 F500.000 
G3 X40.000 Y81.500 I-1.498 J-0.077 F800.000 
G1 X-40.000 Y81.500 
G3 X-41.500 Y80.000 I0.000 J-1.500 
G1 X-41.500 Y52.033 
G2 X-50.033 Y43.500 I-8.504 J-0.029 
G1 X-67.500 Y43.500 
G3 X-69.000 Y42.000 I0.000 J-1.500 
G1 Y-42.000 
G3 X-67.500 Y-43.500 I1.500 J0.000 
G1 X-50.033 Y-43.500 
G2 X-41.500 Y-52.033 I0.029 J-8.504 
G1 X-41.500 Y-80.000 
G3 X-40.000 Y-81.500 I1.500 J0.000 
G1 X40.000 
G3 X41.500 Y-80.000 I-0.000 J1.500 
G1 X41.500 Y-52.033 
G2 X50.033 Y-43.500 I8.504 J0.029 
G1 X67.500 Y-43.500 
G3 X69.000 Y-42.000 I-0.000 J1.500 
G1 Y42.000 
G3 X67.500 Y43.500 I-1.500 J-0.000 
G1 X50.033 Y43.500 
G2 X41.500 Y52.033 I-0.029 J8.504 
G1 X41.500 Y80.000 
G3 X41.498 Y80.077 I-1.500 J-0.000 
G1 Z-3.100 F500.000 
G3 X40.000 Y81.500 I-1.498 J-0.077 F800.000 
G1 X-40.000 Y81.500 
G3 X-41.500 Y80.000 I0.000 J-1.500 
G1 X-41.500 Y52.033 
G2 X-50.033 Y43.500 I-8.504 J-0.029 
G1 X-67.500 Y43.500 
G3 X-69.000 Y42.000 I0.000 J-1.500 
G1 Y-42.000 
G3 X-67.500 Y-43.500 I1.500 J0.000 
G1 X-50.033 Y-43.500 
G2 X-41.500 Y-52.033 I0.029 J-8.504 
G1 X-41.500 Y-80.000 
G3 X-40.000 Y-81.500 I1.500 J0.000 
G1 X40.000 
G3 X41.500 Y-80.000 I-0.000 J1.500 
G1 X41.500 Y-52.033 
G2 X50.033 Y-43.500 I8.504 J0.029 
G1 X67.500 Y-43.500 
G3 X69.000 Y-42.000 I-0.000 J1.500 
G1 Y42.000 
G3 X67.500 Y43.500 I-1.500 J-0.000 
G1 X50.033 Y43.500 
G2 X41.500 Y52.033 I-0.029 J8.504 
G1 X41.500 Y80.000 
G3 X41.498 Y80.077 I-1.500 J-0.000 
G1 Z-3.500 F500.000 
G3 X40.000 Y81.500 I-1.498 J-0.077 F800.000 
G1 X-40.000 Y81.500 
G3 X-41.500 Y80.000 I0.000 J-1.500 
G1 X-41.500 Y52.033 
G2 X-50.033 Y43.500 I-8.504 J-0.029 
G1 X-67.500 Y43.500 
G3 X-69.000 Y42.000 I0.000 J-1.500 
G1 Y-42.000 
G3 X-67.500 Y-43.500 I1.500 J0.000 
G1 X-50.033 Y-43.500 
G2 X-41.500 Y-52.033 I0.029 J-8.504 
G1 X-41.500 Y-80.000 
G3 X-40.000 Y-81.500 I1.500 J0.000 
G1 X40.000 
G3 X41.500 Y-80.000 I-0.000 J1.500 
G1 X41.500 Y-52.033 
G2 X50.033 Y-43.500 I8.504 J0.029 
G1 X67.500 Y-43.500 
G3 X69.000 Y-42.000 I-0.000 J1.500 
G1 Y42.000 
G3 X67.500 Y43.500 I-1.500 J-0.000 
G1 X50.033 Y43.500 
G2 X41.500 Y52.033 I-0.029 J8.504 
G1 X41.500 Y80.000 
G3 X41.498 Y80.077 I-1.500 J-0.000 
G1 Z-3.900 F500.000 
G3 X40.000 Y81.500 I-1.498 J-0.077 F800.000 
G1 X-40.000 Y81.500 
G3 X-41.500 Y80.000 I0.000 J-1.500 
G1 X-41.500 Y52.033 
G2 X-50.033 Y43.500 I-8.504 J-0.029 
G1 X-67.500 Y43.500 
G3 X-69.000 Y42.000 I0.000 J-1.500 
G1 Y-42.000 
G3 X-67.500 Y-43.500 I1.500 J0.000 
G1 X-50.033 Y-43.500 
G2 X-41.500 Y-52.033 I0.029 J-8.504 
G1 X-41.500 Y-80.000 
G3 X-40.000 Y-81.500 I1.500 J0.000 
G1 X40.000 
G3 X41.500 Y-80.000 I-0.000 J1.500 
G1 X41.500 Y-52.033 
G2 X50.033 Y-43.500 I8.504 J0.029 
G1 X67.500 Y-43.500 
G3 X69.000 Y-42.000 I-0.000 J1.500 
G1 Y42.000 
G3 X67.500 Y43.500 I-1.500 J-0.000 
G1 X50.033 Y43.500 
G2 X41.500 Y52.033 I-0.029 J8.504 
G1 X41.500 Y80.000 
G3 X41.498 Y80.077 I-1.500 J-0.000 
G1 Z-4.300 F500.000 
G3 X40.000 Y81.500 I-1.498 J-0.077 F800.000 
G1 X-40.000 Y81.500 
G3 X-41.500 Y80.000 I0.000 J-1.500 
G1 X-41.500 Y52.033 
G2 X-50.033 Y43.500 I-8.504 J-0.029 
G1 X-67.500 Y43.500 
G3 X-69.000 Y42.000 I0.000 J-1.500 
G1 Y-42.000 
G3 X-67.500 Y-43.500 I1.500 J0.000 
G1 X-50.033 Y-43.500 
G2 X-41.500 Y-52.033 I0.029 J-8.504 
G1 X-41.500 Y-80.000 
G3 X-40.000 Y-81.500 I1.500 J0.000 
G1 X40.000 
G3 X41.500 Y-80.000 I-0.000 J1.500 
G1 X41.500 Y-52.033 
G2 X50.033 Y-43.500 I8.504 J0.029 
G1 X67.500 Y-43.500 
G3 X69.000 Y-42.000 I-0.000 J1.500 
G1 Y42.000 
G3 X67.500 Y43.500 I-1.500 J-0.000 
G1 X50.033 Y43.500 
G2 X41.500 Y52.033 I-0.029 J8.504 
G1 X41.500 Y80.000 
G3 X41.498 Y80.077 I-1.500 J-0.000 
G1 Z-4.700 F500.000 
G3 X40.000 Y81.500 I-1.498 J-0.077 F800.000 
G1 X-40.000 Y81.500 
G3 X-41.500 Y80.000 I0.000 J-1.500 
G1 X-41.500 Y52.033 
G2 X-50.033 Y43.500 I-8.504 J-0.029 
G1 X-67.500 Y43.500 
G3 X-69.000 Y42.000 I0.000 J-1.500 
G1 Y-42.000 
G3 X-67.500 Y-43.500 I1.500 J0.000 
G1 X-50.033 Y-43.500 
G2 X-41.500 Y-52.033 I0.029 J-8.504 
G1 X-41.500 Y-80.000 
G3 X-40.000 Y-81.500 I1.500 J0.000 
G1 X40.000 
G3 X41.500 Y-80.000 I-0.000 J1.500 
G1 X41.500 Y-52.033 
G2 X50.033 Y-43.500 I8.504 J0.029 
G1 X67.500 Y-43.500 
G3 X69.000 Y-42.000 I-0.000 J1.500 
G1 Y42.000 
G3 X67.500 Y43.500 I-1.500 J-0.000 
G1 X50.033 Y43.500 
G2 X41.500 Y52.033 I-0.029 J8.504 
G1 X41.500 Y80.000 
G3 X41.498 Y80.077 I-1.500 J-0.000 
G1 Z-5.100 F500.000 
G3 X40.000 Y81.500 I-1.498 J-0.077 F800.000 
G1 X-40.000 Y81.500 
G3 X-41.500 Y80.000 I0.000 J-1.500 
G1 X-41.500 Y52.033 
G2 X-50.033 Y43.500 I-8.504 J-0.029 
G1 X-67.500 Y43.500 
G3 X-69.000 Y42.000 I0.000 J-1.500 
G1 Y-42.000 
G3 X-67.500 Y-43.500 I1.500 J0.000 
G1 X-50.033 Y-43.500 
G2 X-41.500 Y-52.033 I0.029 J-8.504 
G1 X-41.500 Y-80.000 
G3 X-40.000 Y-81.500 I1.500 J0.000 
G1 X40.000 
G3 X41.500 Y-80.000 I-0.000 J1.500 
G1 X41.500 Y-52.033 
G2 X50.033 Y-43.500 I8.504 J0.029 
G1 X67.500 Y-43.500 
G3 X69.000 Y-42.000 I-0.000 J1.500 
G1 Y42.000 
G3 X67.500 Y43.500 I-1.500 J-0.000 
G1 X50.033 Y43.500 
G2 X41.500 Y52.033 I-0.029 J8.504 
G1 X41.500 Y80.000 
G3 X41.498 Y80.077 I-1.500 J-0.000 
G1 Z-5.200 F500.000 
G3 X40.000 Y81.500 I-1.498 J-0.077 F800.000 
G1 X-40.000 Y81.500 
G3 X-41.500 Y80.000 I0.000 J-1.500 
G1 X-41.500 Y52.033 
G2 X-50.033 Y43.500 I-8.504 J-0.029 
G1 X-67.500 Y43.500 
G3 X-69.000 Y42.000 I0.000 J-1.500 
G1 Y-42.000 
G3 X-67.500 Y-43.500 I1.500 J0.000 
G1 X-50.033 Y-43.500 
G2 X-41.500 Y-52.033 I0.029 J-8.504 
G1 X-41.500 Y-80.000 
G3 X-40.000 Y-81.500 I1.500 J0.000 
G1 X40.000 
G3 X41.500 Y-80.000 I-0.000 J1.500 
G1 X41.500 Y-52.033 
G2 X50.033 Y-43.500 I8.504 J0.029 
G1 X67.500 Y-43.500 
G3 X69.000 Y-42.000 I-0.000 J1.500 
G1 Y42.000 
G3 X67.500 Y43.500 I-1.500 J-0.000 
G1 X50.033 Y43.500 
G2 X41.500 Y52.033 I-0.029 J8.504 
G1 X41.500 Y80.000 
G3 X41.498 Y80.077 I-1.500 J-0.000 
G0 Z12.000 
M5 (Spindle off)
M30 (End of program)
%