(Exported by FreeCAD)
(Post Processor: grbl_post)
(Output Time:2019-12-29 19:33:06.705360)
(begin preamble)
G17 G90
G21
(begin operation: T4: 2FluteWoodMill001)
(Path: T4: 2FluteWoodMill001)
(T4: 2FluteWoodMill001)
(begin toolchange)
; M6 T4
M3 S4000.0000
(finish operation: T4: 2FluteWoodMill001)
(begin operation: Drilling)
(Path: Drilling)
(Drilling)
(Begin Drilling)
G0 Z10.0000
G90
; G98
G81 X46.1500 Y11.5000 Z-5.5000 F480.00 R5.0000
G81 X73.1500 Y11.5000 Z-5.5000 F480.00 R5.0000
G81 X73.1500 Y63.5000 Z-5.5000 F480.00 R5.0000
G81 X39.1500 Y63.5000 Z-5.5000 F480.00 R5.0000
; G80
G0 Z10.0000
(finish operation: Drilling)
(begin operation: Profile_Faces001)
(Path: Profile_Faces001)
(Profile_Faces001)
(Compensated Tool Path. Diameter: 3.0)
G0 Z10.0000
G0 X113.3607 Y76.0607
G0 Z8.0000
G1 X113.3607 Y76.0607 Z-0.5000 F480.00
G3 X112.3000 Y76.5000 Z-0.5000 I-1.0607 J-1.0607 F1200.00
G1 X0.0000 Y76.5000 Z-0.5000 F1200.00
G3 X-1.5000 Y75.0000 Z-0.5000 I0.0000 J-1.5000 F1200.00
G1 X-1.5000 Y0.0000 Z-0.5000 F1200.00
G3 X0.0000 Y-1.5000 Z-0.5000 I1.5000 J0.0000 F1200.00
G1 X112.3000 Y-1.5000 Z-0.5000 F1200.00
G3 X113.8000 Y0.0000 Z-0.5000 I-0.0000 J1.5000 F1200.00
G1 X113.8000 Y75.0000 Z-0.5000 F1200.00
G3 X113.3607 Y76.0607 Z-0.5000 I-1.5000 J-0.0000 F1200.00
G1 X113.3607 Y76.0607 Z-1.0000 F480.00
G3 X112.3000 Y76.5000 Z-1.0000 I-1.0607 J-1.0607 F1200.00
G1 X0.0000 Y76.5000 Z-1.0000 F1200.00
G3 X-1.5000 Y75.0000 Z-1.0000 I0.0000 J-1.5000 F1200.00
G1 X-1.5000 Y0.0000 Z-1.0000 F1200.00
G3 X0.0000 Y-1.5000 Z-1.0000 I1.5000 J0.0000 F1200.00
G1 X112.3000 Y-1.5000 Z-1.0000 F1200.00
G3 X113.8000 Y0.0000 Z-1.0000 I-0.0000 J1.5000 F1200.00
G1 X113.8000 Y75.0000 Z-1.0000 F1200.00
G3 X113.3607 Y76.0607 Z-1.0000 I-1.5000 J-0.0000 F1200.00
G1 X113.3607 Y76.0607 Z-1.5000 F480.00
G3 X112.3000 Y76.5000 Z-1.5000 I-1.0607 J-1.0607 F1200.00
G1 X0.0000 Y76.5000 Z-1.5000 F1200.00
G3 X-1.5000 Y75.0000 Z-1.5000 I0.0000 J-1.5000 F1200.00
G1 X-1.5000 Y0.0000 Z-1.5000 F1200.00
G3 X0.0000 Y-1.5000 Z-1.5000 I1.5000 J0.0000 F1200.00
G1 X112.3000 Y-1.5000 Z-1.5000 F1200.00
G3 X113.8000 Y0.0000 Z-1.5000 I-0.0000 J1.5000 F1200.00
G1 X113.8000 Y75.0000 Z-1.5000 F1200.00
G3 X113.3607 Y76.0607 Z-1.5000 I-1.5000 J-0.0000 F1200.00
G1 X113.3607 Y76.0607 Z-2.0000 F480.00
G3 X112.3000 Y76.5000 Z-2.0000 I-1.0607 J-1.0607 F1200.00
G1 X0.0000 Y76.5000 Z-2.0000 F1200.00
G3 X-1.5000 Y75.0000 Z-2.0000 I0.0000 J-1.5000 F1200.00
G1 X-1.5000 Y0.0000 Z-2.0000 F1200.00
G3 X0.0000 Y-1.5000 Z-2.0000 I1.5000 J0.0000 F1200.00
G1 X112.3000 Y-1.5000 Z-2.0000 F1200.00
G3 X113.8000 Y0.0000 Z-2.0000 I-0.0000 J1.5000 F1200.00
G1 X113.8000 Y75.0000 Z-2.0000 F1200.00
G3 X113.3607 Y76.0607 Z-2.0000 I-1.5000 J-0.0000 F1200.00
G1 X113.3607 Y76.0607 Z-2.5000 F480.00
G3 X112.3000 Y76.5000 Z-2.5000 I-1.0607 J-1.0607 F1200.00
G1 X0.0000 Y76.5000 Z-2.5000 F1200.00
G3 X-1.5000 Y75.0000 Z-2.5000 I0.0000 J-1.5000 F1200.00
G1 X-1.5000 Y0.0000 Z-2.5000 F1200.00
G3 X0.0000 Y-1.5000 Z-2.5000 I1.5000 J0.0000 F1200.00
G1 X112.3000 Y-1.5000 Z-2.5000 F1200.00
G3 X113.8000 Y0.0000 Z-2.5000 I-0.0000 J1.5000 F1200.00
G1 X113.8000 Y75.0000 Z-2.5000 F1200.00
G3 X113.3607 Y76.0607 Z-2.5000 I-1.5000 J-0.0000 F1200.00
G1 X113.3607 Y76.0607 Z-3.0000 F480.00
G3 X112.3000 Y76.5000 Z-3.0000 I-1.0607 J-1.0607 F1200.00
G1 X0.0000 Y76.5000 Z-3.0000 F1200.00
G3 X-1.5000 Y75.0000 Z-3.0000 I0.0000 J-1.5000 F1200.00
G1 X-1.5000 Y0.0000 Z-3.0000 F1200.00
G3 X0.0000 Y-1.5000 Z-3.0000 I1.5000 J0.0000 F1200.00
G1 X112.3000 Y-1.5000 Z-3.0000 F1200.00
G3 X113.8000 Y0.0000 Z-3.0000 I-0.0000 J1.5000 F1200.00
G1 X113.8000 Y75.0000 Z-3.0000 F1200.00
G3 X113.3607 Y76.0607 Z-3.0000 I-1.5000 J-0.0000 F1200.00
G1 X113.3607 Y76.0607 Z-3.5000 F480.00
G3 X112.3000 Y76.5000 Z-3.5000 I-1.0607 J-1.0607 F1200.00
G1 X0.0000 Y76.5000 Z-3.5000 F1200.00
G3 X-1.5000 Y75.0000 Z-3.5000 I0.0000 J-1.5000 F1200.00
G1 X-1.5000 Y0.0000 Z-3.5000 F1200.00
G3 X0.0000 Y-1.5000 Z-3.5000 I1.5000 J0.0000 F1200.00
G1 X112.3000 Y-1.5000 Z-3.5000 F1200.00
G3 X113.8000 Y0.0000 Z-3.5000 I-0.0000 J1.5000 F1200.00
G1 X113.8000 Y75.0000 Z-3.5000 F1200.00
G3 X113.3607 Y76.0607 Z-3.5000 I-1.5000 J-0.0000 F1200.00
G1 X113.3607 Y76.0607 Z-4.0000 F480.00
G3 X112.3000 Y76.5000 Z-4.0000 I-1.0607 J-1.0607 F1200.00
G1 X0.0000 Y76.5000 Z-4.0000 F1200.00
G3 X-1.5000 Y75.0000 Z-4.0000 I0.0000 J-1.5000 F1200.00
G1 X-1.5000 Y0.0000 Z-4.0000 F1200.00
G3 X0.0000 Y-1.5000 Z-4.0000 I1.5000 J0.0000 F1200.00
G1 X112.3000 Y-1.5000 Z-4.0000 F1200.00
G3 X113.8000 Y0.0000 Z-4.0000 I-0.0000 J1.5000 F1200.00
G1 X113.8000 Y75.0000 Z-4.0000 F1200.00
G3 X113.3607 Y76.0607 Z-4.0000 I-1.5000 J-0.0000 F1200.00
G1 X113.3607 Y76.0607 Z-4.5000 F480.00
G3 X112.3000 Y76.5000 Z-4.5000 I-1.0607 J-1.0607 F1200.00
G1 X0.0000 Y76.5000 Z-4.5000 F1200.00
G3 X-1.5000 Y75.0000 Z-4.5000 I0.0000 J-1.5000 F1200.00
G1 X-1.5000 Y0.0000 Z-4.5000 F1200.00
G3 X0.0000 Y-1.5000 Z-4.5000 I1.5000 J0.0000 F1200.00
G1 X112.3000 Y-1.5000 Z-4.5000 F1200.00
G3 X113.8000 Y0.0000 Z-4.5000 I-0.0000 J1.5000 F1200.00
G1 X113.8000 Y75.0000 Z-4.5000 F1200.00
G3 X113.3607 Y76.0607 Z-4.5000 I-1.5000 J-0.0000 F1200.00
G1 X113.3607 Y76.0607 Z-5.0000 F480.00
G3 X112.3000 Y76.5000 Z-5.0000 I-1.0607 J-1.0607 F1200.00
G1 X0.0000 Y76.5000 Z-5.0000 F1200.00
G3 X-1.5000 Y75.0000 Z-5.0000 I0.0000 J-1.5000 F1200.00
G1 X-1.5000 Y0.0000 Z-5.0000 F1200.00
G3 X0.0000 Y-1.5000 Z-5.0000 I1.5000 J0.0000 F1200.00
G1 X112.3000 Y-1.5000 Z-5.0000 F1200.00
G3 X113.8000 Y0.0000 Z-5.0000 I-0.0000 J1.5000 F1200.00
G1 X113.8000 Y75.0000 Z-5.0000 F1200.00
G3 X113.3607 Y76.0607 Z-5.0000 I-1.5000 J-0.0000 F1200.00
G1 X113.3607 Y76.0607 Z-5.5000 F480.00
G3 X112.3000 Y76.5000 Z-5.5000 I-1.0607 J-1.0607 F1200.00
G1 X0.0000 Y76.5000 Z-5.5000 F1200.00
G3 X-1.5000 Y75.0000 Z-5.5000 I0.0000 J-1.5000 F1200.00
G1 X-1.5000 Y0.0000 Z-5.5000 F1200.00
G3 X0.0000 Y-1.5000 Z-5.5000 I1.5000 J0.0000 F1200.00
G1 X112.3000 Y-1.5000 Z-5.5000 F1200.00
G3 X113.8000 Y0.0000 Z-5.5000 I-0.0000 J1.5000 F1200.00
G1 X113.8000 Y75.0000 Z-5.5000 F1200.00
G3 X113.3607 Y76.0607 Z-5.5000 I-1.5000 J-0.0000 F1200.00
G0 Z10.0000
(finish operation: Profile_Faces001)
(begin postamble)
M5
G17 G90
; M2
