(Exported by FreeCAD)
(Post Processor: grbl_post)
(Output Time:2020-02-08 20:18:16.792118)
(begin preamble)
G17 G90
G21
(begin operation: T3: AluminiumMill)
(Path: T3: AluminiumMill)
(T3: AluminiumMill)
(begin toolchange)
; M6 T3
M3 S17000.0000
(finish operation: T3: AluminiumMill)
(begin operation: TagDressup)
(Path: TagDressup)
G0 Z8.0000
G0 X52.8058 Y7.9197 Z8.0000
G0 X52.8058 Y7.9197 Z6.0000
G1 X52.8058 Y7.9197 Z2.9000 F399.60
G2 X52.6507 Y6.9687 Z2.9000 I-0.4197 J-0.4197 F800.00
G2 X52.1215 Y8.0313 Z2.9000 I-0.2646 J0.5313 F800.00
G2 X52.8058 Y7.9197 Z2.9000 I0.2646 J-0.5313 F800.00
G1 X52.8058 Y7.9197 Z2.6000 F399.60
G2 X52.6507 Y6.9687 Z2.6000 I-0.4197 J-0.4197 F800.00
G2 X52.1215 Y8.0313 Z2.6000 I-0.2646 J0.5313 F800.00
G2 X52.8058 Y7.9197 Z2.6000 I0.2646 J-0.5313 F800.00
G1 X52.8058 Y7.9197 Z2.3000 F399.60
G2 X52.6507 Y6.9687 Z2.3000 I-0.4197 J-0.4197 F800.00
G2 X52.1215 Y8.0313 Z2.3000 I-0.2646 J0.5313 F800.00
G2 X52.8058 Y7.9197 Z2.3000 I0.2646 J-0.5313 F800.00
G1 X52.8058 Y7.9197 Z2.0000 F399.60
G2 X52.6507 Y6.9687 Z2.0000 I-0.4197 J-0.4197 F800.00
G2 X52.1215 Y8.0313 Z2.0000 I-0.2646 J0.5313 F800.00
G2 X52.8058 Y7.9197 Z2.0000 I0.2646 J-0.5313 F800.00
G1 X52.8058 Y7.9197 Z1.7000 F399.60
G2 X52.6507 Y6.9687 Z1.7000 I-0.4197 J-0.4197 F800.00
G2 X52.1215 Y8.0313 Z1.7000 I-0.2646 J0.5313 F800.00
G2 X52.8058 Y7.9197 Z1.7000 I0.2646 J-0.5313 F800.00
G1 X52.8058 Y7.9197 Z1.4000 F399.60
G2 X52.6507 Y6.9687 Z1.4000 I-0.4197 J-0.4197 F800.00
G2 X52.1215 Y8.0313 Z1.4000 I-0.2646 J0.5313 F800.00
G2 X52.8058 Y7.9197 Z1.4000 I0.2646 J-0.5313 F800.00
G1 X52.8058 Y7.9197 Z1.1000 F399.60
G2 X52.6507 Y6.9687 Z1.1000 I-0.4197 J-0.4197 F800.00
G2 X52.1215 Y8.0313 Z1.1000 I-0.2646 J0.5313 F800.00
G2 X52.8058 Y7.9197 Z1.1000 I0.2646 J-0.5313 F800.00
G1 X52.8058 Y7.9197 Z0.8000 F399.60
G2 X52.6507 Y6.9687 Z0.8000 I-0.4197 J-0.4197 F800.00
G2 X52.1215 Y8.0313 Z0.8000 I-0.2646 J0.5313 F800.00
G2 X52.8058 Y7.9197 Z0.8000 I0.2646 J-0.5313 F800.00
G1 X52.8058 Y7.9197 Z0.5000 F399.60
G2 X52.6507 Y6.9687 Z0.5000 I-0.4197 J-0.4197 F800.00
G2 X52.1215 Y8.0313 Z0.5000 I-0.2646 J0.5313 F800.00
G2 X52.8058 Y7.9197 Z0.5000 I0.2646 J-0.5313 F800.00
G1 X52.8058 Y7.9197 Z0.2000 F399.60
G2 X52.6507 Y6.9687 Z0.2000 I-0.4197 J-0.4197 F800.00
G2 X52.1215 Y8.0313 Z0.2000 I-0.2646 J0.5313 F800.00
G2 X52.8058 Y7.9197 Z0.2000 I0.2646 J-0.5313 F800.00
G1 X52.8058 Y7.9197 Z-0.1000 F399.60
G2 X52.6507 Y6.9687 Z-0.1000 I-0.4197 J-0.4197 F800.00
G2 X52.1215 Y8.0313 Z-0.1000 I-0.2646 J0.5313 F800.00
G2 X52.8058 Y7.9197 Z-0.1000 I0.2646 J-0.5313 F800.00
G1 X52.8058 Y7.9197 Z-0.2000 F399.60
G2 X52.6507 Y6.9687 Z-0.2000 I-0.4197 J-0.4197 F800.00
G2 X52.1215 Y8.0313 Z-0.2000 I-0.2646 J0.5313 F800.00
G2 X52.8058 Y7.9197 Z-0.2000 I0.2646 J-0.5313 F800.00
G0 X52.8058 Y7.9197 Z8.0000
G0 X46.4202 Y40.6008 Z8.0000
G0 X46.4202 Y40.6008 Z6.0000
G1 X46.4202 Y40.6008 Z2.9000 F399.60
G3 X-1.4423 Y26.7402 Z2.9000 I-21.4204 J-15.6006 F800.00
G3 X27.3883 Y-1.3916 Z2.9000 I26.4423 J-1.7402 F800.00
G3 X37.1559 Y1.4535 Z2.9000 I-2.3864 J26.3820 F800.00
G2 X45.6471 Y1.1225 Z2.9000 I3.9587 J-7.5261 F800.00
G2 X47.6050 Y-0.1231 Z2.9000 I-20.9730 J-35.1276 F800.00
G3 X57.2829 Y15.0499 Z2.9000 I4.7810 J7.6235 F800.00
G3 X55.3999 Y16.2557 Z2.9000 I-17.0628 J-24.5718 F800.00
G2 X51.4747 Y23.8625 Z2.9000 I4.5742 J7.1765 F800.00
G3 X46.4202 Y40.6008 Z2.9000 I-26.4748 J1.1377 F800.00
G1 X46.4202 Y40.6008 Z2.6000 F399.60
G3 X-1.4423 Y26.7402 Z2.6000 I-21.4204 J-15.6006 F800.00
G3 X27.3883 Y-1.3916 Z2.6000 I26.4423 J-1.7402 F800.00
G3 X37.1559 Y1.4535 Z2.6000 I-2.3864 J26.3820 F800.00
G2 X45.6471 Y1.1225 Z2.6000 I3.9587 J-7.5261 F800.00
G2 X47.6050 Y-0.1231 Z2.6000 I-20.9730 J-35.1276 F800.00
G3 X57.2829 Y15.0499 Z2.6000 I4.7810 J7.6235 F800.00
G3 X55.3999 Y16.2557 Z2.6000 I-17.0628 J-24.5718 F800.00
G2 X51.4747 Y23.8625 Z2.6000 I4.5742 J7.1765 F800.00
G3 X46.4202 Y40.6008 Z2.6000 I-26.4748 J1.1377 F800.00
G1 X46.4202 Y40.6008 Z2.3000 F399.60
G3 X-1.4423 Y26.7402 Z2.3000 I-21.4204 J-15.6006 F800.00
G3 X27.3883 Y-1.3916 Z2.3000 I26.4423 J-1.7402 F800.00
G3 X37.1559 Y1.4535 Z2.3000 I-2.3864 J26.3820 F800.00
G2 X45.6471 Y1.1225 Z2.3000 I3.9587 J-7.5261 F800.00
G2 X47.6050 Y-0.1231 Z2.3000 I-20.9730 J-35.1276 F800.00
G3 X57.2829 Y15.0499 Z2.3000 I4.7810 J7.6235 F800.00
G3 X55.3999 Y16.2557 Z2.3000 I-17.0628 J-24.5718 F800.00
G2 X51.4747 Y23.8625 Z2.3000 I4.5742 J7.1765 F800.00
G3 X46.4202 Y40.6008 Z2.3000 I-26.4748 J1.1377 F800.00
G1 X46.4202 Y40.6008 Z2.0000 F399.60
G3 X-1.4423 Y26.7402 Z2.0000 I-21.4204 J-15.6006 F800.00
G3 X27.3883 Y-1.3916 Z2.0000 I26.4423 J-1.7402 F800.00
G3 X37.1559 Y1.4535 Z2.0000 I-2.3864 J26.3820 F800.00
G2 X45.6471 Y1.1225 Z2.0000 I3.9587 J-7.5261 F800.00
G2 X47.6050 Y-0.1231 Z2.0000 I-20.9730 J-35.1276 F800.00
G3 X57.2829 Y15.0499 Z2.0000 I4.7810 J7.6235 F800.00
G3 X55.3999 Y16.2557 Z2.0000 I-17.0628 J-24.5718 F800.00
G2 X51.4747 Y23.8625 Z2.0000 I4.5742 J7.1765 F800.00
G3 X46.4202 Y40.6008 Z2.0000 I-26.4748 J1.1377 F800.00
G1 X46.4202 Y40.6008 Z1.7000 F399.60
G3 X-1.4423 Y26.7402 Z1.7000 I-21.4204 J-15.6006 F800.00
G3 X27.3883 Y-1.3916 Z1.7000 I26.4423 J-1.7402 F800.00
G3 X37.1559 Y1.4535 Z1.7000 I-2.3864 J26.3820 F800.00
G2 X45.6471 Y1.1225 Z1.7000 I3.9587 J-7.5261 F800.00
G2 X47.6050 Y-0.1231 Z1.7000 I-20.9730 J-35.1276 F800.00
G3 X57.2829 Y15.0499 Z1.7000 I4.7810 J7.6235 F800.00
G3 X55.3999 Y16.2557 Z1.7000 I-17.0628 J-24.5718 F800.00
G2 X51.4747 Y23.8625 Z1.7000 I4.5742 J7.1765 F800.00
G3 X46.4202 Y40.6008 Z1.7000 I-26.4748 J1.1377 F800.00
G1 X46.4202 Y40.6008 Z1.4000 F399.60
G3 X16.0534 Y49.9436 Z1.4000 I-21.4204 J-15.6006 F800.00
G1 X15.9592 Y49.9096 Z1.5000
G3 X14.5042 Y49.3323 Z1.5000 I9.0406 J-24.9094 F800.00
G1 X14.4123 Y49.2925 Z1.4000
G3 X-1.4423 Y26.7402 Z1.4000 I10.5875 J-24.2923 F800.00
G3 X-1.4980 Y25.2730 Z1.4000 I26.4423 J-1.7402 F800.00
G1 X-1.4989 Y25.1729 Z1.5000
G3 X-1.4628 Y23.6075 Z1.5000 I26.4989 J-0.1729 F800.00
G1 X-1.4574 Y23.5076 Z1.4000
G3 X9.5584 Y3.4645 Z1.4000 I26.4574 J1.4924 F800.00
G1 X9.6398 Y3.4063 Z1.5000
G3 X10.9422 Y2.5367 Z1.5000 I15.3602 J21.5937 F800.00
G1 X11.0271 Y2.4838 Z1.4000
G3 X27.3883 Y-1.3916 Z1.4000 I13.9729 J22.5162 F800.00
G3 X37.1559 Y1.4535 Z1.4000 I-2.3864 J26.3820 F800.00
G2 X39.6827 Y2.3097 Z1.4000 I3.9587 J-7.5261 F800.00
G1 X39.7815 Y2.3260 Z1.5000
G2 X41.3428 Y2.4281 Z1.5000 I1.3331 J-8.3986 F800.00
G1 X41.4429 Y2.4248 Z1.4000
G2 X45.6471 Y1.1225 Z1.4000 I-0.3283 J-8.4974 F800.00
G2 X47.6050 Y-0.1231 Z1.4000 I-20.9730 J-35.1276 F800.00
G3 X59.4604 Y1.9389 Z1.4000 I4.7810 J7.6235 F800.00
G1 X59.5218 Y2.0180 Z1.5000
G3 X60.3636 Y3.3369 Z1.5000 I-7.1358 J5.4824 F800.00
G1 X60.4094 Y3.4259 Z1.4000
G3 X57.2829 Y15.0499 Z1.4000 I-8.0234 J4.0744 F800.00
G3 X55.3999 Y16.2557 Z1.4000 I-17.0628 J-24.5718 F800.00
G2 X51.4747 Y23.8625 Z1.4000 I4.5742 J7.1765 F800.00
G3 X49.6698 Y34.6750 Z1.4000 I-26.4748 J1.1377 F800.00
G1 X49.6331 Y34.7681 Z1.5000
G3 X49.0132 Y36.2060 Z1.5000 I-24.6333 J-9.7679 F800.00
G1 X48.9707 Y36.2966 Z1.4000
G3 X46.4202 Y40.6008 Z1.4000 I-23.9709 J-11.2964 F800.00
G1 X46.4202 Y40.6008 Z1.1000 F399.60
G3 X16.3368 Y50.0434 Z1.1000 I-21.4204 J-15.6006 F800.00
G1 X15.9592 Y49.9096 Z1.5000
G3 X14.5042 Y49.3323 Z1.5000 I9.0406 J-24.9094 F800.00
G1 X14.1376 Y49.1709 Z1.1000
G3 X-1.4423 Y26.7402 Z1.1000 I10.8623 J-24.1707 F800.00
G3 X-1.4933 Y25.5730 Z1.1000 I26.4423 J-1.7402 F800.00
G1 X-1.4989 Y25.1729 Z1.5000
G3 X-1.4628 Y23.6075 Z1.5000 I26.4989 J-0.1729 F800.00
G1 X-1.4388 Y23.2081 Z1.1000
G3 X9.3155 Y3.6407 Z1.1000 I26.4388 J1.7919 F800.00
G1 X9.6398 Y3.4063 Z1.5000
G3 X10.9422 Y2.5367 Z1.5000 I15.3602 J21.5937 F800.00
G1 X11.2830 Y2.3270 Z1.1000
G3 X27.3883 Y-1.3916 Z1.1000 I13.7170 J22.6730 F800.00
G3 X37.1559 Y1.4535 Z1.1000 I-2.3864 J26.3820 F800.00
G2 X39.3873 Y2.2539 Z1.1000 I3.9587 J-7.5261 F800.00
G1 X39.7815 Y2.3260 Z1.5000
G2 X41.3428 Y2.4281 Z1.5000 I1.3331 J-8.3986 F800.00
G1 X41.7430 Y2.4079 Z1.1000
G2 X45.6471 Y1.1225 Z1.1000 I-0.6284 J-8.4804 F800.00
G2 X47.6050 Y-0.1231 Z1.1000 I-20.9730 J-35.1276 F800.00
G3 X59.2707 Y1.7058 Z1.1000 I4.7810 J7.6235 F800.00
G1 X59.5218 Y2.0180 Z1.5000
G3 X60.3636 Y3.3369 Z1.5000 I-7.1358 J5.4824 F800.00
G1 X60.5410 Y3.6961 Z1.1000
G3 X57.2829 Y15.0499 Z1.1000 I-8.1549 J3.8042 F800.00
G3 X55.3999 Y16.2557 Z1.1000 I-17.0628 J-24.5718 F800.00
G2 X51.4747 Y23.8625 Z1.1000 I4.5742 J7.1765 F800.00
G3 X49.7778 Y34.3950 Z1.1000 I-26.4748 J1.1377 F800.00
G1 X49.6331 Y34.7681 Z1.5000
G3 X49.0132 Y36.2060 Z1.5000 I-24.6333 J-9.7679 F800.00
G1 X48.8412 Y36.5673 Z1.1000
G3 X46.4202 Y40.6008 Z1.1000 I-23.8414 J-11.5671 F800.00
G1 X46.4202 Y40.6008 Z0.8000 F399.60
G3 X16.6212 Y50.1400 Z0.8000 I-21.4204 J-15.6006 F800.00
G1 X15.9592 Y49.9096 Z1.5000
G3 X14.5042 Y49.3323 Z1.5000 I9.0406 J-24.9094 F800.00
G1 X13.8643 Y49.0462 Z0.8000
G3 X-1.4423 Y26.7402 Z0.8000 I11.1355 J-24.0460 F800.00
G3 X-1.4851 Y25.8730 Z0.8000 I26.4423 J-1.7402 F800.00
G1 X-1.4989 Y25.1729 Z1.5000
G3 X-1.4628 Y23.6075 Z1.5000 I26.4989 J-0.1729 F800.00
G1 X-1.4168 Y22.9088 Z0.8000
G3 X9.0746 Y3.8198 Z0.8000 I26.4168 J2.0912 F800.00
G1 X9.6398 Y3.4063 Z1.5000
G3 X10.9422 Y2.5367 Z1.5000 I15.3602 J21.5937 F800.00
G1 X11.5407 Y2.1731 Z0.8000
G3 X27.3883 Y-1.3916 Z0.8000 I13.4593 J22.8269 F800.00
G3 X37.1559 Y1.4535 Z0.8000 I-2.3864 J26.3820 F800.00
G2 X39.0938 Y2.1875 Z0.8000 I3.9587 J-7.5261 F800.00
G1 X39.7815 Y2.3260 Z1.5000
G2 X41.3428 Y2.4281 Z1.5000 I1.3331 J-8.3986 F800.00
G1 X42.0427 Y2.3803 Z0.8000
G2 X45.6471 Y1.1225 Z0.8000 I-0.9281 J-8.4529 F800.00
G2 X47.6050 Y-0.1231 Z0.8000 I-20.9730 J-35.1276 F800.00
G3 X59.0732 Y1.4789 Z0.8000 I4.7810 J7.6235 F800.00
G1 X59.5218 Y2.0180 Z1.5000
G3 X60.3636 Y3.3369 Z1.5000 I-7.1358 J5.4824 F800.00
G1 X60.6636 Y3.9708 Z0.8000
G3 X57.2829 Y15.0499 Z0.8000 I-8.2775 J3.5295 F800.00
G3 X55.3999 Y16.2557 Z0.8000 I-17.0628 J-24.5718 F800.00
G2 X51.4747 Y23.8625 Z0.8000 I4.5742 J7.1765 F800.00
G3 X49.8826 Y34.1138 Z0.8000 I-26.4748 J1.1377 F800.00
G1 X49.6331 Y34.7681 Z1.5000
G3 X49.0132 Y36.2060 Z1.5000 I-24.6333 J-9.7679 F800.00
G1 X48.7087 Y36.8366 Z0.8000
G3 X46.4202 Y40.6008 Z0.8000 I-23.7089 J-11.8364 F800.00
G1 X46.4202 Y40.6008 Z0.5000 F399.60
G3 X16.9067 Y50.2334 Z0.5000 I-21.4204 J-15.6006 F800.00
G1 X15.9592 Y49.9096 Z1.5000
G3 X14.5042 Y49.3323 Z1.5000 I9.0406 J-24.9094 F800.00
G1 X13.5924 Y48.9184 Z0.5000
G3 X-1.4423 Y26.7402 Z0.5000 I11.4074 J-23.9182 F800.00
G3 X-1.4735 Y26.1729 Z0.5000 I26.4423 J-1.7402 F800.00
G1 X-1.4989 Y25.1729 Z1.5000
G3 X-1.4628 Y23.6075 Z1.5000 I26.4989 J-0.1729 F800.00
G1 X-1.3914 Y22.6097 Z0.5000
G3 X8.8357 Y4.0015 Z0.5000 I26.3914 J2.3903 F800.00
G1 X9.6398 Y3.4063 Z1.5000
G3 X10.9422 Y2.5367 Z1.5000 I15.3602 J21.5937 F800.00
G1 X11.8001 Y2.0221 Z0.5000
G3 X27.3883 Y-1.3916 Z0.5000 I13.1999 J22.9779 F800.00
G3 X37.1559 Y1.4535 Z0.5000 I-2.3864 J26.3820 F800.00
G2 X38.8023 Y2.1107 Z0.5000 I3.9587 J-7.5261 F800.00
G1 X39.7815 Y2.3260 Z1.5000
G2 X41.3428 Y2.4281 Z1.5000 I1.3331 J-8.3986 F800.00
G1 X42.3417 Y2.3421 Z0.5000
G2 X45.6471 Y1.1225 Z0.5000 I-1.2271 J-8.4147 F800.00
G2 X47.6050 Y-0.1231 Z0.5000 I-20.9730 J-35.1276 F800.00
G3 X58.8679 Y1.2584 Z0.5000 I4.7810 J7.6235 F800.00
G1 X59.5218 Y2.0180 Z1.5000
G3 X60.3636 Y3.3369 Z1.5000 I-7.1358 J5.4824 F800.00
G1 X60.7771 Y4.2499 Z0.5000
G3 X57.2829 Y15.0499 Z0.5000 I-8.3911 J3.2505 F800.00
G3 X55.3999 Y16.2557 Z0.5000 I-17.0628 J-24.5718 F800.00
G2 X51.4747 Y23.8625 Z0.5000 I4.5742 J7.1765 F800.00
G3 X49.9843 Y33.8314 Z0.5000 I-26.4748 J1.1377 F800.00
G1 X49.6331 Y34.7681 Z1.5000
G3 X49.0132 Y36.2060 Z1.5000 I-24.6333 J-9.7679 F800.00
G1 X48.5731 Y37.1044 Z0.5000
G3 X46.4202 Y40.6008 Z0.5000 I-23.5733 J-12.1042 F800.00
G1 X46.4202 Y40.6008 Z0.2000 F399.60
G3 X17.1933 Y50.3235 Z0.2000 I-21.4204 J-15.6006 F800.00
G1 X15.9592 Y49.9096 Z1.5000
G3 X14.5042 Y49.3323 Z1.5000 I9.0406 J-24.9094 F800.00
G1 X13.3220 Y48.7876 Z0.2000
G3 X-1.4423 Y26.7402 Z0.2000 I11.6779 J-23.7874 F800.00
G3 X-1.4585 Y26.4728 Z0.2000 I26.4423 J-1.7402 F800.00
G1 X-1.4989 Y25.1729 Z1.5000
G3 X-1.4628 Y23.6075 Z1.5000 I26.4989 J-0.1729 F800.00
G1 X-1.3627 Y22.3109 Z0.2000
G3 X8.5988 Y4.1860 Z0.2000 I26.3627 J2.6891 F800.00
G1 X9.6398 Y3.4063 Z1.5000
G3 X10.9422 Y2.5367 Z1.5000 I15.3602 J21.5937 F800.00
G1 X12.0613 Y1.8740 Z0.2000
G3 X27.3883 Y-1.3916 Z0.2000 I12.9387 J23.1260 F800.00
G3 X37.1559 Y1.4535 Z0.2000 I-2.3864 J26.3820 F800.00
G2 X38.5132 Y2.0234 Z0.2000 I3.9587 J-7.5261 F800.00
G1 X39.7815 Y2.3260 Z1.5000
G2 X41.3428 Y2.4281 Z1.5000 I1.3331 J-8.3986 F800.00
G1 X42.6397 Y2.2932 Z0.2000
G2 X45.6471 Y1.1225 Z0.2000 I-1.5251 J-8.3658 F800.00
G2 X47.6050 Y-0.1231 Z0.2000 I-20.9730 J-35.1276 F800.00
G3 X58.6549 Y1.0446 Z0.2000 I4.7810 J7.6235 F800.00
G1 X59.5218 Y2.0180 Z1.5000
G3 X60.3636 Y3.3369 Z1.5000 I-7.1358 J5.4824 F800.00
G1 X60.8814 Y4.5330 Z0.2000
G3 X57.2829 Y15.0499 Z0.2000 I-8.4953 J2.9673 F800.00
G3 X55.3999 Y16.2557 Z0.2000 I-17.0628 J-24.5718 F800.00
G2 X51.4747 Y23.8625 Z0.2000 I4.5742 J7.1765 F800.00
G3 X50.0827 Y33.5478 Z0.2000 I-26.4748 J1.1377 F800.00
G1 X49.6331 Y34.7681 Z1.5000
G3 X49.0132 Y36.2060 Z1.5000 I-24.6333 J-9.7679 F800.00
G1 X48.4345 Y37.3707 Z0.2000
G3 X46.4202 Y40.6008 Z0.2000 I-23.4346 J-12.3705 F800.00
G1 X46.4202 Y40.6008 Z-0.1000 F399.60
G3 X17.4810 Y50.4104 Z-0.1000 I-21.4204 J-15.6006 F800.00
G1 X15.9592 Y49.9096 Z1.5000
G3 X14.5042 Y49.3323 Z1.5000 I9.0406 J-24.9094 F800.00
G1 X13.0530 Y48.6536 Z-0.1000
G3 X-1.4401 Y26.7725 Z-0.1000 I11.9468 J-23.6534 F800.00
G1 X-1.4423 Y26.7402 Z-0.0677
G1 X-1.4989 Y25.1729 Z1.5000
G3 X-1.4628 Y23.6075 Z1.5000 I26.4989 J-0.1729 F800.00
G1 X-1.3305 Y22.0123 Z-0.1000
G3 X8.3640 Y4.3732 Z-0.1000 I26.3305 J2.9877 F800.00
G1 X9.6398 Y3.4063 Z1.5000
G3 X10.9422 Y2.5367 Z1.5000 I15.3602 J21.5937 F800.00
G1 X12.3243 Y1.7288 Z-0.1000
G3 X27.3883 Y-1.3916 Z-0.1000 I12.6757 J23.2712 F800.00
G3 X37.1559 Y1.4535 Z-0.1000 I-2.3864 J26.3820 F800.00
G2 X38.2267 Y1.9257 Z-0.1000 I3.9587 J-7.5261 F800.00
G1 X39.7815 Y2.3260 Z1.5000
G2 X41.3428 Y2.4281 Z1.5000 I1.3331 J-8.3986 F800.00
G1 X42.6936 Y2.2832 Z0.1456
G1 X42.9365 Y2.2337 Z-0.1000
G2 X45.6471 Y1.1225 Z-0.1000 I-1.8219 J-8.3062 F800.00
G2 X47.6050 Y-0.1231 Z-0.1000 I-20.9730 J-35.1276 F800.00
G3 X58.4345 Y0.8376 Z-0.1000 I4.7810 J7.6235 F800.00
G1 X59.5218 Y2.0180 Z1.5000
G3 X60.3636 Y3.3369 Z1.5000 I-7.1358 J5.4824 F800.00
G1 X60.9763 Y4.8201 Z-0.1000
G3 X57.2829 Y15.0499 Z-0.1000 I-8.5902 J2.6802 F800.00
G3 X55.3999 Y16.2557 Z-0.1000 I-17.0628 J-24.5718 F800.00
G2 X51.4747 Y23.8625 Z-0.1000 I4.5742 J7.1765 F800.00
G3 X50.1779 Y33.2630 Z-0.1000 I-26.4748 J1.1377 F800.00
G1 X49.6331 Y34.7681 Z1.5000
G3 X49.0132 Y36.2060 Z1.5000 I-24.6333 J-9.7679 F800.00
G1 X48.2928 Y37.6354 Z-0.1000
G3 X46.4202 Y40.6008 Z-0.1000 I-23.2930 J-12.6352 F800.00
G1 X46.4202 Y40.6008 Z-0.2000 F399.60
G3 X17.5771 Y50.4386 Z-0.2000 I-21.4204 J-15.6006 F800.00
G1 X15.9592 Y49.9096 Z1.5000
G3 X14.5042 Y49.3323 Z1.5000 I9.0406 J-24.9094 F800.00
G1 X12.9636 Y48.6083 Z-0.2000
G3 X-1.4332 Y26.8724 Z-0.2000 I12.0362 J-23.6081 F800.00
G1 X-1.4423 Y26.7402 Z-0.0677
G1 X-1.4989 Y25.1729 Z1.5000
G3 X-1.4628 Y23.6075 Z1.5000 I26.4989 J-0.1729 F800.00
G1 X-1.3190 Y21.9129 Z-0.2000
G3 X8.2861 Y4.4362 Z-0.2000 I26.3190 J3.0871 F800.00
G1 X9.6398 Y3.4063 Z1.5000
G3 X10.9422 Y2.5367 Z1.5000 I15.3602 J21.5937 F800.00
G1 X12.4123 Y1.6811 Z-0.2000
G3 X27.3883 Y-1.3916 Z-0.2000 I12.5877 J23.3189 F800.00
G3 X37.1559 Y1.4535 Z-0.2000 I-2.3864 J26.3820 F800.00
G2 X38.1319 Y1.8909 Z-0.2000 I3.9587 J-7.5261 F800.00
G1 X39.7815 Y2.3260 Z1.5000
G2 X41.3428 Y2.4281 Z1.5000 I1.3331 J-8.3986 F800.00
G1 X42.6936 Y2.2832 Z0.1456
G1 X43.0350 Y2.2114 Z-0.2000
G2 X45.6471 Y1.1225 Z-0.2000 I-1.9205 J-8.2840 F800.00
G2 X47.6050 Y-0.1231 Z-0.2000 I-20.9730 J-35.1276 F800.00
G3 X58.3594 Y0.7702 Z-0.2000 I4.7810 J7.6235 F800.00
G1 X59.5218 Y2.0180 Z1.5000
G3 X60.3636 Y3.3369 Z1.5000 I-7.1358 J5.4824 F800.00
G1 X61.0058 Y4.9166 Z-0.2000
G3 X57.2829 Y15.0499 Z-0.2000 I-8.6197 J2.5837 F800.00
G3 X55.3999 Y16.2557 Z-0.2000 I-17.0628 J-24.5718 F800.00
G2 X51.4747 Y23.8625 Z-0.2000 I4.5742 J7.1765 F800.00
G3 X50.2090 Y33.1678 Z-0.2000 I-26.4748 J1.1377 F800.00
G1 X49.6331 Y34.7681 Z1.5000
G3 X49.0132 Y36.2060 Z1.5000 I-24.6333 J-9.7679 F800.00
G1 X48.2449 Y37.7233 Z-0.2000
G3 X46.4202 Y40.6008 Z-0.2000 I-23.2451 J-12.7231 F800.00
G0 X46.4202 Y40.6008 Z8.0000
(finish operation: TagDressup)
(begin postamble)
M5
G17 G90
; M2
